/JOB
//NAME CONTOUR2
//POS
///NPOS 1135,0,0,0,0,0
///TOOL 0
///POSTYPE PULSE
///PULSE
C00000=3811,31631,-29134,676,-27450,-2228
C00001=3782,31619,-27749,681,-27446,-2217
C00002=3782,31619,-29149,681,-27446,-2217
C00003=3998,31651,-29110,649,-27460,-2301
C00004=4214,31682,-29070,618,-27474,-2385
C00005=4430,31714,-29031,586,-27487,-2469
C00006=4647,31745,-28992,555,-27501,-2553
C00007=4863,31777,-28952,523,-27515,-2636
C00008=5079,31808,-28913,492,-27528,-2720
C00009=5295,31840,-28873,460,-27542,-2804
C00010=5511,31871,-28834,429,-27556,-2888
C00011=5727,31902,-28794,397,-27570,-2971
C00012=5943,31934,-28755,366,-27583,-3055
C00013=6159,31965,-28715,334,-27597,-3139
C00014=6375,31997,-28676,303,-27611,-3223
C00015=6591,32028,-28637,271,-27625,-3307
C00016=6808,32060,-28597,240,-27638,-3390
C00017=7024,32091,-28558,208,-27652,-3474
C00018=7240,32123,-28518,177,-27666,-3558
C00019=7456,32154,-28479,145,-27680,-3642
C00020=7672,32186,-28439,114,-27693,-3726
C00021=7888,32217,-28400,83,-27707,-3809
C00022=8104,32248,-28361,51,-27721,-3893
C00023=8320,32280,-28321,20,-27735,-3977
C00024=8536,32311,-28282,-12,-27748,-4061
C00025=8752,32343,-28242,-43,-27762,-4145
C00026=8969,32374,-28203,-75,-27776,-4228
C00027=9167,32388,-28185,-104,-27783,-4305
C00028=9096,32347,-28235,-93,-27767,-4278
C00029=8880,32315,-28275,-62,-27753,-4194
C00030=8664,32284,-28314,-30,-27739,-4110
C00031=8448,32252,-28354,1,-27725,-4026
C00032=8231,32221,-28393,33,-27712,-3943
C00033=8015,32190,-28433,64,-27698,-3859
C00034=7799,32158,-28472,96,-27684,-3775
C00035=7583,32127,-28512,127,-27670,-3691
C00036=7366,32095,-28551,159,-27657,-3607
C00037=7150,32064,-28590,190,-27643,-3523
C00038=6934,32032,-28630,222,-27629,-3440
C00039=6718,32001,-28669,253,-27615,-3356
C00040=6502,31969,-28709,285,-27602,-3272
C00041=6285,31938,-28748,316,-27588,-3188
C00042=6069,31906,-28788,348,-27574,-3104
C00043=5853,31875,-28827,379,-27561,-3020
C00044=5637,31843,-28867,411,-27547,-2937
C00045=5420,31812,-28906,442,-27533,-2853
C00046=5204,31780,-28945,474,-27519,-2769
C00047=4988,31749,-28985,505,-27506,-2685
C00048=4772,31717,-29024,537,-27492,-2601
C00049=4555,31686,-29064,568,-27478,-2517
C00050=4339,31655,-29103,600,-27464,-2434
C00051=4123,31623,-29143,631,-27451,-2350
C00052=3907,31592,-29182,663,-27437,-2266
C00053=3690,31560,-29222,694,-27423,-2182
C00054=3474,31529,-29261,726,-27409,-2098
C00055=3258,31497,-29300,757,-27396,-2014
C00056=3042,31466,-29340,789,-27382,-1931
C00057=2825,31434,-29379,820,-27368,-1847
C00058=2918,31494,-29307,807,-27391,-1882
C00059=3134,31525,-29268,775,-27405,-1966
C00060=3350,31556,-29228,744,-27419,-2050
C00061=3566,31588,-29189,712,-27432,-2134
C00062=3782,31619,-29149,681,-27446,-2217
C00063=3782,31619,-27749,681,-27446,-2217
C00064=3616,31840,-27484,703,-27526,-2152
C00065=3616,31840,-28884,703,-27526,-2152
C00066=3437,31812,-28918,729,-27514,-2082
C00067=3275,31775,-28965,752,-27499,-2019
C00068=3095,31748,-28999,779,-27487,-1949
C00069=2934,31710,-29046,802,-27471,-1887
C00070=2753,31683,-29079,828,-27460,-1817
C00071=2833,31725,-29027,816,-27476,-1848
C00072=3009,31755,-28990,791,-27489,-1916
C00073=3173,31790,-28946,767,-27504,-1980
C00074=3350,31819,-28910,741,-27516,-2048
C00075=3514,31855,-28865,717,-27531,-2112
C00076=3692,31884,-28830,691,-27543,-2181
C00077=3855,31920,-28785,668,-27559,-2244
C00078=4036,31947,-28751,641,-27570,-2314
C00079=4195,31985,-28704,618,-27586,-2376
C00080=4376,32012,-28671,592,-27598,-2446
C00081=4536,32050,-28623,568,-27614,-2508
C00082=4717,32076,-28590,542,-27625,-2578
C00083=4876,32115,-28542,519,-27641,-2640
C00084=5057,32141,-28509,493,-27653,-2710
C00085=5216,32180,-28461,470,-27668,-2772
C00086=5397,32206,-28428,443,-27680,-2842
C00087=5555,32245,-28380,420,-27696,-2904
C00088=5737,32271,-28347,394,-27708,-2974
C00089=5895,32309,-28300,371,-27723,-3035
C00090=6076,32336,-28266,344,-27735,-3106
C00091=6235,32374,-28219,321,-27751,-3167
C00092=6416,32401,-28186,295,-27763,-3237
C00093=6575,32438,-28139,272,-27778,-3299
C00094=6755,32465,-28105,246,-27790,-3369
C00095=6915,32503,-28059,223,-27806,-3431
C00096=7094,32530,-28024,197,-27818,-3501
C00097=7255,32567,-27978,173,-27833,-3563
C00098=7433,32595,-27943,147,-27845,-3632
C00099=7595,32631,-27898,124,-27860,-3695
C00100=7754,32642,-27884,101,-27866,-3757
C00101=7699,32615,-27917,109,-27855,-3735
C00102=7537,32579,-27962,133,-27840,-3672
C00103=7356,32553,-27995,159,-27829,-3602
C00104=7197,32515,-28042,182,-27813,-3541
C00105=7016,32488,-28076,208,-27801,-3470
C00106=6858,32450,-28123,231,-27785,-3409
C00107=6677,32423,-28156,257,-27774,-3339
C00108=6519,32385,-28204,280,-27758,-3277
C00109=6338,32359,-28237,307,-27746,-3207
C00110=6179,32320,-28285,330,-27730,-3146
C00111=5998,32294,-28318,356,-27719,-3075
C00112=5839,32255,-28366,379,-27703,-3014
C00113=5658,32229,-28399,405,-27691,-2943
C00114=5499,32191,-28446,429,-27675,-2882
C00115=5318,32164,-28480,455,-27664,-2812
C00116=5159,32126,-28527,478,-27648,-2750
C00117=4978,32099,-28560,504,-27636,-2680
C00118=4819,32061,-28608,528,-27620,-2618
C00119=4638,32034,-28641,554,-27609,-2548
C00120=4477,31997,-28688,577,-27593,-2486
C00121=4297,31969,-28722,603,-27581,-2416
C00122=4136,31932,-28768,627,-27566,-2353
C00123=3957,31905,-28803,653,-27554,-2284
C00124=3778,31876,-28838,679,-27542,-2214
C00125=3616,31840,-28884,703,-27526,-2152
C00126=3616,31840,-27484,703,-27526,-2152
C00127=3498,32159,-27099,717,-27644,-2104
C00128=3498,32159,-28499,717,-27644,-2104
C00129=3386,32135,-28528,733,-27634,-2060
C00130=3276,32111,-28558,749,-27624,-2018
C00131=3176,32081,-28595,764,-27612,-1979
C00132=3074,32053,-28630,779,-27600,-1939
C00133=2959,32031,-28657,795,-27591,-1895
C00134=2854,32003,-28691,811,-27580,-1854
C00135=2754,31974,-28728,825,-27567,-1815
C00136=2646,31948,-28760,841,-27557,-1773
C00137=2531,31926,-28787,858,-27547,-1729
C00138=2552,31960,-28746,854,-27560,-1737
C00139=2660,31986,-28714,839,-27571,-1778
C00140=2774,32007,-28687,822,-27580,-1823
C00141=2875,32037,-28650,807,-27592,-1862
C00142=2988,32060,-28622,791,-27602,-1906
C00143=3087,32090,-28584,776,-27614,-1944
C00144=3197,32115,-28554,760,-27624,-1987
C00145=3297,32144,-28517,746,-27636,-2025
C00146=3415,32164,-28492,729,-27645,-2071
C00147=3519,32192,-28458,713,-27656,-2112
C00148=3619,32222,-28421,699,-27668,-2150
C00149=3718,32252,-28384,684,-27681,-2189
C00150=3826,32278,-28352,669,-27691,-2231
C00151=3940,32299,-28325,652,-27700,-2275
C00152=4040,32329,-28288,638,-27713,-2314
C00153=4139,32359,-28251,623,-27725,-2352
C00154=4252,32382,-28223,607,-27734,-2396
C00155=4361,32407,-28192,591,-27745,-2438
C00156=4460,32437,-28155,576,-27757,-2477
C00157=4563,32465,-28120,561,-27768,-2516
C00158=4677,32487,-28093,545,-27778,-2561
C00159=4781,32514,-28059,530,-27789,-2601
C00160=4880,32544,-28022,515,-27801,-2640
C00161=4988,32569,-27991,500,-27812,-2681
C00162=5101,32591,-27963,483,-27821,-2725
C00163=5200,32621,-27926,469,-27833,-2764
C00164=5300,32651,-27889,454,-27845,-2802
C00165=5399,32681,-27853,440,-27857,-2841
C00166=5510,32704,-27824,424,-27867,-2884
C00167=5610,32719,-27804,409,-27874,-2923
C00168=5600,32695,-27834,411,-27865,-2919
C00169=5498,32666,-27869,426,-27853,-2880
C00170=5384,32644,-27897,442,-27844,-2835
C00171=5280,32617,-27930,457,-27833,-2795
C00172=5181,32588,-27967,472,-27820,-2756
C00173=5074,32562,-27999,487,-27810,-2715
C00174=4960,32540,-28026,504,-27800,-2671
C00175=4860,32510,-28063,518,-27788,-2632
C00176=4761,32480,-28100,533,-27776,-2593
C00177=4649,32457,-28128,549,-27767,-2550
C00178=4550,32427,-28166,564,-27754,-2512
C00179=4440,32403,-28196,580,-27744,-2469
C00180=4341,32373,-28233,594,-27732,-2430
C00181=4223,32353,-28258,611,-27723,-2385
C00182=4125,32323,-28296,625,-27711,-2347
C00183=4019,32296,-28329,641,-27700,-2306
C00184=3920,32266,-28366,655,-27688,-2267
C00185=3813,32240,-28398,671,-27677,-2226
C00186=3698,32218,-28425,687,-27668,-2181
C00187=3598,32188,-28462,702,-27656,-2142
C00188=3498,32159,-28499,717,-27644,-2104
C00189=3498,32159,-27099,717,-27644,-2104
C00190=3196,32504,-26683,757,-27769,-1984
C00191=3196,32504,-28083,757,-27769,-1984
C00192=3053,32452,-28146,778,-27748,-1929
C00193=2910,32401,-28209,799,-27728,-1873
C00194=2767,32350,-28272,820,-27707,-1818
C00195=2624,32299,-28336,841,-27687,-1762
C00196=2480,32247,-28399,862,-27666,-1707
C00197=2337,32196,-28462,883,-27646,-1651
C00198=2193,32145,-28525,904,-27625,-1596
C00199=2019,32111,-28567,929,-27611,-1528
C00200=2112,32170,-28495,915,-27633,-1564
C00201=2256,32221,-28432,894,-27654,-1620
C00202=2415,32264,-28379,871,-27671,-1681
C00203=2558,32315,-28316,850,-27692,-1737
C00204=2702,32366,-28253,829,-27712,-1792
C00205=2845,32418,-28190,808,-27733,-1848
C00206=2988,32469,-28127,787,-27754,-1903
C00207=3131,32520,-28064,766,-27774,-1958
C00208=3277,32569,-28003,745,-27794,-2015
C00209=3419,32621,-27940,724,-27814,-2070
C00210=3561,32672,-27877,703,-27835,-2125
C00211=3717,32716,-27822,681,-27853,-2186
C00212=3859,32767,-27759,660,-27874,-2241
C00213=4001,32818,-27696,639,-27894,-2296
C00214=4143,32870,-27633,618,-27915,-2351
C00215=4285,32921,-27570,598,-27935,-2406
C00216=4434,32968,-27512,576,-27954,-2464
C00217=4575,33019,-27449,556,-27975,-2519
C00218=4716,33070,-27385,535,-27996,-2573
C00219=4857,33122,-27322,515,-28016,-2628
C00220=5008,33167,-27265,493,-28035,-2687
C00221=5149,33218,-27202,473,-28056,-2741
C00222=5290,33269,-27140,452,-28076,-2796
C00223=5431,33320,-27077,432,-28097,-2851
C00224=5572,33371,-27014,411,-28117,-2906
C00225=5712,33422,-26951,391,-28138,-2960
C00226=5863,33468,-26894,369,-28157,-3019
C00227=6003,33519,-26831,349,-28177,-3073
C00228=6143,33570,-26768,329,-28198,-3128
C00229=6292,33596,-26735,308,-28209,-3186
C00230=6216,33550,-26792,319,-28191,-3156
C00231=6075,33499,-26854,339,-28171,-3101
C00232=5935,33448,-26917,359,-28150,-3047
C00233=5779,33406,-26970,382,-28133,-2986
C00234=5638,33355,-27033,402,-28112,-2931
C00235=5497,33304,-27096,422,-28091,-2877
C00236=5356,33253,-27159,443,-28071,-2822
C00237=5215,33202,-27222,463,-28050,-2767
C00238=5074,33151,-27285,484,-28030,-2712
C00239=4930,33102,-27346,505,-28010,-2656
C00240=4789,33050,-27409,525,-27989,-2602
C00241=4647,32999,-27472,546,-27968,-2547
C00242=4493,32955,-27526,568,-27950,-2487
C00243=4351,32904,-27589,589,-27930,-2432
C00244=4209,32853,-27652,609,-27909,-2377
C00245=4067,32802,-27715,630,-27889,-2322
C00246=3925,32751,-27778,651,-27868,-2266
C00247=3782,32700,-27841,671,-27848,-2211
C00248=3634,32652,-27900,693,-27828,-2154
C00249=3491,32601,-27964,714,-27808,-2098
C00250=3349,32549,-28027,735,-27787,-2043
C00251=3196,32504,-28083,757,-27769,-1984
C00252=3196,32504,-26683,757,-27769,-1984
C00253=2907,32872,-26240,794,-27902,-1869
C00254=2907,32872,-27640,794,-27902,-1869
C00255=2765,32805,-27722,815,-27876,-1814
C00256=2622,32738,-27804,836,-27849,-1759
C00257=2480,32671,-27887,857,-27823,-1704
C00258=2337,32604,-27969,878,-27797,-1648
C00259=2194,32537,-28051,899,-27770,-1593
C00260=2070,32479,-28122,918,-27747,-1545
C00261=1912,32421,-28193,941,-27724,-1484
C00262=1768,32354,-28276,962,-27698,-1428
C00263=1625,32287,-28358,983,-27671,-1373
C00264=1465,32228,-28430,1007,-27648,-1311
C00265=1505,32293,-28350,1000,-27673,-1326
C00266=1649,32361,-28268,979,-27699,-1382
C00267=1792,32428,-28186,958,-27725,-1437
C00268=1951,32486,-28114,935,-27749,-1499
C00269=2094,32553,-28032,913,-27775,-1554
C00270=2237,32620,-27950,892,-27801,-1609
C00271=2380,32687,-27868,871,-27828,-1665
C00272=2523,32754,-27786,850,-27854,-1720
C00273=2665,32821,-27704,829,-27880,-1775
C00274=2807,32887,-27622,809,-27907,-1830
C00275=2949,32954,-27540,788,-27933,-1885
C00276=3091,33021,-27458,767,-27960,-1940
C00277=3248,33079,-27386,744,-27983,-2001
C00278=3389,33146,-27304,723,-28009,-2055
C00279=3531,33213,-27222,703,-28036,-2110
C00280=3672,33280,-27140,682,-28062,-2165
C00281=3813,33346,-27058,662,-28089,-2219
C00282=3953,33413,-26976,641,-28115,-2274
C00283=4094,33480,-26894,621,-28142,-2328
C00284=4234,33546,-26812,600,-28168,-2383
C00285=4374,33613,-26730,580,-28194,-2437
C00286=4514,33680,-26648,560,-28221,-2492
C00287=4669,33738,-26577,537,-28244,-2552
C00288=4808,33804,-26495,517,-28271,-2606
C00289=4948,33871,-26413,497,-28297,-2660
C00290=5087,33937,-26331,477,-28324,-2714
C00291=5226,34004,-26249,457,-28350,-2768
C00292=5364,34070,-26167,437,-28377,-2822
C00293=5503,34137,-26085,417,-28403,-2876
C00294=5646,34167,-26047,397,-28416,-2932
C00295=5584,34112,-26115,406,-28395,-2908
C00296=5445,34045,-26197,426,-28368,-2854
C00297=5306,33979,-26279,446,-28342,-2800
C00298=5168,33912,-26361,466,-28315,-2746
C00299=5028,33846,-26442,486,-28289,-2692
C00300=4883,33783,-26520,507,-28264,-2635
C00301=4764,33722,-26595,524,-28239,-2589
C00302=4614,33664,-26667,546,-28216,-2531
C00303=4474,33597,-26749,566,-28190,-2476
C00304=4334,33531,-26831,586,-28163,-2422
C00305=4194,33464,-26913,607,-28137,-2368
C00306=4053,33397,-26995,627,-28110,-2313
C00307=3913,33330,-27077,648,-28084,-2259
C00308=3772,33264,-27159,668,-28057,-2204
C00309=3631,33197,-27241,689,-28031,-2149
C00310=3489,33130,-27323,709,-28005,-2095
C00311=3333,33072,-27394,732,-27981,-2034
C00312=3191,33005,-27476,753,-27955,-1979
C00313=3049,32938,-27558,774,-27928,-1924
C00314=2907,32872,-27640,794,-27902,-1869
C00315=2907,32872,-26240,794,-27902,-1869
C00316=2326,33258,-25778,873,-28039,-1640
C00317=2326,33258,-27178,873,-28039,-1640
C00318=2239,33201,-27248,886,-28016,-1606
C00319=2151,33144,-27318,899,-27994,-1572
C00320=2063,33087,-27387,912,-27972,-1538
C00321=1975,33030,-27457,925,-27950,-1504
C00322=1887,32973,-27527,938,-27928,-1470
C00323=1764,32915,-27598,956,-27905,-1423
C00324=1710,32858,-27666,964,-27884,-1402
C00325=1587,32801,-27737,983,-27861,-1354
C00326=1499,32743,-27807,996,-27839,-1320
C00327=1410,32686,-27877,1009,-27817,-1286
C00328=1321,32629,-27947,1022,-27795,-1252
C00329=1232,32572,-28016,1036,-27772,-1218
C00330=1143,32515,-28086,1049,-27750,-1183
C00331=1054,32458,-28156,1062,-27728,-1149
C00332=965,32400,-28226,1076,-27706,-1115
C00333=875,32343,-28295,1089,-27684,-1080
C00334=721,32303,-28346,1112,-27667,-1020
C00335=776,32359,-28277,1103,-27689,-1041
C00336=866,32416,-28207,1090,-27711,-1076
C00337=990,32474,-28136,1071,-27734,-1124
C00338=1079,32531,-28067,1058,-27756,-1158
C00339=1168,32589,-27997,1045,-27778,-1192
C00340=1257,32646,-27927,1031,-27800,-1227
C00341=1346,32703,-27857,1018,-27822,-1261
C00342=1434,32760,-27787,1005,-27844,-1295
C00343=1523,32817,-27718,991,-27866,-1329
C00344=1611,32874,-27648,978,-27888,-1363
C00345=1708,32932,-27578,964,-27911,-1401
C00346=1802,32989,-27508,950,-27933,-1437
C00347=1895,33046,-27438,936,-27955,-1473
C00348=1988,33103,-27368,922,-27977,-1509
C00349=2081,33160,-27298,909,-28000,-1545
C00350=2174,33217,-27228,895,-28022,-1580
C00351=2262,33274,-27159,882,-28044,-1614
C00352=2349,33331,-27089,869,-28066,-1648
C00353=2436,33388,-27019,856,-28088,-1682
C00354=2524,33445,-26950,843,-28110,-1715
C00355=2611,33502,-26880,830,-28133,-1749
C00356=2698,33559,-26810,817,-28155,-1783
C00357=2785,33616,-26741,805,-28177,-1816
C00358=2871,33673,-26671,792,-28199,-1850
C00359=2958,33730,-26601,779,-28221,-1883
C00360=3048,33787,-26531,766,-28244,-1918
C00361=3140,33844,-26462,753,-28266,-1954
C00362=3231,33901,-26392,739,-28288,-1989
C00363=3323,33958,-26322,726,-28310,-2025
C00364=3440,33991,-26280,709,-28324,-2070
C00365=3402,33942,-26341,715,-28305,-2056
C00366=3316,33885,-26411,727,-28283,-2022
C00367=3230,33828,-26480,740,-28261,-1989
C00368=3143,33771,-26550,753,-28239,-1956
C00369=3055,33714,-26620,766,-28216,-1921
C00370=2963,33657,-26690,779,-28194,-1886
C00371=2872,33600,-26759,793,-28172,-1850
C00372=2779,33543,-26829,806,-28150,-1815
C00373=2687,33486,-26899,820,-28127,-1779
C00374=2588,33429,-26969,834,-28105,-1741
C00375=2501,33372,-27039,847,-28083,-1707
C00376=2414,33315,-27109,860,-28061,-1673
C00377=2326,33258,-27178,873,-28039,-1640
C00378=2326,33258,-25778,873,-28039,-1640
C00379=1390,33489,-25508,1002,-28113,-1272
C00380=1390,33489,-26908,1002,-28113,-1272
C00381=1336,33448,-26958,1010,-28097,-1251
C00382=1284,33406,-27008,1018,-28081,-1231
C00383=1238,33365,-27058,1025,-28065,-1213
C00384=1207,33324,-27108,1030,-28050,-1201
C00385=1152,33283,-27159,1038,-28034,-1180
C00386=1101,33242,-27209,1046,-28018,-1161
C00387=1055,33201,-27259,1053,-28002,-1143
C00388=1023,33160,-27309,1058,-27987,-1131
C00389=968,33118,-27359,1066,-27971,-1110
C00390=917,33077,-27409,1074,-27955,-1090
C00391=871,33036,-27459,1081,-27939,-1073
C00392=825,32995,-27510,1088,-27924,-1055
C00393=783,32954,-27560,1094,-27908,-1039
C00394=733,32912,-27610,1102,-27892,-1020
C00395=687,32871,-27660,1109,-27876,-1002
C00396=640,32830,-27710,1116,-27861,-984
C00397=597,32789,-27760,1123,-27845,-968
C00398=548,32747,-27811,1130,-27829,-949
C00399=501,32706,-27861,1137,-27813,-931
C00400=465,32665,-27911,1143,-27798,-917
C00401=410,32624,-27961,1151,-27782,-896
C00402=362,32582,-28011,1159,-27766,-878
C00403=315,32541,-28061,1166,-27751,-860
C00404=278,32500,-28111,1172,-27735,-846
C00405=223,32459,-28162,1180,-27719,-824
C00406=175,32417,-28212,1187,-27703,-806
C00407=128,32376,-28262,1195,-27688,-788
C00408=90,32335,-28312,1201,-27672,-774
C00409=-15,32302,-28353,1216,-27659,-733
C00410=32,32343,-28303,1209,-27674,-751
C00411=62,32384,-28253,1204,-27690,-762
C00412=118,32425,-28203,1195,-27706,-784
C00413=172,32467,-28152,1187,-27721,-805
C00414=219,32508,-28102,1180,-27737,-822
C00415=266,32549,-28052,1173,-27753,-840
C00416=305,32590,-28002,1167,-27769,-855
C00417=359,32632,-27952,1158,-27784,-876
C00418=405,32673,-27902,1151,-27800,-894
C00419=437,32714,-27852,1146,-27816,-906
C00420=492,32755,-27801,1138,-27831,-927
C00421=545,32797,-27751,1130,-27847,-947
C00422=591,32838,-27701,1123,-27863,-965
C00423=623,32879,-27651,1118,-27878,-977
C00424=679,32920,-27601,1110,-27894,-998
C00425=730,32962,-27551,1102,-27910,-1018
C00426=776,33003,-27500,1095,-27926,-1036
C00427=809,33044,-27451,1090,-27941,-1048
C00428=864,33085,-27400,1081,-27957,-1069
C00429=914,33126,-27350,1074,-27973,-1089
C00430=960,33167,-27300,1067,-27989,-1106
C00431=994,33208,-27250,1061,-28004,-1119
C00432=1049,33250,-27200,1053,-28020,-1140
C00433=1097,33291,-27149,1046,-28036,-1159
C00434=1143,33332,-27099,1039,-28052,-1176
C00435=1189,33373,-27049,1032,-28068,-1194
C00436=1232,33414,-26999,1025,-28083,-1211
C00437=1280,33456,-26949,1018,-28099,-1229
C00438=1307,33496,-26899,1014,-28115,-1239
C00439=1363,33514,-26878,1006,-28122,-1261
C00440=1390,33489,-26908,1002,-28113,-1272
C00441=1390,33489,-25508,1002,-28113,-1272
C00442=192,33763,-25188,1167,-28199,-800
C00443=192,33763,-26588,1167,-28199,-800
C00444=155,33707,-26657,1172,-28177,-786
C00445=110,33650,-26725,1180,-28156,-769
C00446=64,33594,-26794,1187,-28135,-752
C00447=43,33538,-26862,1190,-28114,-744
C00448=22,33481,-26930,1194,-28093,-736
C00449=-23,33425,-26999,1201,-28072,-719
C00450=-69,33368,-27067,1208,-28050,-702
C00451=-107,33312,-27136,1215,-28029,-687
C00452=-128,33256,-27204,1218,-28008,-680
C00453=-157,33200,-27272,1223,-27987,-669
C00454=-202,33143,-27340,1230,-27966,-652
C00455=-248,33086,-27409,1238,-27944,-634
C00456=-279,33030,-27477,1243,-27923,-623
C00457=-291,32974,-27545,1245,-27902,-618
C00458=-337,32917,-27614,1253,-27881,-601
C00459=-383,32861,-27682,1260,-27860,-584
C00460=-429,32804,-27751,1267,-27838,-566
C00461=-427,32748,-27818,1268,-27818,-568
C00462=-473,32692,-27887,1275,-27797,-550
C00463=-519,32635,-27955,1282,-27775,-533
C00464=-550,32579,-28024,1288,-27754,-521
C00465=-606,32522,-28093,1296,-27733,-500
C00466=-609,32466,-28160,1298,-27712,-499
C00467=-656,32409,-28229,1305,-27691,-482
C00468=-702,32353,-28297,1313,-27669,-464
C00469=-700,32297,-28365,1313,-27649,-465
C00470=-845,32256,-28415,1334,-27632,-409
C00471=-847,32312,-28348,1334,-27653,-408
C00472=-801,32369,-28279,1326,-27674,-425
C00473=-754,32426,-28210,1319,-27696,-443
C00474=-708,32482,-28142,1311,-27717,-461
C00475=-704,32538,-28074,1310,-27737,-462
C00476=-663,32595,-28006,1303,-27759,-477
C00477=-617,32651,-27937,1296,-27780,-494
C00478=-571,32708,-27868,1289,-27801,-512
C00479=-550,32764,-27800,1285,-27822,-519
C00480=-527,32820,-27732,1281,-27843,-528
C00481=-481,32877,-27664,1273,-27864,-545
C00482=-435,32934,-27595,1266,-27886,-563
C00483=-397,32990,-27527,1260,-27907,-577
C00484=-392,33046,-27459,1258,-27928,-579
C00485=-346,33103,-27390,1251,-27949,-596
C00486=-300,33159,-27322,1244,-27970,-613
C00487=-254,33216,-27253,1237,-27992,-631
C00488=-225,33272,-27185,1232,-28013,-641
C00489=-211,33328,-27117,1229,-28034,-646
C00490=-166,33385,-27049,1222,-28055,-664
C00491=-120,33441,-26980,1215,-28076,-681
C00492=-109,33497,-26912,1212,-28097,-685
C00493=-78,33553,-26844,1207,-28118,-696
C00494=-33,33610,-26776,1200,-28139,-714
C00495=13,33666,-26707,1193,-28161,-731
C00496=41,33723,-26639,1188,-28182,-741
C00497=61,33779,-26571,1185,-28203,-749
C00498=100,33835,-26502,1178,-28224,-763
C00499=145,33892,-26434,1171,-28245,-780
C00500=191,33918,-26402,1165,-28256,-798
C00501=241,33875,-26452,1158,-28241,-818
C00502=197,33819,-26521,1165,-28219,-801
C00503=192,33763,-26588,1167,-28199,-800
C00504=192,33763,-25188,1167,-28199,-800
C00505=-1476,33794,-25170,1398,-28188,-146
C00506=-1476,33794,-26570,1398,-28188,-146
C00507=-1472,33666,-26723,1400,-28141,-149
C00508=-1468,33539,-26876,1401,-28095,-151
C00509=-1465,33412,-27029,1403,-28048,-154
C00510=-1461,33285,-27182,1404,-28002,-157
C00511=-1457,33158,-27335,1406,-27955,-160
C00512=-1454,33031,-27488,1407,-27909,-163
C00513=-1450,32904,-27641,1409,-27862,-166
C00514=-1446,32776,-27794,1411,-27816,-169
C00515=-1443,32649,-27947,1412,-27769,-171
C00516=-1439,32522,-28100,1414,-27723,-174
C00517=-1435,32395,-28253,1415,-27676,-177
C00518=-1431,32268,-28406,1417,-27630,-180
C00519=-1575,32165,-28532,1439,-27590,-125
C00520=-1578,32292,-28379,1437,-27637,-122
C00521=-1582,32419,-28225,1435,-27683,-120
C00522=-1585,32546,-28072,1434,-27730,-117
C00523=-1589,32674,-27919,1432,-27776,-114
C00524=-1592,32801,-27766,1431,-27823,-111
C00525=-1595,32928,-27613,1429,-27869,-108
C00526=-1599,33055,-27460,1427,-27916,-106
C00527=-1602,33182,-27307,1426,-27962,-103
C00528=-1606,33309,-27154,1424,-28009,-100
C00529=-1609,33437,-27001,1422,-28055,-97
C00530=-1612,33564,-26848,1421,-28102,-95
C00531=-1616,33691,-26695,1419,-28148,-92
C00532=-1619,33818,-26542,1417,-28195,-89
C00533=-1623,33945,-26389,1416,-28241,-86
C00534=-1626,34072,-26236,1414,-28288,-83
C00535=-1629,34200,-26083,1413,-28334,-81
C00536=-1633,34327,-25930,1411,-28381,-78
C00537=-1636,34454,-25776,1409,-28427,-75
C00538=-1640,34581,-25623,1408,-28474,-72
C00539=-1643,34708,-25470,1406,-28520,-70
C00540=-1646,34835,-25317,1404,-28567,-67
C00541=-1650,34963,-25164,1403,-28613,-64
C00542=-1653,35090,-25011,1401,-28659,-61
C00543=-1657,35217,-24858,1399,-28706,-58
C00544=-1660,35344,-24705,1398,-28752,-56
C00545=-1663,35471,-24552,1396,-28799,-53
C00546=-1667,35598,-24399,1395,-28845,-50
C00547=-1670,35726,-24246,1393,-28892,-47
C00548=-1674,35853,-24093,1391,-28938,-45
C00549=-1584,35942,-23984,1378,-28972,-79
C00550=-1535,35828,-24121,1373,-28931,-100
C00551=-1531,35701,-24274,1374,-28885,-103
C00552=-1527,35573,-24427,1376,-28838,-106
C00553=-1524,35446,-24580,1378,-28792,-108
C00554=-1520,35319,-24733,1379,-28746,-111
C00555=-1516,35192,-24886,1381,-28699,-114
C00556=-1512,35065,-25039,1382,-28653,-117
C00557=-1509,34938,-25192,1384,-28606,-120
C00558=-1505,34811,-25345,1385,-28560,-123
C00559=-1501,34684,-25498,1387,-28513,-126
C00560=-1498,34556,-25651,1389,-28467,-128
C00561=-1494,34429,-25804,1390,-28420,-131
C00562=-1490,34302,-25958,1392,-28374,-134
C00563=-1487,34175,-26111,1393,-28327,-137
C00564=-1483,34048,-26264,1395,-28281,-140
C00565=-1479,33921,-26417,1396,-28234,-143
C00566=-1476,33794,-26570,1398,-28188,-146
C00567=-1476,33794,-25170,1398,-28188,-146
C00568=-1100,31823,-27539,1377,-27471,-314
C00569=-1100,31823,-28939,1377,-27471,-314
C00570=-811,31844,-28911,1336,-27482,-427
C00571=-528,31859,-28892,1295,-27490,-537
C00572=-267,31853,-28896,1258,-27491,-639
C00573=-4,31849,-28898,1221,-27492,-742
C00574=251,31837,-28911,1185,-27491,-841
C00575=480,31802,-28952,1152,-27480,-931
C00576=710,31765,-28994,1120,-27469,-1021
C00577=905,31720,-29048,1093,-27454,-1097
C00578=1065,31664,-29114,1071,-27436,-1160
C00579=1211,31605,-29185,1051,-27415,-1218
C00580=1319,31534,-29268,1036,-27390,-1260
C00581=1421,31463,-29355,1022,-27365,-1300
C00582=1477,31378,-29456,1015,-27334,-1323
C00583=1484,31280,-29574,1015,-27298,-1326
C00584=1491,31182,-29692,1016,-27262,-1330
C00585=1447,31084,-29812,1023,-27225,-1314
C00586=1354,30984,-29933,1038,-27188,-1278
C00587=1255,30884,-30055,1053,-27150,-1241
C00588=1116,30783,-30177,1075,-27111,-1188
C00589=949,30682,-30300,1100,-27072,-1124
C00590=760,30580,-30425,1129,-27033,-1051
C00591=535,30477,-30550,1163,-26993,-965
C00592=294,30383,-30665,1199,-26956,-872
C00593=38,30298,-30769,1237,-26923,-773
C00594=-234,30221,-30864,1278,-26892,-668
C00595=-506,30144,-30958,1318,-26861,-563
C00596=-807,30083,-31033,1363,-26836,-447
C00597=-1111,30023,-31107,1408,-26811,-330
C00598=-1415,29964,-31180,1452,-26787,-212
C00599=-1212,30039,-31088,1422,-26816,-290
C00600=-896,30091,-31024,1375,-26838,-413
C00601=-605,30158,-30942,1332,-26865,-525
C00602=-323,30229,-30854,1290,-26894,-634
C00603=-49,30305,-30761,1250,-26924,-740
C00604=197,30396,-30650,1213,-26960,-834
C00605=449,30484,-30542,1175,-26995,-931
C00606=674,30587,-30416,1141,-27035,-1017
C00607=863,30689,-30292,1112,-27074,-1090
C00608=1016,30790,-30169,1089,-27113,-1149
C00609=1159,30891,-30047,1067,-27151,-1203
C00610=1253,30991,-29926,1052,-27189,-1239
C00611=1347,31090,-29804,1038,-27227,-1275
C00612=1390,31189,-29685,1030,-27264,-1291
C00613=1383,31287,-29567,1030,-27300,-1287
C00614=1355,31379,-29455,1033,-27334,-1276
C00615=1297,31463,-29355,1040,-27364,-1252
C00616=1205,31538,-29266,1052,-27390,-1216
C00617=1063,31598,-29193,1072,-27411,-1160
C00618=917,31658,-29123,1092,-27432,-1102
C00619=722,31704,-29069,1119,-27447,-1026
C00620=527,31750,-29015,1147,-27461,-950
C00621=298,31786,-28972,1179,-27472,-860
C00622=55,31809,-28947,1213,-27478,-765
C00623=-204,31817,-28940,1250,-27478,-664
C00624=-463,31825,-28932,1287,-27478,-563
C00625=-741,31814,-28947,1326,-27472,-455
C00626=-1034,31790,-28979,1368,-27459,-340
C00627=-1336,31758,-29019,1412,-27444,-223
C00628=-1403,31789,-28982,1421,-27455,-196
C00629=-1100,31823,-28939,1377,-27471,-314
C00630=-1100,31823,-27539,1377,-27471,-314
C00631=233,29875,-29877,1215,-26769,-853
C00632=233,29875,-31277,1215,-26769,-853
C00633=328,29861,-31294,1201,-26765,-890
C00634=363,29830,-31332,1197,-26753,-904
C00635=415,29804,-31363,1189,-26744,-924
C00636=472,29779,-31392,1181,-26736,-947
C00637=520,29751,-31425,1175,-26726,-966
C00638=572,29725,-31456,1168,-26717,-986
C00639=625,29699,-31488,1160,-26708,-1007
C00640=677,29673,-31519,1153,-26699,-1027
C00641=730,29647,-31550,1146,-26689,-1048
C00642=783,29621,-31581,1138,-26680,-1069
C00643=835,29595,-31613,1131,-26671,-1089
C00644=888,29569,-31644,1124,-26662,-1110
C00645=942,29543,-31675,1116,-26653,-1131
C00646=994,29517,-31706,1109,-26644,-1151
C00647=1047,29491,-31737,1101,-26634,-1172
C00648=1099,29465,-31769,1094,-26625,-1193
C00649=1152,29438,-31800,1087,-26616,-1214
C00650=1205,29412,-31831,1079,-26607,-1234
C00651=1259,29386,-31862,1072,-26598,-1255
C00652=1312,29360,-31893,1064,-26588,-1276
C00653=1365,29334,-31925,1057,-26579,-1297
C00654=1415,29307,-31957,1050,-26570,-1316
C00655=1471,29282,-31987,1042,-26561,-1338
C00656=1525,29256,-32018,1034,-26552,-1359
C00657=1578,29230,-32049,1027,-26543,-1380
C00658=1622,29202,-32083,1021,-26532,-1397
C00659=1683,29178,-32112,1012,-26524,-1421
C00660=1738,29152,-32143,1004,-26515,-1443
C00661=1792,29126,-32174,997,-26506,-1464
C00662=1743,29094,-32213,1004,-26494,-1445
C00663=1682,29118,-32184,1013,-26502,-1421
C00664=1621,29142,-32155,1022,-26510,-1397
C00665=1560,29166,-32127,1030,-26519,-1373
C00666=1529,29198,-32088,1035,-26530,-1361
C00667=1474,29224,-32057,1042,-26539,-1340
C00668=1413,29248,-32029,1051,-26548,-1316
C00669=1352,29272,-32000,1060,-26556,-1292
C00670=1316,29302,-31963,1065,-26567,-1278
C00671=1262,29328,-31932,1072,-26576,-1257
C00672=1206,29354,-31902,1080,-26585,-1235
C00673=1156,29381,-31870,1087,-26595,-1215
C00674=1103,29407,-31838,1094,-26604,-1195
C00675=1050,29433,-31807,1102,-26613,-1174
C00676=997,29459,-31776,1109,-26622,-1153
C00677=944,29485,-31745,1117,-26631,-1133
C00678=892,29511,-31714,1124,-26641,-1112
C00679=839,29537,-31682,1131,-26650,-1091
C00680=786,29563,-31651,1139,-26659,-1070
C00681=733,29589,-31620,1146,-26668,-1050
C00682=681,29615,-31589,1153,-26677,-1029
C00683=628,29641,-31558,1161,-26686,-1009
C00684=576,29667,-31526,1168,-26696,-988
C00685=523,29693,-31495,1175,-26705,-967
C00686=471,29720,-31464,1182,-26714,-947
C00687=418,29746,-31433,1190,-26723,-926
C00688=366,29772,-31402,1197,-26732,-906
C00689=314,29798,-31370,1204,-26741,-885
C00690=261,29824,-31339,1211,-26750,-865
C00691=209,29850,-31308,1219,-26760,-844
C00692=233,29875,-31277,1215,-26769,-853
C00693=233,29875,-29877,1215,-26769,-853
C00694=908,30078,-29629,1114,-26850,-1113
C00695=908,30078,-31029,1114,-26850,-1113
C00696=983,30091,-31013,1103,-26855,-1142
C00697=1083,30061,-31049,1089,-26845,-1181
C00698=1182,30030,-31085,1075,-26834,-1220
C00699=1282,30000,-31121,1061,-26824,-1259
C00700=1381,29970,-31157,1046,-26814,-1298
C00701=1481,29940,-31192,1032,-26804,-1337
C00702=1581,29910,-31228,1018,-26793,-1376
C00703=1685,29881,-31262,1003,-26784,-1416
C00704=1790,29853,-31297,988,-26774,-1457
C00705=1917,29830,-31324,970,-26767,-1506
C00706=2018,29800,-31359,956,-26756,-1546
C00707=2118,29770,-31395,941,-26746,-1585
C00708=2219,29740,-31431,927,-26736,-1624
C00709=2320,29710,-31466,912,-26726,-1663
C00710=2421,29680,-31502,898,-26715,-1703
C00711=2522,29650,-31538,883,-26705,-1742
C00712=2623,29620,-31574,869,-26695,-1781
C00713=2725,29590,-31609,854,-26684,-1821
C00714=2841,29565,-31640,838,-26676,-1866
C00715=2947,29536,-31674,822,-26666,-1907
C00716=3052,29507,-31709,807,-26656,-1948
C00717=3159,29478,-31743,792,-26646,-1989
C00718=3265,29450,-31777,776,-26636,-2031
C00719=3371,29421,-31811,761,-26627,-2072
C00720=3473,29391,-31847,746,-26616,-2112
C00721=3575,29361,-31883,731,-26606,-2151
C00722=3678,29332,-31918,717,-26596,-2191
C00723=3780,29302,-31954,702,-26585,-2231
C00724=3883,29272,-31990,687,-26575,-2271
C00725=3986,29242,-32025,672,-26565,-2311
C00726=3859,29216,-32057,691,-26554,-2262
C00727=3756,29246,-32022,706,-26564,-2222
C00728=3653,29276,-31986,721,-26575,-2182
C00729=3551,29306,-31950,736,-26585,-2142
C00730=3448,29335,-31915,750,-26595,-2102
C00731=3346,29365,-31879,765,-26606,-2063
C00732=3244,29395,-31843,780,-26616,-2023
C00733=3142,29425,-31808,795,-26626,-1983
C00734=3040,29455,-31772,809,-26637,-1944
C00735=2938,29484,-31736,824,-26647,-1904
C00736=2837,29514,-31701,839,-26657,-1865
C00737=2699,29535,-31677,859,-26664,-1811
C00738=2598,29564,-31641,873,-26674,-1772
C00739=2497,29594,-31605,888,-26684,-1733
C00740=2396,29624,-31570,902,-26694,-1693
C00741=2295,29654,-31534,917,-26705,-1654
C00742=2194,29684,-31498,931,-26715,-1615
C00743=2093,29714,-31463,946,-26725,-1575
C00744=1992,29744,-31427,960,-26735,-1536
C00745=1892,29774,-31391,974,-26746,-1497
C00746=1791,29804,-31355,989,-26756,-1458
C00747=1689,29833,-31320,1003,-26766,-1418
C00748=1585,29862,-31286,1018,-26776,-1377
C00749=1480,29891,-31252,1033,-26786,-1337
C00750=1376,29920,-31217,1048,-26795,-1296
C00751=1272,29949,-31183,1063,-26805,-1255
C00752=1169,29978,-31149,1077,-26815,-1215
C00753=1057,30005,-31117,1093,-26824,-1171
C00754=957,30035,-31081,1107,-26834,-1133
C00755=908,30078,-31029,1114,-26850,-1113
C00756=908,30078,-29629,1114,-26850,-1113
C00757=1502,30305,-29352,1025,-26938,-1342
C00758=1502,30305,-30752,1025,-26938,-1342
C00759=1601,30340,-30709,1010,-26952,-1380
C00760=1755,30317,-30736,988,-26945,-1440
C00761=1910,30294,-30763,966,-26938,-1500
C00762=2064,30270,-30791,943,-26931,-1560
C00763=2219,30247,-30818,921,-26923,-1620
C00764=2373,30224,-30846,899,-26916,-1680
C00765=2528,30200,-30873,876,-26909,-1740
C00766=2697,30190,-30885,852,-26906,-1806
C00767=2853,30166,-30912,829,-26899,-1866
C00768=3008,30143,-30940,807,-26891,-1927
C00769=3164,30120,-30967,784,-26884,-1987
C00770=3320,30097,-30994,762,-26877,-2048
C00771=3476,30074,-31022,739,-26869,-2108
C00772=3633,30050,-31049,717,-26862,-2169
C00773=3789,30027,-31076,694,-26855,-2230
C00774=3946,30004,-31104,671,-26847,-2291
C00775=4103,29981,-31131,648,-26840,-2351
C00776=4274,29971,-31143,623,-26837,-2418
C00777=4431,29948,-31170,600,-26830,-2479
C00778=4589,29925,-31197,577,-26823,-2540
C00779=4746,29901,-31224,554,-26815,-2601
C00780=4904,29878,-31252,531,-26808,-2662
C00781=5062,29855,-31279,508,-26800,-2723
C00782=5221,29832,-31306,485,-26793,-2784
C00783=5379,29810,-31333,462,-26785,-2846
C00784=5538,29787,-31361,438,-26778,-2907
C00785=5697,29764,-31388,415,-26771,-2969
C00786=5870,29754,-31400,390,-26768,-3035
C00787=6029,29731,-31427,366,-26761,-3097
C00788=6188,29708,-31454,343,-26753,-3159
C00789=6046,29669,-31501,364,-26738,-3104
C00790=5886,29692,-31474,387,-26745,-3042
C00791=5714,29702,-31462,413,-26748,-2975
C00792=5555,29725,-31435,436,-26755,-2914
C00793=5396,29748,-31408,460,-26763,-2852
C00794=5237,29771,-31381,483,-26770,-2791
C00795=5079,29794,-31353,506,-26778,-2730
C00796=4920,29817,-31326,529,-26785,-2668
C00797=4762,29840,-31299,552,-26792,-2607
C00798=4604,29863,-31272,575,-26800,-2546
C00799=4447,29886,-31244,598,-26807,-2485
C00800=4289,29909,-31217,621,-26815,-2424
C00801=4132,29932,-31190,644,-26822,-2363
C00802=3961,29943,-31178,669,-26825,-2297
C00803=3804,29966,-31151,692,-26832,-2236
C00804=3647,29989,-31123,715,-26839,-2175
C00805=3491,30012,-31096,738,-26847,-2114
C00806=3335,30035,-31069,760,-26854,-2054
C00807=3179,30058,-31041,783,-26861,-1993
C00808=3023,30082,-31014,806,-26869,-1933
C00809=2867,30105,-30987,828,-26876,-1872
C00810=2711,30128,-30959,851,-26883,-1812
C00811=2545,30141,-30944,875,-26887,-1747
C00812=2422,30171,-30908,892,-26897,-1699
C00813=2253,30182,-30896,917,-26900,-1634
C00814=2099,30205,-30869,939,-26907,-1574
C00815=1944,30229,-30842,961,-26914,-1514
C00816=1790,30252,-30814,984,-26921,-1454
C00817=1636,30276,-30787,1006,-26929,-1394
C00818=1502,30305,-30752,1025,-26938,-1342
C00819=1502,30305,-29352,1025,-26938,-1342
C00820=2138,30626,-28961,929,-27063,-1586
C00821=2138,30626,-30361,929,-27063,-1586
C00822=2237,30646,-30335,914,-27071,-1624
C00823=2389,30638,-30344,892,-27069,-1683
C00824=2541,30630,-30354,870,-27068,-1742
C00825=2707,30635,-30347,846,-27071,-1807
C00826=2860,30626,-30356,824,-27069,-1866
C00827=3012,30618,-30365,802,-27067,-1925
C00828=3165,30610,-30374,779,-27066,-1984
C00829=3318,30602,-30383,757,-27064,-2043
C00830=3474,30597,-30389,735,-27063,-2104
C00831=3627,30588,-30398,712,-27062,-2163
C00832=3779,30580,-30407,690,-27060,-2223
C00833=3932,30572,-30417,668,-27058,-2282
C00834=4097,30574,-30413,644,-27060,-2346
C00835=4251,30566,-30422,622,-27059,-2405
C00836=4404,30558,-30431,599,-27057,-2465
C00837=4558,30550,-30440,577,-27055,-2524
C00838=4712,30542,-30449,554,-27053,-2584
C00839=4866,30534,-30458,532,-27052,-2644
C00840=5026,30531,-30460,508,-27052,-2706
C00841=5180,30523,-30470,486,-27050,-2765
C00842=5334,30515,-30479,463,-27048,-2825
C00843=5497,30515,-30478,439,-27049,-2888
C00844=5652,30507,-30487,417,-27048,-2948
C00845=5806,30499,-30496,394,-27046,-3008
C00846=5961,30491,-30505,371,-27044,-3068
C00847=6117,30483,-30514,349,-27042,-3128
C00848=6281,30484,-30513,325,-27044,-3191
C00849=6436,30475,-30522,302,-27042,-3251
C00850=6591,30467,-30531,279,-27040,-3311
C00851=6738,30451,-30550,257,-27035,-3368
C00852=6616,30425,-30582,275,-27024,-3321
C00853=6461,30433,-30574,298,-27026,-3261
C00854=6305,30441,-30565,321,-27028,-3201
C00855=6150,30449,-30556,344,-27030,-3141
C00856=5995,30456,-30547,367,-27032,-3081
C00857=5840,30464,-30538,389,-27033,-3021
C00858=5671,30460,-30544,414,-27030,-2956
C00859=5517,30468,-30535,437,-27032,-2896
C00860=5362,30475,-30526,460,-27034,-2836
C00861=5207,30483,-30517,482,-27035,-2776
C00862=5053,30491,-30508,505,-27037,-2716
C00863=4896,30497,-30502,528,-27038,-2656
C00864=4742,30506,-30493,550,-27040,-2596
C00865=4589,30514,-30484,573,-27042,-2536
C00866=4435,30522,-30474,595,-27044,-2477
C00867=4269,30519,-30479,619,-27041,-2413
C00868=4116,30527,-30470,642,-27043,-2353
C00869=3962,30535,-30461,664,-27045,-2294
C00870=3809,30543,-30452,686,-27046,-2234
C00871=3655,30551,-30443,709,-27048,-2175
C00872=3502,30559,-30434,731,-27050,-2115
C00873=3344,30563,-30431,754,-27050,-2054
C00874=3192,30571,-30421,776,-27052,-1995
C00875=3039,30580,-30412,798,-27053,-1936
C00876=2877,30579,-30413,822,-27052,-1873
C00877=2725,30587,-30404,844,-27054,-1814
C00878=2573,30595,-30395,866,-27055,-1755
C00879=2420,30604,-30386,888,-27057,-1695
C00880=2268,30612,-30377,910,-27059,-1636
C00881=2138,30626,-30361,929,-27063,-1586
C00882=2138,30626,-28961,929,-27063,-1586
C00883=2568,30930,-28591,863,-27179,-1750
C00884=2568,30930,-29991,863,-27179,-1750
C00885=2611,30960,-29954,856,-27191,-1767
C00886=2717,30960,-29953,841,-27192,-1808
C00887=2822,30960,-29952,826,-27193,-1849
C00888=2939,30971,-29939,809,-27198,-1894
C00889=3053,30979,-29929,792,-27201,-1938
C00890=3159,30979,-29928,777,-27202,-1979
C00891=3267,30981,-29925,761,-27204,-2021
C00892=3385,30992,-29911,744,-27210,-2067
C00893=3496,30997,-29904,728,-27212,-2110
C00894=3602,30997,-29903,712,-27213,-2151
C00895=3713,31002,-29897,696,-27216,-2194
C00896=3831,31014,-29882,679,-27221,-2240
C00897=3939,31016,-29879,663,-27223,-2282
C00898=4045,31016,-29878,648,-27224,-2323
C00899=4159,31023,-29869,631,-27228,-2367
C00900=4276,31034,-29855,614,-27233,-2413
C00901=4383,31034,-29854,598,-27234,-2454
C00902=4489,31034,-29854,583,-27235,-2495
C00903=4606,31045,-29840,566,-27240,-2541
C00904=4711,31044,-29841,551,-27240,-2581
C00905=4827,31053,-29829,534,-27245,-2626
C00906=4935,31055,-29826,518,-27246,-2668
C00907=5041,31054,-29827,502,-27247,-2709
C00908=5165,31071,-29805,484,-27254,-2757
C00909=5272,31072,-29804,469,-27255,-2798
C00910=5379,31072,-29804,453,-27256,-2840
C00911=5489,31075,-29799,437,-27259,-2883
C00912=5608,31087,-29784,420,-27264,-2928
C00913=5717,31090,-29779,404,-27266,-2971
C00914=5819,31085,-29785,389,-27265,-3010
C00915=5781,31069,-29805,394,-27259,-2996
C00916=5655,31051,-29828,413,-27251,-2947
C00917=5549,31051,-29828,428,-27250,-2906
C00918=5442,31050,-29829,444,-27249,-2864
C00919=5335,31050,-29830,460,-27248,-2823
C00920=5220,31042,-29841,476,-27244,-2778
C00921=5103,31032,-29853,494,-27239,-2733
C00922=4997,31032,-29854,509,-27238,-2692
C00923=4890,31031,-29855,525,-27237,-2651
C00924=4772,31020,-29869,542,-27232,-2605
C00925=4658,31013,-29878,558,-27228,-2561
C00926=4552,31013,-29879,574,-27227,-2520
C00927=4443,31010,-29883,590,-27226,-2477
C00928=4324,30999,-29898,607,-27220,-2431
C00929=4214,30994,-29903,623,-27218,-2389
C00930=4108,30994,-29904,639,-27217,-2347
C00931=3996,30989,-29911,655,-27214,-2304
C00932=3877,30977,-29926,672,-27208,-2258
C00933=3770,30976,-29928,688,-27207,-2217
C00934=3664,30976,-29929,703,-27206,-2175
C00935=3558,30976,-29930,719,-27205,-2134
C00936=3445,30968,-29939,735,-27201,-2090
C00937=3327,30957,-29953,753,-27196,-2045
C00938=3221,30957,-29954,768,-27195,-2004
C00939=3115,30957,-29955,783,-27194,-1963
C00940=2999,30947,-29968,800,-27189,-1917
C00941=2884,30939,-29978,817,-27185,-1873
C00942=2779,30939,-29979,832,-27184,-1832
C00943=2672,30937,-29981,848,-27183,-1791
C00944=2568,30930,-29991,863,-27179,-1750
C00945=2568,30930,-28591,863,-27179,-1750
C00946=2746,31194,-28271,834,-27278,-1818
C00947=2746,31194,-29671,834,-27278,-1818
C00948=2880,31228,-29628,815,-27292,-1869
C00949=3045,31237,-29616,791,-27297,-1933
C00950=3229,31264,-29583,764,-27309,-2005
C00951=3395,31273,-29571,740,-27314,-2069
C00952=3579,31299,-29538,713,-27325,-2140
C00953=3745,31308,-29526,689,-27330,-2205
C00954=3929,31335,-29493,662,-27342,-2276
C00955=4095,31344,-29481,638,-27347,-2340
C00956=4279,31371,-29447,611,-27358,-2412
C00957=4445,31380,-29436,587,-27363,-2476
C00958=4629,31406,-29402,560,-27375,-2548
C00959=4809,31428,-29375,534,-27384,-2617
C00960=4980,31442,-29357,509,-27391,-2683
C00961=5159,31464,-29330,482,-27401,-2753
C00962=5330,31478,-29312,457,-27407,-2819
C00963=5496,31486,-29300,433,-27412,-2884
C00964=5681,31513,-29267,406,-27424,-2955
C00965=5847,31522,-29255,382,-27429,-3020
C00966=6032,31549,-29221,355,-27440,-3091
C00967=6211,31571,-29194,329,-27450,-3161
C00968=6383,31585,-29176,304,-27457,-3227
C00969=6562,31606,-29149,278,-27466,-3297
C00970=6734,31620,-29131,252,-27473,-3363
C00971=6919,31647,-29097,225,-27485,-3435
C00972=7086,31656,-29086,201,-27489,-3499
C00973=7270,31683,-29052,174,-27501,-3571
C00974=7437,31692,-29040,150,-27506,-3636
C00975=7622,31719,-29007,123,-27517,-3707
C00976=7789,31728,-28995,98,-27522,-3772
C00977=7943,31724,-28999,76,-27522,-3831
C00978=7794,31698,-29031,98,-27511,-3774
C00979=7609,31671,-29065,125,-27499,-3702
C00980=7442,31662,-29077,149,-27495,-3637
C00981=7257,31635,-29110,176,-27483,-3566
C00982=7090,31626,-29122,201,-27478,-3501
C00983=6918,31612,-29140,226,-27471,-3435
C00984=6739,31590,-29167,252,-27462,-3365
C00985=6567,31576,-29185,277,-27455,-3298
C00986=6387,31555,-29212,303,-27445,-3229
C00987=6202,31528,-29246,330,-27434,-3157
C00988=6036,31519,-29258,355,-27429,-3093
C00989=5851,31492,-29291,382,-27417,-3021
C00990=5685,31483,-29303,406,-27413,-2957
C00991=5500,31456,-29337,433,-27401,-2885
C00992=5334,31448,-29348,457,-27396,-2821
C00993=5149,31421,-29382,484,-27385,-2749
C00994=4984,31412,-29393,508,-27380,-2685
C00995=4799,31385,-29427,535,-27368,-2613
C00996=4633,31376,-29439,559,-27363,-2549
C00997=4448,31349,-29472,586,-27352,-2478
C00998=4283,31341,-29484,611,-27347,-2413
C00999=4098,31314,-29517,638,-27335,-2342
C01000=3932,31305,-29529,662,-27331,-2278
C01001=3748,31278,-29563,689,-27319,-2206
C01002=3582,31269,-29574,713,-27314,-2142
C01003=3398,31243,-29608,740,-27303,-2070
C01004=3232,31234,-29619,764,-27298,-2006
C01005=3048,31207,-29653,791,-27286,-1935
C01006=2882,31198,-29664,815,-27281,-1871
C01007=2746,31194,-29671,834,-27278,-1818
C01008=2746,31194,-28271,834,-27278,-1818
C01009=-542,29594,-30220,1332,-26659,-556
C01010=-542,29594,-31620,1332,-26659,-556
C01011=-494,29550,-31673,1326,-26643,-574
C01012=-467,29501,-31732,1322,-26626,-585
C01013=-434,29453,-31790,1318,-26608,-599
C01014=-381,29411,-31840,1311,-26593,-620
C01015=-328,29369,-31891,1304,-26578,-641
C01016=-287,29323,-31946,1299,-26562,-657
C01017=-273,29270,-32010,1297,-26543,-663
C01018=-220,29228,-32060,1290,-26527,-684
C01019=-167,29185,-32111,1283,-26512,-705
C01020=-114,29143,-32162,1276,-26497,-726
C01021=-111,29087,-32230,1277,-26477,-728
C01022=-58,29045,-32280,1269,-26461,-749
C01023=-4,29002,-32331,1262,-26446,-770
C01024=41,28958,-32385,1256,-26430,-788
C01025=69,28909,-32444,1253,-26413,-799
C01026=105,28862,-32500,1248,-26396,-814
C01027=159,28819,-32551,1241,-26380,-835
C01028=213,28777,-32602,1234,-26365,-856
C01029=253,28731,-32657,1228,-26349,-872
C01030=281,28682,-32716,1225,-26331,-883
C01031=323,28636,-32771,1219,-26314,-900
C01032=377,28594,-32822,1212,-26299,-922
C01033=431,28552,-32872,1205,-26284,-943
C01034=466,28504,-32930,1200,-26267,-957
C01035=489,28454,-32991,1198,-26248,-966
C01036=543,28411,-33041,1190,-26233,-987
C01037=597,28369,-33092,1183,-26218,-1009
C01038=496,28320,-33152,1198,-26199,-970
C01039=442,28362,-33101,1206,-26214,-949
C01040=387,28404,-33051,1213,-26230,-927
C01041=339,28448,-32998,1220,-26245,-908
C01042=311,28497,-32939,1223,-26263,-897
C01043=276,28545,-32882,1228,-26280,-883
C01044=223,28587,-32831,1235,-26296,-862
C01045=169,28629,-32780,1242,-26311,-840
C01046=126,28675,-32726,1248,-26327,-824
C01047=112,28728,-32662,1249,-26346,-818
C01048=58,28770,-32611,1256,-26361,-796
C01049=5,28812,-32560,1264,-26377,-775
C01050=-21,28862,-32500,1267,-26395,-765
C01051=-51,28911,-32442,1270,-26412,-753
C01052=-105,28953,-32391,1278,-26427,-731
C01053=-158,28995,-32340,1285,-26443,-710
C01054=-204,29040,-32287,1291,-26459,-692
C01055=-231,29089,-32228,1294,-26476,-681
C01056=-267,29136,-32171,1299,-26493,-667
C01057=-320,29178,-32120,1306,-26508,-646
C01058=-373,29221,-32069,1313,-26524,-625
C01059=-412,29267,-32014,1318,-26540,-609
C01060=-440,29316,-31955,1321,-26558,-598
C01061=-481,29362,-31900,1326,-26574,-581
C01062=-534,29404,-31849,1334,-26589,-561
C01063=-587,29447,-31799,1341,-26605,-540
C01064=-589,29503,-31731,1340,-26625,-538
C01065=-641,29545,-31680,1347,-26640,-517
C01066=-694,29588,-31629,1354,-26655,-497
C01067=-746,29630,-31579,1361,-26670,-476
C01068=-682,29670,-31530,1351,-26686,-500
C01069=-594,29637,-31569,1339,-26674,-535
C01070=-542,29594,-31620,1332,-26659,-556
C01071=-542,29594,-30220,1332,-26659,-556
C01072=-1349,29426,-30427,1452,-26591,-244
C01073=-1349,29426,-31827,1452,-26591,-244
C01074=-1345,29300,-31980,1453,-26544,-247
C01075=-1342,29173,-32132,1455,-26498,-250
C01076=-1338,29046,-32285,1457,-26452,-253
C01077=-1334,28920,-32437,1458,-26405,-256
C01078=-1331,28793,-32590,1460,-26359,-258
C01079=-1327,28666,-32742,1461,-26313,-261
C01080=-1323,28540,-32894,1463,-26266,-264
C01081=-1320,28413,-33047,1464,-26220,-267
C01082=-1316,28286,-33199,1466,-26174,-270
C01083=-1312,28160,-33352,1467,-26127,-273
C01084=-1309,28033,-33504,1469,-26081,-276
C01085=-1305,27907,-33657,1471,-26035,-278
C01086=-1301,27780,-33809,1472,-25989,-281
C01087=-1298,27653,-33962,1474,-25942,-284
C01088=-1294,27527,-34114,1475,-25896,-287
C01089=-1290,27400,-34266,1477,-25850,-290
C01090=-1287,27273,-34419,1478,-25803,-293
C01091=-1283,27147,-34571,1480,-25757,-296
C01092=-1279,27020,-34724,1482,-25711,-298
C01093=-1276,26893,-34876,1483,-25664,-301
C01094=-1272,26767,-35029,1485,-25618,-304
C01095=-1268,26640,-35181,1486,-25572,-307
C01096=-1265,26514,-35334,1488,-25525,-310
C01097=-1261,26387,-35486,1489,-25479,-313
C01098=-1257,26260,-35638,1491,-25433,-316
C01099=-1254,26134,-35791,1492,-25387,-318
C01100=-1250,26007,-35943,1494,-25340,-321
C01101=-1246,25880,-36096,1496,-25294,-324
C01102=-1404,25776,-36221,1521,-25255,-265
C01103=-1407,25903,-36069,1519,-25301,-262
C01104=-1411,26030,-35916,1518,-25348,-259
C01105=-1414,26156,-35764,1516,-25394,-257
C01106=-1417,26283,-35611,1514,-25440,-254
C01107=-1421,26410,-35459,1513,-25487,-251
C01108=-1424,26536,-35306,1511,-25533,-248
C01109=-1427,26663,-35154,1510,-25579,-246
C01110=-1431,26790,-35001,1508,-25626,-243
C01111=-1434,26916,-34849,1506,-25672,-240
C01112=-1438,27043,-34696,1505,-25718,-237
C01113=-1441,27170,-34544,1503,-25764,-234
C01114=-1444,27296,-34392,1501,-25811,-232
C01115=-1448,27423,-34239,1500,-25857,-229
C01116=-1451,27550,-34087,1498,-25903,-226
C01117=-1455,27676,-33934,1497,-25950,-223
C01118=-1458,27803,-33782,1495,-25996,-221
C01119=-1461,27930,-33629,1493,-26042,-218
C01120=-1465,28056,-33477,1492,-26089,-215
C01121=-1468,28183,-33324,1490,-26135,-212
C01122=-1472,28310,-33172,1488,-26181,-209
C01123=-1475,28436,-33019,1487,-26227,-207
C01124=-1478,28563,-32867,1485,-26274,-204
C01125=-1482,28690,-32715,1483,-26320,-201
C01126=-1485,28816,-32562,1482,-26366,-198
C01127=-1489,28943,-32410,1480,-26413,-196
C01128=-1492,29070,-32257,1479,-26459,-193
C01129=-1495,29196,-32105,1477,-26505,-190
C01130=-1499,29323,-31952,1475,-26552,-187
C01131=-1502,29450,-31800,1474,-26598,-185
C01132=-1403,29539,-31691,1458,-26631,-222
C01133=-1349,29426,-31827,1452,-26591,-244
C01134=-1349,29426,-30427,1452,-26591,-244
//INST
///DATE 2026/04/29 10:00
///ATTR SC,RW
///GROUP1 RB1
NOP
MOVJ C00000 VJ=0.78
MOVJ C00001 VJ=0.78
MOVJ C00002 VJ=0.78
MOVL C00003 V=8.0
MOVL C00004 V=8.0
MOVL C00005 V=8.0
MOVL C00006 V=8.0
MOVL C00007 V=8.0
MOVL C00008 V=8.0
MOVL C00009 V=8.0
MOVL C00010 V=8.0
MOVL C00011 V=8.0
MOVL C00012 V=8.0
MOVL C00013 V=8.0
MOVL C00014 V=8.0
MOVL C00015 V=8.0
MOVL C00016 V=8.0
MOVL C00017 V=8.0
MOVL C00018 V=8.0
MOVL C00019 V=8.0
MOVL C00020 V=8.0
MOVL C00021 V=8.0
MOVL C00022 V=8.0
MOVL C00023 V=8.0
MOVL C00024 V=8.0
MOVL C00025 V=8.0
MOVL C00026 V=8.0
MOVL C00027 V=8.0
MOVL C00028 V=8.0
MOVL C00029 V=8.0
MOVL C00030 V=8.0
MOVL C00031 V=8.0
MOVL C00032 V=8.0
MOVL C00033 V=8.0
MOVL C00034 V=8.0
MOVL C00035 V=8.0
MOVL C00036 V=8.0
MOVL C00037 V=8.0
MOVL C00038 V=8.0
MOVL C00039 V=8.0
MOVL C00040 V=8.0
MOVL C00041 V=8.0
MOVL C00042 V=8.0
MOVL C00043 V=8.0
MOVL C00044 V=8.0
MOVL C00045 V=8.0
MOVL C00046 V=8.0
MOVL C00047 V=8.0
MOVL C00048 V=8.0
MOVL C00049 V=8.0
MOVL C00050 V=8.0
MOVL C00051 V=8.0
MOVL C00052 V=8.0
MOVL C00053 V=8.0
MOVL C00054 V=8.0
MOVL C00055 V=8.0
MOVL C00056 V=8.0
MOVL C00057 V=8.0
MOVL C00058 V=8.0
MOVL C00059 V=8.0
MOVL C00060 V=8.0
MOVL C00061 V=8.0
MOVL C00062 V=8.0
MOVJ C00063 VJ=0.78
MOVJ C00064 VJ=0.78
MOVJ C00065 VJ=0.78
MOVL C00066 V=8.0
MOVL C00067 V=8.0
MOVL C00068 V=8.0
MOVL C00069 V=8.0
MOVL C00070 V=8.0
MOVL C00071 V=8.0
MOVL C00072 V=8.0
MOVL C00073 V=8.0
MOVL C00074 V=8.0
MOVL C00075 V=8.0
MOVL C00076 V=8.0
MOVL C00077 V=8.0
MOVL C00078 V=8.0
MOVL C00079 V=8.0
MOVL C00080 V=8.0
MOVL C00081 V=8.0
MOVL C00082 V=8.0
MOVL C00083 V=8.0
MOVL C00084 V=8.0
MOVL C00085 V=8.0
MOVL C00086 V=8.0
MOVL C00087 V=8.0
MOVL C00088 V=8.0
MOVL C00089 V=8.0
MOVL C00090 V=8.0
MOVL C00091 V=8.0
MOVL C00092 V=8.0
MOVL C00093 V=8.0
MOVL C00094 V=8.0
MOVL C00095 V=8.0
MOVL C00096 V=8.0
MOVL C00097 V=8.0
MOVL C00098 V=8.0
MOVL C00099 V=8.0
MOVL C00100 V=8.0
MOVL C00101 V=8.0
MOVL C00102 V=8.0
MOVL C00103 V=8.0
MOVL C00104 V=8.0
MOVL C00105 V=8.0
MOVL C00106 V=8.0
MOVL C00107 V=8.0
MOVL C00108 V=8.0
MOVL C00109 V=8.0
MOVL C00110 V=8.0
MOVL C00111 V=8.0
MOVL C00112 V=8.0
MOVL C00113 V=8.0
MOVL C00114 V=8.0
MOVL C00115 V=8.0
MOVL C00116 V=8.0
MOVL C00117 V=8.0
MOVL C00118 V=8.0
MOVL C00119 V=8.0
MOVL C00120 V=8.0
MOVL C00121 V=8.0
MOVL C00122 V=8.0
MOVL C00123 V=8.0
MOVL C00124 V=8.0
MOVL C00125 V=8.0
MOVJ C00126 VJ=0.78
MOVJ C00127 VJ=0.78
MOVJ C00128 VJ=0.78
MOVL C00129 V=8.0
MOVL C00130 V=8.0
MOVL C00131 V=8.0
MOVL C00132 V=8.0
MOVL C00133 V=8.0
MOVL C00134 V=8.0
MOVL C00135 V=8.0
MOVL C00136 V=8.0
MOVL C00137 V=8.0
MOVL C00138 V=8.0
MOVL C00139 V=8.0
MOVL C00140 V=8.0
MOVL C00141 V=8.0
MOVL C00142 V=8.0
MOVL C00143 V=8.0
MOVL C00144 V=8.0
MOVL C00145 V=8.0
MOVL C00146 V=8.0
MOVL C00147 V=8.0
MOVL C00148 V=8.0
MOVL C00149 V=8.0
MOVL C00150 V=8.0
MOVL C00151 V=8.0
MOVL C00152 V=8.0
MOVL C00153 V=8.0
MOVL C00154 V=8.0
MOVL C00155 V=8.0
MOVL C00156 V=8.0
MOVL C00157 V=8.0
MOVL C00158 V=8.0
MOVL C00159 V=8.0
MOVL C00160 V=8.0
MOVL C00161 V=8.0
MOVL C00162 V=8.0
MOVL C00163 V=8.0
MOVL C00164 V=8.0
MOVL C00165 V=8.0
MOVL C00166 V=8.0
MOVL C00167 V=8.0
MOVL C00168 V=8.0
MOVL C00169 V=8.0
MOVL C00170 V=8.0
MOVL C00171 V=8.0
MOVL C00172 V=8.0
MOVL C00173 V=8.0
MOVL C00174 V=8.0
MOVL C00175 V=8.0
MOVL C00176 V=8.0
MOVL C00177 V=8.0
MOVL C00178 V=8.0
MOVL C00179 V=8.0
MOVL C00180 V=8.0
MOVL C00181 V=8.0
MOVL C00182 V=8.0
MOVL C00183 V=8.0
MOVL C00184 V=8.0
MOVL C00185 V=8.0
MOVL C00186 V=8.0
MOVL C00187 V=8.0
MOVL C00188 V=8.0
MOVJ C00189 VJ=0.78
MOVJ C00190 VJ=0.78
MOVJ C00191 VJ=0.78
MOVL C00192 V=8.0
MOVL C00193 V=8.0
MOVL C00194 V=8.0
MOVL C00195 V=8.0
MOVL C00196 V=8.0
MOVL C00197 V=8.0
MOVL C00198 V=8.0
MOVL C00199 V=8.0
MOVL C00200 V=8.0
MOVL C00201 V=8.0
MOVL C00202 V=8.0
MOVL C00203 V=8.0
MOVL C00204 V=8.0
MOVL C00205 V=8.0
MOVL C00206 V=8.0
MOVL C00207 V=8.0
MOVL C00208 V=8.0
MOVL C00209 V=8.0
MOVL C00210 V=8.0
MOVL C00211 V=8.0
MOVL C00212 V=8.0
MOVL C00213 V=8.0
MOVL C00214 V=8.0
MOVL C00215 V=8.0
MOVL C00216 V=8.0
MOVL C00217 V=8.0
MOVL C00218 V=8.0
MOVL C00219 V=8.0
MOVL C00220 V=8.0
MOVL C00221 V=8.0
MOVL C00222 V=8.0
MOVL C00223 V=8.0
MOVL C00224 V=8.0
MOVL C00225 V=8.0
MOVL C00226 V=8.0
MOVL C00227 V=8.0
MOVL C00228 V=8.0
MOVL C00229 V=8.0
MOVL C00230 V=8.0
MOVL C00231 V=8.0
MOVL C00232 V=8.0
MOVL C00233 V=8.0
MOVL C00234 V=8.0
MOVL C00235 V=8.0
MOVL C00236 V=8.0
MOVL C00237 V=8.0
MOVL C00238 V=8.0
MOVL C00239 V=8.0
MOVL C00240 V=8.0
MOVL C00241 V=8.0
MOVL C00242 V=8.0
MOVL C00243 V=8.0
MOVL C00244 V=8.0
MOVL C00245 V=8.0
MOVL C00246 V=8.0
MOVL C00247 V=8.0
MOVL C00248 V=8.0
MOVL C00249 V=8.0
MOVL C00250 V=8.0
MOVL C00251 V=8.0
MOVJ C00252 VJ=0.78
MOVJ C00253 VJ=0.78
MOVJ C00254 VJ=0.78
MOVL C00255 V=8.0
MOVL C00256 V=8.0
MOVL C00257 V=8.0
MOVL C00258 V=8.0
MOVL C00259 V=8.0
MOVL C00260 V=8.0
MOVL C00261 V=8.0
MOVL C00262 V=8.0
MOVL C00263 V=8.0
MOVL C00264 V=8.0
MOVL C00265 V=8.0
MOVL C00266 V=8.0
MOVL C00267 V=8.0
MOVL C00268 V=8.0
MOVL C00269 V=8.0
MOVL C00270 V=8.0
MOVL C00271 V=8.0
MOVL C00272 V=8.0
MOVL C00273 V=8.0
MOVL C00274 V=8.0
MOVL C00275 V=8.0
MOVL C00276 V=8.0
MOVL C00277 V=8.0
MOVL C00278 V=8.0
MOVL C00279 V=8.0
MOVL C00280 V=8.0
MOVL C00281 V=8.0
MOVL C00282 V=8.0
MOVL C00283 V=8.0
MOVL C00284 V=8.0
MOVL C00285 V=8.0
MOVL C00286 V=8.0
MOVL C00287 V=8.0
MOVL C00288 V=8.0
MOVL C00289 V=8.0
MOVL C00290 V=8.0
MOVL C00291 V=8.0
MOVL C00292 V=8.0
MOVL C00293 V=8.0
MOVL C00294 V=8.0
MOVL C00295 V=8.0
MOVL C00296 V=8.0
MOVL C00297 V=8.0
MOVL C00298 V=8.0
MOVL C00299 V=8.0
MOVL C00300 V=8.0
MOVL C00301 V=8.0
MOVL C00302 V=8.0
MOVL C00303 V=8.0
MOVL C00304 V=8.0
MOVL C00305 V=8.0
MOVL C00306 V=8.0
MOVL C00307 V=8.0
MOVL C00308 V=8.0
MOVL C00309 V=8.0
MOVL C00310 V=8.0
MOVL C00311 V=8.0
MOVL C00312 V=8.0
MOVL C00313 V=8.0
MOVL C00314 V=8.0
MOVJ C00315 VJ=0.78
MOVJ C00316 VJ=0.78
MOVJ C00317 VJ=0.78
MOVL C00318 V=8.0
MOVL C00319 V=8.0
MOVL C00320 V=8.0
MOVL C00321 V=8.0
MOVL C00322 V=8.0
MOVL C00323 V=8.0
MOVL C00324 V=8.0
MOVL C00325 V=8.0
MOVL C00326 V=8.0
MOVL C00327 V=8.0
MOVL C00328 V=8.0
MOVL C00329 V=8.0
MOVL C00330 V=8.0
MOVL C00331 V=8.0
MOVL C00332 V=8.0
MOVL C00333 V=8.0
MOVL C00334 V=8.0
MOVL C00335 V=8.0
MOVL C00336 V=8.0
MOVL C00337 V=8.0
MOVL C00338 V=8.0
MOVL C00339 V=8.0
MOVL C00340 V=8.0
MOVL C00341 V=8.0
MOVL C00342 V=8.0
MOVL C00343 V=8.0
MOVL C00344 V=8.0
MOVL C00345 V=8.0
MOVL C00346 V=8.0
MOVL C00347 V=8.0
MOVL C00348 V=8.0
MOVL C00349 V=8.0
MOVL C00350 V=8.0
MOVL C00351 V=8.0
MOVL C00352 V=8.0
MOVL C00353 V=8.0
MOVL C00354 V=8.0
MOVL C00355 V=8.0
MOVL C00356 V=8.0
MOVL C00357 V=8.0
MOVL C00358 V=8.0
MOVL C00359 V=8.0
MOVL C00360 V=8.0
MOVL C00361 V=8.0
MOVL C00362 V=8.0
MOVL C00363 V=8.0
MOVL C00364 V=8.0
MOVL C00365 V=8.0
MOVL C00366 V=8.0
MOVL C00367 V=8.0
MOVL C00368 V=8.0
MOVL C00369 V=8.0
MOVL C00370 V=8.0
MOVL C00371 V=8.0
MOVL C00372 V=8.0
MOVL C00373 V=8.0
MOVL C00374 V=8.0
MOVL C00375 V=8.0
MOVL C00376 V=8.0
MOVL C00377 V=8.0
MOVJ C00378 VJ=0.78
MOVJ C00379 VJ=0.78
MOVJ C00380 VJ=0.78
MOVL C00381 V=8.0
MOVL C00382 V=8.0
MOVL C00383 V=8.0
MOVL C00384 V=8.0
MOVL C00385 V=8.0
MOVL C00386 V=8.0
MOVL C00387 V=8.0
MOVL C00388 V=8.0
MOVL C00389 V=8.0
MOVL C00390 V=8.0
MOVL C00391 V=8.0
MOVL C00392 V=8.0
MOVL C00393 V=8.0
MOVL C00394 V=8.0
MOVL C00395 V=8.0
MOVL C00396 V=8.0
MOVL C00397 V=8.0
MOVL C00398 V=8.0
MOVL C00399 V=8.0
MOVL C00400 V=8.0
MOVL C00401 V=8.0
MOVL C00402 V=8.0
MOVL C00403 V=8.0
MOVL C00404 V=8.0
MOVL C00405 V=8.0
MOVL C00406 V=8.0
MOVL C00407 V=8.0
MOVL C00408 V=8.0
MOVL C00409 V=8.0
MOVL C00410 V=8.0
MOVL C00411 V=8.0
MOVL C00412 V=8.0
MOVL C00413 V=8.0
MOVL C00414 V=8.0
MOVL C00415 V=8.0
MOVL C00416 V=8.0
MOVL C00417 V=8.0
MOVL C00418 V=8.0
MOVL C00419 V=8.0
MOVL C00420 V=8.0
MOVL C00421 V=8.0
MOVL C00422 V=8.0
MOVL C00423 V=8.0
MOVL C00424 V=8.0
MOVL C00425 V=8.0
MOVL C00426 V=8.0
MOVL C00427 V=8.0
MOVL C00428 V=8.0
MOVL C00429 V=8.0
MOVL C00430 V=8.0
MOVL C00431 V=8.0
MOVL C00432 V=8.0
MOVL C00433 V=8.0
MOVL C00434 V=8.0
MOVL C00435 V=8.0
MOVL C00436 V=8.0
MOVL C00437 V=8.0
MOVL C00438 V=8.0
MOVL C00439 V=8.0
MOVL C00440 V=8.0
MOVJ C00441 VJ=0.78
MOVJ C00442 VJ=0.78
MOVJ C00443 VJ=0.78
MOVL C00444 V=8.0
MOVL C00445 V=8.0
MOVL C00446 V=8.0
MOVL C00447 V=8.0
MOVL C00448 V=8.0
MOVL C00449 V=8.0
MOVL C00450 V=8.0
MOVL C00451 V=8.0
MOVL C00452 V=8.0
MOVL C00453 V=8.0
MOVL C00454 V=8.0
MOVL C00455 V=8.0
MOVL C00456 V=8.0
MOVL C00457 V=8.0
MOVL C00458 V=8.0
MOVL C00459 V=8.0
MOVL C00460 V=8.0
MOVL C00461 V=8.0
MOVL C00462 V=8.0
MOVL C00463 V=8.0
MOVL C00464 V=8.0
MOVL C00465 V=8.0
MOVL C00466 V=8.0
MOVL C00467 V=8.0
MOVL C00468 V=8.0
MOVL C00469 V=8.0
MOVL C00470 V=8.0
MOVL C00471 V=8.0
MOVL C00472 V=8.0
MOVL C00473 V=8.0
MOVL C00474 V=8.0
MOVL C00475 V=8.0
MOVL C00476 V=8.0
MOVL C00477 V=8.0
MOVL C00478 V=8.0
MOVL C00479 V=8.0
MOVL C00480 V=8.0
MOVL C00481 V=8.0
MOVL C00482 V=8.0
MOVL C00483 V=8.0
MOVL C00484 V=8.0
MOVL C00485 V=8.0
MOVL C00486 V=8.0
MOVL C00487 V=8.0
MOVL C00488 V=8.0
MOVL C00489 V=8.0
MOVL C00490 V=8.0
MOVL C00491 V=8.0
MOVL C00492 V=8.0
MOVL C00493 V=8.0
MOVL C00494 V=8.0
MOVL C00495 V=8.0
MOVL C00496 V=8.0
MOVL C00497 V=8.0
MOVL C00498 V=8.0
MOVL C00499 V=8.0
MOVL C00500 V=8.0
MOVL C00501 V=8.0
MOVL C00502 V=8.0
MOVL C00503 V=8.0
MOVJ C00504 VJ=0.78
MOVJ C00505 VJ=0.78
MOVJ C00506 VJ=0.78
MOVL C00507 V=8.0
MOVL C00508 V=8.0
MOVL C00509 V=8.0
MOVL C00510 V=8.0
MOVL C00511 V=8.0
MOVL C00512 V=8.0
MOVL C00513 V=8.0
MOVL C00514 V=8.0
MOVL C00515 V=8.0
MOVL C00516 V=8.0
MOVL C00517 V=8.0
MOVL C00518 V=8.0
MOVL C00519 V=8.0
MOVL C00520 V=8.0
MOVL C00521 V=8.0
MOVL C00522 V=8.0
MOVL C00523 V=8.0
MOVL C00524 V=8.0
MOVL C00525 V=8.0
MOVL C00526 V=8.0
MOVL C00527 V=8.0
MOVL C00528 V=8.0
MOVL C00529 V=8.0
MOVL C00530 V=8.0
MOVL C00531 V=8.0
MOVL C00532 V=8.0
MOVL C00533 V=8.0
MOVL C00534 V=8.0
MOVL C00535 V=8.0
MOVL C00536 V=8.0
MOVL C00537 V=8.0
MOVL C00538 V=8.0
MOVL C00539 V=8.0
MOVL C00540 V=8.0
MOVL C00541 V=8.0
MOVL C00542 V=8.0
MOVL C00543 V=8.0
MOVL C00544 V=8.0
MOVL C00545 V=8.0
MOVL C00546 V=8.0
MOVL C00547 V=8.0
MOVL C00548 V=8.0
MOVL C00549 V=8.0
MOVL C00550 V=8.0
MOVL C00551 V=8.0
MOVL C00552 V=8.0
MOVL C00553 V=8.0
MOVL C00554 V=8.0
MOVL C00555 V=8.0
MOVL C00556 V=8.0
MOVL C00557 V=8.0
MOVL C00558 V=8.0
MOVL C00559 V=8.0
MOVL C00560 V=8.0
MOVL C00561 V=8.0
MOVL C00562 V=8.0
MOVL C00563 V=8.0
MOVL C00564 V=8.0
MOVL C00565 V=8.0
MOVL C00566 V=8.0
MOVJ C00567 VJ=0.78
MOVJ C00568 VJ=0.78
MOVJ C00569 VJ=0.78
MOVL C00570 V=8.0
MOVL C00571 V=8.0
MOVL C00572 V=8.0
MOVL C00573 V=8.0
MOVL C00574 V=8.0
MOVL C00575 V=8.0
MOVL C00576 V=8.0
MOVL C00577 V=8.0
MOVL C00578 V=8.0
MOVL C00579 V=8.0
MOVL C00580 V=8.0
MOVL C00581 V=8.0
MOVL C00582 V=8.0
MOVL C00583 V=8.0
MOVL C00584 V=8.0
MOVL C00585 V=8.0
MOVL C00586 V=8.0
MOVL C00587 V=8.0
MOVL C00588 V=8.0
MOVL C00589 V=8.0
MOVL C00590 V=8.0
MOVL C00591 V=8.0
MOVL C00592 V=8.0
MOVL C00593 V=8.0
MOVL C00594 V=8.0
MOVL C00595 V=8.0
MOVL C00596 V=8.0
MOVL C00597 V=8.0
MOVL C00598 V=8.0
MOVL C00599 V=8.0
MOVL C00600 V=8.0
MOVL C00601 V=8.0
MOVL C00602 V=8.0
MOVL C00603 V=8.0
MOVL C00604 V=8.0
MOVL C00605 V=8.0
MOVL C00606 V=8.0
MOVL C00607 V=8.0
MOVL C00608 V=8.0
MOVL C00609 V=8.0
MOVL C00610 V=8.0
MOVL C00611 V=8.0
MOVL C00612 V=8.0
MOVL C00613 V=8.0
MOVL C00614 V=8.0
MOVL C00615 V=8.0
MOVL C00616 V=8.0
MOVL C00617 V=8.0
MOVL C00618 V=8.0
MOVL C00619 V=8.0
MOVL C00620 V=8.0
MOVL C00621 V=8.0
MOVL C00622 V=8.0
MOVL C00623 V=8.0
MOVL C00624 V=8.0
MOVL C00625 V=8.0
MOVL C00626 V=8.0
MOVL C00627 V=8.0
MOVL C00628 V=8.0
MOVL C00629 V=8.0
MOVJ C00630 VJ=0.78
MOVJ C00631 VJ=0.78
MOVJ C00632 VJ=0.78
MOVL C00633 V=8.0
MOVL C00634 V=8.0
MOVL C00635 V=8.0
MOVL C00636 V=8.0
MOVL C00637 V=8.0
MOVL C00638 V=8.0
MOVL C00639 V=8.0
MOVL C00640 V=8.0
MOVL C00641 V=8.0
MOVL C00642 V=8.0
MOVL C00643 V=8.0
MOVL C00644 V=8.0
MOVL C00645 V=8.0
MOVL C00646 V=8.0
MOVL C00647 V=8.0
MOVL C00648 V=8.0
MOVL C00649 V=8.0
MOVL C00650 V=8.0
MOVL C00651 V=8.0
MOVL C00652 V=8.0
MOVL C00653 V=8.0
MOVL C00654 V=8.0
MOVL C00655 V=8.0
MOVL C00656 V=8.0
MOVL C00657 V=8.0
MOVL C00658 V=8.0
MOVL C00659 V=8.0
MOVL C00660 V=8.0
MOVL C00661 V=8.0
MOVL C00662 V=8.0
MOVL C00663 V=8.0
MOVL C00664 V=8.0
MOVL C00665 V=8.0
MOVL C00666 V=8.0
MOVL C00667 V=8.0
MOVL C00668 V=8.0
MOVL C00669 V=8.0
MOVL C00670 V=8.0
MOVL C00671 V=8.0
MOVL C00672 V=8.0
MOVL C00673 V=8.0
MOVL C00674 V=8.0
MOVL C00675 V=8.0
MOVL C00676 V=8.0
MOVL C00677 V=8.0
MOVL C00678 V=8.0
MOVL C00679 V=8.0
MOVL C00680 V=8.0
MOVL C00681 V=8.0
MOVL C00682 V=8.0
MOVL C00683 V=8.0
MOVL C00684 V=8.0
MOVL C00685 V=8.0
MOVL C00686 V=8.0
MOVL C00687 V=8.0
MOVL C00688 V=8.0
MOVL C00689 V=8.0
MOVL C00690 V=8.0
MOVL C00691 V=8.0
MOVL C00692 V=8.0
MOVJ C00693 VJ=0.78
MOVJ C00694 VJ=0.78
MOVJ C00695 VJ=0.78
MOVL C00696 V=8.0
MOVL C00697 V=8.0
MOVL C00698 V=8.0
MOVL C00699 V=8.0
MOVL C00700 V=8.0
MOVL C00701 V=8.0
MOVL C00702 V=8.0
MOVL C00703 V=8.0
MOVL C00704 V=8.0
MOVL C00705 V=8.0
MOVL C00706 V=8.0
MOVL C00707 V=8.0
MOVL C00708 V=8.0
MOVL C00709 V=8.0
MOVL C00710 V=8.0
MOVL C00711 V=8.0
MOVL C00712 V=8.0
MOVL C00713 V=8.0
MOVL C00714 V=8.0
MOVL C00715 V=8.0
MOVL C00716 V=8.0
MOVL C00717 V=8.0
MOVL C00718 V=8.0
MOVL C00719 V=8.0
MOVL C00720 V=8.0
MOVL C00721 V=8.0
MOVL C00722 V=8.0
MOVL C00723 V=8.0
MOVL C00724 V=8.0
MOVL C00725 V=8.0
MOVL C00726 V=8.0
MOVL C00727 V=8.0
MOVL C00728 V=8.0
MOVL C00729 V=8.0
MOVL C00730 V=8.0
MOVL C00731 V=8.0
MOVL C00732 V=8.0
MOVL C00733 V=8.0
MOVL C00734 V=8.0
MOVL C00735 V=8.0
MOVL C00736 V=8.0
MOVL C00737 V=8.0
MOVL C00738 V=8.0
MOVL C00739 V=8.0
MOVL C00740 V=8.0
MOVL C00741 V=8.0
MOVL C00742 V=8.0
MOVL C00743 V=8.0
MOVL C00744 V=8.0
MOVL C00745 V=8.0
MOVL C00746 V=8.0
MOVL C00747 V=8.0
MOVL C00748 V=8.0
MOVL C00749 V=8.0
MOVL C00750 V=8.0
MOVL C00751 V=8.0
MOVL C00752 V=8.0
MOVL C00753 V=8.0
MOVL C00754 V=8.0
MOVL C00755 V=8.0
MOVJ C00756 VJ=0.78
MOVJ C00757 VJ=0.78
MOVJ C00758 VJ=0.78
MOVL C00759 V=8.0
MOVL C00760 V=8.0
MOVL C00761 V=8.0
MOVL C00762 V=8.0
MOVL C00763 V=8.0
MOVL C00764 V=8.0
MOVL C00765 V=8.0
MOVL C00766 V=8.0
MOVL C00767 V=8.0
MOVL C00768 V=8.0
MOVL C00769 V=8.0
MOVL C00770 V=8.0
MOVL C00771 V=8.0
MOVL C00772 V=8.0
MOVL C00773 V=8.0
MOVL C00774 V=8.0
MOVL C00775 V=8.0
MOVL C00776 V=8.0
MOVL C00777 V=8.0
MOVL C00778 V=8.0
MOVL C00779 V=8.0
MOVL C00780 V=8.0
MOVL C00781 V=8.0
MOVL C00782 V=8.0
MOVL C00783 V=8.0
MOVL C00784 V=8.0
MOVL C00785 V=8.0
MOVL C00786 V=8.0
MOVL C00787 V=8.0
MOVL C00788 V=8.0
MOVL C00789 V=8.0
MOVL C00790 V=8.0
MOVL C00791 V=8.0
MOVL C00792 V=8.0
MOVL C00793 V=8.0
MOVL C00794 V=8.0
MOVL C00795 V=8.0
MOVL C00796 V=8.0
MOVL C00797 V=8.0
MOVL C00798 V=8.0
MOVL C00799 V=8.0
MOVL C00800 V=8.0
MOVL C00801 V=8.0
MOVL C00802 V=8.0
MOVL C00803 V=8.0
MOVL C00804 V=8.0
MOVL C00805 V=8.0
MOVL C00806 V=8.0
MOVL C00807 V=8.0
MOVL C00808 V=8.0
MOVL C00809 V=8.0
MOVL C00810 V=8.0
MOVL C00811 V=8.0
MOVL C00812 V=8.0
MOVL C00813 V=8.0
MOVL C00814 V=8.0
MOVL C00815 V=8.0
MOVL C00816 V=8.0
MOVL C00817 V=8.0
MOVL C00818 V=8.0
MOVJ C00819 VJ=0.78
MOVJ C00820 VJ=0.78
MOVJ C00821 VJ=0.78
MOVL C00822 V=8.0
MOVL C00823 V=8.0
MOVL C00824 V=8.0
MOVL C00825 V=8.0
MOVL C00826 V=8.0
MOVL C00827 V=8.0
MOVL C00828 V=8.0
MOVL C00829 V=8.0
MOVL C00830 V=8.0
MOVL C00831 V=8.0
MOVL C00832 V=8.0
MOVL C00833 V=8.0
MOVL C00834 V=8.0
MOVL C00835 V=8.0
MOVL C00836 V=8.0
MOVL C00837 V=8.0
MOVL C00838 V=8.0
MOVL C00839 V=8.0
MOVL C00840 V=8.0
MOVL C00841 V=8.0
MOVL C00842 V=8.0
MOVL C00843 V=8.0
MOVL C00844 V=8.0
MOVL C00845 V=8.0
MOVL C00846 V=8.0
MOVL C00847 V=8.0
MOVL C00848 V=8.0
MOVL C00849 V=8.0
MOVL C00850 V=8.0
MOVL C00851 V=8.0
MOVL C00852 V=8.0
MOVL C00853 V=8.0
MOVL C00854 V=8.0
MOVL C00855 V=8.0
MOVL C00856 V=8.0
MOVL C00857 V=8.0
MOVL C00858 V=8.0
MOVL C00859 V=8.0
MOVL C00860 V=8.0
MOVL C00861 V=8.0
MOVL C00862 V=8.0
MOVL C00863 V=8.0
MOVL C00864 V=8.0
MOVL C00865 V=8.0
MOVL C00866 V=8.0
MOVL C00867 V=8.0
MOVL C00868 V=8.0
MOVL C00869 V=8.0
MOVL C00870 V=8.0
MOVL C00871 V=8.0
MOVL C00872 V=8.0
MOVL C00873 V=8.0
MOVL C00874 V=8.0
MOVL C00875 V=8.0
MOVL C00876 V=8.0
MOVL C00877 V=8.0
MOVL C00878 V=8.0
MOVL C00879 V=8.0
MOVL C00880 V=8.0
MOVL C00881 V=8.0
MOVJ C00882 VJ=0.78
MOVJ C00883 VJ=0.78
MOVJ C00884 VJ=0.78
MOVL C00885 V=8.0
MOVL C00886 V=8.0
MOVL C00887 V=8.0
MOVL C00888 V=8.0
MOVL C00889 V=8.0
MOVL C00890 V=8.0
MOVL C00891 V=8.0
MOVL C00892 V=8.0
MOVL C00893 V=8.0
MOVL C00894 V=8.0
MOVL C00895 V=8.0
MOVL C00896 V=8.0
MOVL C00897 V=8.0
MOVL C00898 V=8.0
MOVL C00899 V=8.0
MOVL C00900 V=8.0
MOVL C00901 V=8.0
MOVL C00902 V=8.0
MOVL C00903 V=8.0
MOVL C00904 V=8.0
MOVL C00905 V=8.0
MOVL C00906 V=8.0
MOVL C00907 V=8.0
MOVL C00908 V=8.0
MOVL C00909 V=8.0
MOVL C00910 V=8.0
MOVL C00911 V=8.0
MOVL C00912 V=8.0
MOVL C00913 V=8.0
MOVL C00914 V=8.0
MOVL C00915 V=8.0
MOVL C00916 V=8.0
MOVL C00917 V=8.0
MOVL C00918 V=8.0
MOVL C00919 V=8.0
MOVL C00920 V=8.0
MOVL C00921 V=8.0
MOVL C00922 V=8.0
MOVL C00923 V=8.0
MOVL C00924 V=8.0
MOVL C00925 V=8.0
MOVL C00926 V=8.0
MOVL C00927 V=8.0
MOVL C00928 V=8.0
MOVL C00929 V=8.0
MOVL C00930 V=8.0
MOVL C00931 V=8.0
MOVL C00932 V=8.0
MOVL C00933 V=8.0
MOVL C00934 V=8.0
MOVL C00935 V=8.0
MOVL C00936 V=8.0
MOVL C00937 V=8.0
MOVL C00938 V=8.0
MOVL C00939 V=8.0
MOVL C00940 V=8.0
MOVL C00941 V=8.0
MOVL C00942 V=8.0
MOVL C00943 V=8.0
MOVL C00944 V=8.0
MOVJ C00945 VJ=0.78
MOVJ C00946 VJ=0.78
MOVJ C00947 VJ=0.78
MOVL C00948 V=8.0
MOVL C00949 V=8.0
MOVL C00950 V=8.0
MOVL C00951 V=8.0
MOVL C00952 V=8.0
MOVL C00953 V=8.0
MOVL C00954 V=8.0
MOVL C00955 V=8.0
MOVL C00956 V=8.0
MOVL C00957 V=8.0
MOVL C00958 V=8.0
MOVL C00959 V=8.0
MOVL C00960 V=8.0
MOVL C00961 V=8.0
MOVL C00962 V=8.0
MOVL C00963 V=8.0
MOVL C00964 V=8.0
MOVL C00965 V=8.0
MOVL C00966 V=8.0
MOVL C00967 V=8.0
MOVL C00968 V=8.0
MOVL C00969 V=8.0
MOVL C00970 V=8.0
MOVL C00971 V=8.0
MOVL C00972 V=8.0
MOVL C00973 V=8.0
MOVL C00974 V=8.0
MOVL C00975 V=8.0
MOVL C00976 V=8.0
MOVL C00977 V=8.0
MOVL C00978 V=8.0
MOVL C00979 V=8.0
MOVL C00980 V=8.0
MOVL C00981 V=8.0
MOVL C00982 V=8.0
MOVL C00983 V=8.0
MOVL C00984 V=8.0
MOVL C00985 V=8.0
MOVL C00986 V=8.0
MOVL C00987 V=8.0
MOVL C00988 V=8.0
MOVL C00989 V=8.0
MOVL C00990 V=8.0
MOVL C00991 V=8.0
MOVL C00992 V=8.0
MOVL C00993 V=8.0
MOVL C00994 V=8.0
MOVL C00995 V=8.0
MOVL C00996 V=8.0
MOVL C00997 V=8.0
MOVL C00998 V=8.0
MOVL C00999 V=8.0
MOVL C01000 V=8.0
MOVL C01001 V=8.0
MOVL C01002 V=8.0
MOVL C01003 V=8.0
MOVL C01004 V=8.0
MOVL C01005 V=8.0
MOVL C01006 V=8.0
MOVL C01007 V=8.0
MOVJ C01008 VJ=0.78
MOVJ C01009 VJ=0.78
MOVJ C01010 VJ=0.78
MOVL C01011 V=8.0
MOVL C01012 V=8.0
MOVL C01013 V=8.0
MOVL C01014 V=8.0
MOVL C01015 V=8.0
MOVL C01016 V=8.0
MOVL C01017 V=8.0
MOVL C01018 V=8.0
MOVL C01019 V=8.0
MOVL C01020 V=8.0
MOVL C01021 V=8.0
MOVL C01022 V=8.0
MOVL C01023 V=8.0
MOVL C01024 V=8.0
MOVL C01025 V=8.0
MOVL C01026 V=8.0
MOVL C01027 V=8.0
MOVL C01028 V=8.0
MOVL C01029 V=8.0
MOVL C01030 V=8.0
MOVL C01031 V=8.0
MOVL C01032 V=8.0
MOVL C01033 V=8.0
MOVL C01034 V=8.0
MOVL C01035 V=8.0
MOVL C01036 V=8.0
MOVL C01037 V=8.0
MOVL C01038 V=8.0
MOVL C01039 V=8.0
MOVL C01040 V=8.0
MOVL C01041 V=8.0
MOVL C01042 V=8.0
MOVL C01043 V=8.0
MOVL C01044 V=8.0
MOVL C01045 V=8.0
MOVL C01046 V=8.0
MOVL C01047 V=8.0
MOVL C01048 V=8.0
MOVL C01049 V=8.0
MOVL C01050 V=8.0
MOVL C01051 V=8.0
MOVL C01052 V=8.0
MOVL C01053 V=8.0
MOVL C01054 V=8.0
MOVL C01055 V=8.0
MOVL C01056 V=8.0
MOVL C01057 V=8.0
MOVL C01058 V=8.0
MOVL C01059 V=8.0
MOVL C01060 V=8.0
MOVL C01061 V=8.0
MOVL C01062 V=8.0
MOVL C01063 V=8.0
MOVL C01064 V=8.0
MOVL C01065 V=8.0
MOVL C01066 V=8.0
MOVL C01067 V=8.0
MOVL C01068 V=8.0
MOVL C01069 V=8.0
MOVL C01070 V=8.0
MOVJ C01071 VJ=0.78
MOVJ C01072 VJ=0.78
MOVJ C01073 VJ=0.78
MOVL C01074 V=8.0
MOVL C01075 V=8.0
MOVL C01076 V=8.0
MOVL C01077 V=8.0
MOVL C01078 V=8.0
MOVL C01079 V=8.0
MOVL C01080 V=8.0
MOVL C01081 V=8.0
MOVL C01082 V=8.0
MOVL C01083 V=8.0
MOVL C01084 V=8.0
MOVL C01085 V=8.0
MOVL C01086 V=8.0
MOVL C01087 V=8.0
MOVL C01088 V=8.0
MOVL C01089 V=8.0
MOVL C01090 V=8.0
MOVL C01091 V=8.0
MOVL C01092 V=8.0
MOVL C01093 V=8.0
MOVL C01094 V=8.0
MOVL C01095 V=8.0
MOVL C01096 V=8.0
MOVL C01097 V=8.0
MOVL C01098 V=8.0
MOVL C01099 V=8.0
MOVL C01100 V=8.0
MOVL C01101 V=8.0
MOVL C01102 V=8.0
MOVL C01103 V=8.0
MOVL C01104 V=8.0
MOVL C01105 V=8.0
MOVL C01106 V=8.0
MOVL C01107 V=8.0
MOVL C01108 V=8.0
MOVL C01109 V=8.0
MOVL C01110 V=8.0
MOVL C01111 V=8.0
MOVL C01112 V=8.0
MOVL C01113 V=8.0
MOVL C01114 V=8.0
MOVL C01115 V=8.0
MOVL C01116 V=8.0
MOVL C01117 V=8.0
MOVL C01118 V=8.0
MOVL C01119 V=8.0
MOVL C01120 V=8.0
MOVL C01121 V=8.0
MOVL C01122 V=8.0
MOVL C01123 V=8.0
MOVL C01124 V=8.0
MOVL C01125 V=8.0
MOVL C01126 V=8.0
MOVL C01127 V=8.0
MOVL C01128 V=8.0
MOVL C01129 V=8.0
MOVL C01130 V=8.0
MOVL C01131 V=8.0
MOVL C01132 V=8.0
MOVL C01133 V=8.0
MOVJ C01134 VJ=0.78
END
