/JOB
//NAME CONTOUR2
//POS
///NPOS 2036,0,0,0,0,0
///TOOL 0
///POSTYPE PULSE
///PULSE
C00000=-41004,59868,4099,4900,-34257,16705
C00001=-41004,59868,1099,4900,-34257,16705
C00002=-41004,64596,1380,5213,-31659,16463
C00003=-41004,59868,1099,4900,-34257,16705
C00004=-41004,59868,9099,4900,-34257,16705
C00005=3811,30078,-28925,647,-28547,-2208
C00006=3772,30039,-28973,653,-28533,-2193
C00007=3772,31592,-29182,682,-27436,-2213
C00008=3749,31594,-29180,686,-27436,-2205
C00009=3734,31610,-29160,688,-27442,-2199
C00010=3732,31634,-29132,688,-27451,-2198
C00011=3730,31657,-29105,688,-27459,-2197
C00012=3727,31680,-29077,688,-27468,-2196
C00013=3739,31700,-29053,686,-27475,-2200
C00014=3740,31722,-29026,686,-27484,-2201
C00015=3738,31745,-28998,686,-27492,-2200
C00016=3747,31765,-28973,684,-27500,-2203
C00017=3751,31787,-28947,684,-27508,-2204
C00018=3753,31809,-28920,683,-27516,-2205
C00019=3764,31829,-28896,681,-27524,-2209
C00020=3762,31852,-28868,682,-27532,-2208
C00021=3762,31874,-28841,681,-27541,-2208
C00022=3777,31893,-28818,679,-27548,-2214
C00023=3793,31912,-28795,677,-27555,-2220
C00024=3808,31931,-28772,674,-27562,-2226
C00025=3822,31950,-28749,672,-27569,-2231
C00026=3819,31973,-28721,672,-27578,-2230
C00027=3830,31993,-28696,671,-27585,-2234
C00028=3833,32015,-28670,670,-27594,-2235
C00029=3848,32034,-28647,668,-27601,-2240
C00030=3851,32056,-28621,667,-27609,-2242
C00031=3861,32076,-28596,665,-27617,-2245
C00032=3875,32087,-28583,663,-27621,-2251
C00033=3891,32104,-28561,661,-27627,-2257
C00034=3906,32123,-28538,658,-27635,-2263
C00035=3930,32128,-28532,655,-27637,-2272
C00036=3954,32132,-28528,651,-27638,-2281
C00037=3975,32122,-28540,649,-27635,-2289
C00038=3994,32108,-28557,646,-27630,-2297
C00039=4001,32087,-28581,645,-27622,-2300
C00040=4018,32073,-28599,643,-27617,-2307
C00041=4021,32050,-28627,643,-27608,-2308
C00042=4024,32027,-28655,642,-27600,-2309
C00043=4026,32004,-28683,642,-27591,-2310
C00044=4018,31983,-28708,643,-27583,-2307
C00045=4013,31962,-28733,644,-27576,-2305
C00046=4000,31942,-28757,646,-27568,-2300
C00047=4000,31920,-28784,647,-27560,-2300
C00048=3995,31899,-28810,648,-27552,-2298
C00049=3987,31878,-28835,649,-27544,-2296
C00050=3976,31858,-28859,651,-27537,-2291
C00051=3961,31839,-28882,653,-27529,-2286
C00052=3958,31817,-28909,654,-27521,-2285
C00053=3943,31798,-28932,656,-27514,-2279
C00054=3939,31777,-28958,657,-27506,-2278
C00055=3930,31756,-28983,658,-27498,-2274
C00056=3933,31733,-29011,658,-27490,-2275
C00057=3918,31714,-29034,660,-27483,-2270
C00058=3915,31692,-29060,661,-27474,-2269
C00059=3904,31672,-29084,663,-27467,-2264
C00060=3897,31652,-29110,664,-27459,-2262
C00061=3891,31630,-29135,665,-27451,-2260
C00062=3878,31611,-29159,667,-27444,-2255
C00063=3863,31592,-29182,669,-27437,-2249
C00064=3840,31586,-29190,673,-27434,-2240
C00065=3815,31582,-29194,676,-27433,-2230
C00066=3791,31579,-29199,680,-27431,-2221
C00067=3772,31592,-29182,682,-27436,-2213
C00068=3772,30039,-28973,653,-28533,-2193
C00069=4398,30246,-28719,561,-28616,-2436
C00070=4398,31799,-28928,590,-27519,-2456
C00071=5036,31822,-28896,498,-27533,-2703
C00072=5198,31202,-29647,479,-27303,-2769
C00073=5456,30860,-30060,443,-27178,-2871
C00074=5476,31393,-29413,437,-27377,-2876
C00075=5340,32035,-28636,452,-27615,-2821
C00076=4858,32446,-28141,519,-27764,-2631
C00077=4354,32117,-28543,594,-27637,-2437
C00078=4573,32737,-27790,558,-27870,-2519
C00079=5059,33187,-27241,486,-28043,-2707
C00080=5646,33540,-26808,400,-28181,-2934
C00081=5699,34186,-26023,389,-28424,-2953
C00082=5480,34755,-25335,417,-28634,-2865
C00083=4842,34645,-25475,507,-28585,-2616
C00084=4822,34063,-26181,514,-28367,-2610
C00085=4602,33427,-26953,549,-28128,-2527
C00086=4042,33010,-27463,632,-27966,-2311
C00087=3674,33109,-27347,683,-27999,-2167
C00088=4277,33451,-26928,595,-28133,-2400
C00089=4580,34034,-26218,548,-28354,-2516
C00090=4430,34634,-25492,565,-28576,-2454
C00091=4919,34871,-25200,495,-28671,-2645
C00092=5597,34971,-25072,400,-28717,-2910
C00093=5970,35341,-24619,346,-28860,-3055
C00094=5296,35291,-24686,440,-28833,-2791
C00095=4688,35235,-24762,525,-28803,-2553
C00096=4007,35200,-24811,620,-28782,-2286
C00097=3336,35018,-25038,715,-28705,-2024
C00098=2717,34729,-25395,804,-28589,-1783
C00099=2233,34422,-25772,874,-28469,-1595
C00100=2046,34861,-25243,895,-28629,-1518
C00101=1401,34980,-25106,983,-28664,-1264
C00102=729,34997,-25094,1076,-28661,-1000
C00103=60,35013,-25082,1168,-28657,-736
C00104=-610,34915,-25208,1261,-28611,-474
C00105=-271,34585,-25603,1219,-28495,-610
C00106=368,34431,-25780,1133,-28447,-863
C00107=965,34288,-25946,1052,-28403,-1099
C00108=1611,34205,-26041,963,-28380,-1353
C00109=1975,34203,-26039,912,-28384,-1495
C00110=1719,33568,-26809,955,-28146,-1400
C00111=1551,32933,-27578,986,-27909,-1339
C00112=1567,32259,-28392,992,-27661,-1351
C00113=1686,31587,-29203,983,-27413,-1402
C00114=1926,30976,-29939,955,-27190,-1501
C00115=2169,30355,-30687,927,-26963,-1600
C00116=2302,29702,-31476,915,-26722,-1656
C00117=2489,29077,-32231,895,-26493,-1734
C00118=2799,28488,-32941,855,-26277,-1858
C00119=3431,28170,-33324,765,-26163,-2104
C00120=4186,28180,-33311,652,-26171,-2394
C00121=4895,28372,-33076,544,-26247,-2666
C00122=5472,28721,-32653,456,-26380,-2887
C00123=5602,29094,-32199,434,-26520,-2935
C00124=5377,29393,-31838,465,-26630,-2847
C00125=5141,29829,-31310,497,-26791,-2754
C00126=5309,30102,-30979,470,-26894,-2817
C00127=4583,30089,-30998,577,-26884,-2537
C00128=4270,30545,-30447,619,-27051,-2413
C00129=4135,31167,-29695,633,-27281,-2357
C00130=4398,31799,-28928,590,-27519,-2456
C00131=4398,30246,-28719,561,-28616,-2436
C00132=4506,29949,-29078,548,-28506,-2479
C00133=4506,31502,-29287,577,-27409,-2499
C00134=4423,30821,-30113,594,-27155,-2471
C00135=4852,30327,-30709,535,-26974,-2639
C00136=5626,30240,-30811,422,-26948,-2939
C00137=6347,30278,-30762,316,-26967,-3218
C00138=6990,30211,-30841,221,-26947,-3466
C00139=6424,29785,-31359,307,-26784,-3249
C00140=6609,29504,-31699,281,-26680,-3322
C00141=5947,29102,-32189,382,-26525,-3068
C00142=5559,28477,-32948,444,-26290,-2921
C00143=4867,28100,-33406,551,-26146,-2657
C00144=4064,27931,-33612,673,-26078,-2349
C00145=3254,27963,-33575,793,-26085,-2037
C00146=2635,28297,-33173,882,-26205,-1796
C00147=2269,28883,-32466,929,-26419,-1650
C00148=2079,29586,-31618,949,-26678,-1571
C00149=1926,30280,-30780,963,-26933,-1506
C00150=1647,30922,-30006,996,-27168,-1393
C00151=1407,31579,-29214,1023,-27408,-1294
C00152=1278,32296,-28349,1033,-27671,-1238
C00153=1293,32962,-27545,1022,-27917,-1238
C00154=1480,33665,-26694,988,-28179,-1306
C00155=1110,34005,-26287,1035,-28300,-1158
C00156=387,33999,-26302,1136,-28288,-874
C00157=216,34095,-26187,1159,-28321,-807
C00158=-119,34293,-25952,1202,-28390,-673
C00159=-761,34545,-25656,1287,-28473,-419
C00160=-780,35090,-25000,1282,-28673,-405
C00161=-58,35243,-24806,1181,-28740,-688
C00162=674,35319,-24706,1079,-28779,-976
C00163=1222,35199,-24844,1006,-28742,-1192
C00164=1929,35268,-24751,907,-28778,-1470
C00165=2679,35351,-24643,803,-28819,-1764
C00166=3148,35570,-24373,736,-28907,-1947
C00167=3864,35609,-24317,637,-28932,-2228
C00168=3239,35391,-24588,725,-28842,-1984
C00169=3957,35458,-24499,625,-28877,-2265
C00170=4588,35716,-24178,536,-28982,-2512
C00171=5274,35735,-24148,441,-28998,-2781
C00172=4937,35520,-24413,489,-28913,-2650
C00173=5663,34091,-24046,359,-30066,-2914
C00174=-41004,59868,4099,4900,-34257,16705
C00175=-41004,59868,1099,4900,-34257,16705
C00176=-41004,64596,1380,5213,-31659,16463
C00177=-41004,59868,1099,4900,-34257,16705
C00178=-41004,59868,9099,4900,-34257,16705
C00179=5663,34091,-24046,359,-30066,-2914
C00180=5663,35644,-24255,388,-28969,-2934
C00181=6140,35797,-24063,321,-29033,-3121
C00182=6675,35953,-23869,246,-29099,-3330
C00183=6554,35659,-24226,263,-28987,-3283
C00184=7090,35639,-24246,188,-28986,-3494
C00185=6658,35443,-24489,249,-28907,-3325
C00186=6876,35143,-24850,220,-28797,-3410
C00187=7616,35161,-24821,116,-28813,-3700
C00188=7324,34994,-25028,157,-28746,-3586
C00189=6603,34871,-25184,259,-28691,-3304
C00190=5951,34576,-25548,352,-28573,-3050
C00191=5998,33981,-26270,348,-28350,-3070
C00192=5755,33333,-27058,385,-28105,-2977
C00193=5144,32967,-27507,475,-27962,-2741
C00194=5248,32588,-27966,462,-27821,-2783
C00195=5609,31998,-28680,414,-27604,-2925
C00196=5739,31288,-29539,399,-27340,-2979
C00197=5711,30633,-30334,407,-27095,-2971
C00198=5092,30729,-30220,497,-27126,-2730
C00199=4918,31370,-29445,518,-27363,-2660
C00200=4506,31502,-29287,577,-27409,-2499
C00201=4506,29949,-29078,548,-28506,-2479
C00202=3281,29397,-29753,730,-28290,-2007
C00203=3281,30950,-29962,759,-27193,-2027
C00204=3291,30926,-29992,758,-27184,-2031
C00205=3294,30897,-30026,758,-27173,-2032
C00206=3297,30868,-30061,758,-27163,-2034
C00207=3300,30840,-30096,758,-27152,-2035
C00208=3316,30818,-30121,755,-27144,-2041
C00209=3322,30792,-30154,755,-27134,-2044
C00210=3325,30763,-30188,755,-27124,-2045
C00211=3328,30734,-30223,755,-27113,-2046
C00212=3330,30706,-30258,754,-27103,-2048
C00213=3333,30677,-30292,754,-27092,-2049
C00214=3336,30648,-30327,754,-27081,-2050
C00215=3351,30626,-30353,752,-27073,-2056
C00216=3358,30600,-30385,751,-27064,-2059
C00217=3361,30572,-30420,751,-27053,-2061
C00218=3375,30549,-30447,750,-27045,-2066
C00219=3384,30524,-30478,748,-27036,-2070
C00220=3387,30495,-30512,748,-27025,-2071
C00221=3389,30466,-30547,748,-27014,-2072
C00222=3392,30438,-30581,748,-27004,-2073
C00223=3410,30417,-30606,746,-26996,-2080
C00224=3415,30390,-30639,745,-26986,-2082
C00225=3413,30362,-30673,746,-26976,-2082
C00226=3393,30339,-30701,749,-26967,-2074
C00227=3387,30312,-30733,750,-26957,-2072
C00228=3389,30284,-30768,750,-26947,-2073
C00229=3372,30259,-30797,753,-26938,-2067
C00230=3349,30241,-30819,756,-26931,-2058
C00231=3318,30237,-30825,761,-26929,-2046
C00232=3287,30232,-30830,765,-26927,-2034
C00233=3263,30249,-30810,769,-26933,-2025
C00234=3247,30271,-30784,771,-26941,-2018
C00235=3239,30297,-30753,772,-26950,-2015
C00236=3225,30319,-30726,774,-26958,-2009
C00237=3222,30348,-30691,774,-26969,-2008
C00238=3219,30376,-30657,774,-26980,-2007
C00239=3217,30405,-30622,774,-26990,-2006
C00240=3214,30434,-30587,774,-27001,-2004
C00241=3194,30453,-30564,777,-27008,-1997
C00242=3192,30482,-30529,777,-27018,-1995
C00243=3189,30510,-30495,777,-27029,-1994
C00244=3169,30530,-30471,780,-27036,-1986
C00245=3166,30558,-30437,780,-27047,-1985
C00246=3147,30578,-30413,782,-27054,-1977
C00247=3144,30606,-30379,783,-27064,-1976
C00248=3141,30635,-30344,783,-27075,-1975
C00249=3139,30664,-30310,783,-27085,-1974
C00250=3136,30692,-30275,783,-27096,-1972
C00251=3133,30721,-30240,783,-27107,-1971
C00252=3130,30750,-30206,783,-27117,-1970
C00253=3128,30778,-30171,783,-27128,-1969
C00254=3125,30807,-30136,783,-27138,-1967
C00255=3122,30836,-30102,783,-27149,-1966
C00256=3120,30864,-30067,784,-27160,-1965
C00257=3135,30889,-30037,781,-27169,-1971
C00258=3143,30915,-30005,780,-27179,-1973
C00259=3169,30926,-29992,776,-27183,-1984
C00260=3195,30940,-29975,772,-27189,-1994
C00261=3222,30950,-29962,768,-27192,-2004
C00262=3253,30955,-29957,763,-27194,-2016
C00263=3281,30950,-29962,759,-27193,-2027
C00264=3281,29397,-29753,730,-28290,-2007
C00265=2841,29838,-29223,790,-28449,-1833
C00266=2841,31391,-29432,819,-27352,-1853
C00267=2755,31506,-29293,830,-27394,-1819
C00268=2711,31670,-29096,835,-27454,-1800
C00269=2644,31825,-28908,842,-27511,-1774
C00270=2653,31980,-28720,840,-27569,-1776
C00271=2552,32077,-28604,853,-27604,-1736
C00272=2536,32260,-28383,853,-27671,-1728
C00273=2521,32430,-28177,854,-27734,-1721
C00274=2490,32591,-27983,857,-27793,-1708
C00275=2477,32761,-27778,857,-27856,-1702
C00276=2529,32928,-27576,848,-27919,-1721
C00277=2548,33103,-27364,843,-27984,-1727
C00278=2601,33269,-27162,834,-28046,-1747
C00279=2690,33418,-26982,820,-28102,-1780
C00280=2780,33565,-26802,806,-28158,-1815
C00281=2763,33710,-26627,807,-28212,-1807
C00282=2637,33570,-26797,826,-28158,-1759
C00283=2533,33651,-26700,840,-28187,-1718
C00284=2420,33631,-26726,856,-28178,-1674
C00285=2328,33483,-26906,870,-28122,-1639
C00286=2238,33326,-27097,885,-28063,-1604
C00287=2193,33157,-27302,893,-28000,-1588
C00288=2156,32986,-27508,900,-27936,-1575
C00289=2109,32817,-27712,908,-27873,-1558
C00290=2056,32650,-27915,918,-27811,-1539
C00291=2051,32471,-28131,920,-27744,-1538
C00292=2065,32301,-28337,920,-27682,-1545
C00293=2027,32130,-28544,928,-27618,-1531
C00294=2000,31956,-28754,933,-27553,-1522
C00295=1849,31968,-28741,955,-27556,-1463
C00296=1835,32138,-28535,955,-27619,-1456
C00297=1805,32313,-28325,957,-27683,-1443
C00298=1808,32492,-28108,955,-27749,-1443
C00299=1811,32672,-27891,952,-27816,-1443
C00300=1894,32813,-27719,939,-27869,-1474
C00301=1875,32949,-27556,940,-27919,-1466
C00302=1931,33115,-27354,930,-27981,-1486
C00303=1994,33267,-27170,920,-28038,-1509
C00304=2077,33411,-26995,906,-28092,-1541
C00305=2114,33582,-26788,899,-28156,-1554
C00306=2230,33724,-26616,882,-28210,-1599
C00307=2346,33864,-26445,864,-28263,-1643
C00308=2512,33905,-26394,840,-28281,-1708
C00309=2678,33946,-26343,817,-28298,-1772
C00310=2855,33939,-26350,792,-28297,-1842
C00311=3010,33859,-26445,771,-28270,-1903
C00312=3038,33683,-26658,768,-28205,-1915
C00313=2975,33526,-26848,779,-28146,-1891
C00314=2926,33380,-27025,787,-28091,-1873
C00315=2863,33216,-27224,797,-28029,-1849
C00316=2787,33065,-27408,810,-27972,-1821
C00317=2756,32893,-27616,816,-27908,-1810
C00318=2720,32722,-27822,823,-27845,-1797
C00319=2719,32543,-28039,825,-27778,-1798
C00320=2752,32369,-28250,822,-27714,-1812
C00321=2785,32194,-28460,819,-27650,-1826
C00322=2839,32032,-28657,812,-27590,-1848
C00323=2871,31871,-28851,809,-27531,-1862
C00324=2918,31704,-29053,804,-27469,-1881
C00325=2935,31520,-29275,804,-27401,-1889
C00326=2841,31391,-29432,819,-27352,-1853
C00327=2841,29838,-29223,790,-28449,-1833
C00328=2528,29762,-29316,836,-28418,-1712
C00329=2528,31315,-29525,865,-27321,-1732
C00330=2533,31294,-29550,864,-27314,-1734
C00331=2535,31272,-29578,864,-27305,-1735
C00332=2537,31249,-29605,864,-27297,-1736
C00333=2522,31230,-29628,866,-27290,-1730
C00334=2519,31209,-29654,867,-27282,-1729
C00335=2502,31193,-29673,870,-27276,-1723
C00336=2482,31182,-29686,873,-27272,-1715
C00337=2463,31170,-29701,876,-27267,-1708
C00338=2438,31167,-29705,879,-27266,-1698
C00339=2420,31181,-29689,882,-27270,-1691
C00340=2401,31194,-29672,884,-27275,-1684
C00341=2395,31214,-29648,885,-27283,-1681
C00342=2377,31228,-29632,887,-27287,-1674
C00343=2362,31243,-29613,889,-27293,-1668
C00344=2360,31266,-29586,889,-27301,-1667
C00345=2357,31288,-29559,890,-27310,-1666
C00346=2339,31302,-29542,892,-27315,-1659
C00347=2332,31322,-29519,893,-27322,-1656
C00348=2314,31335,-29502,895,-27327,-1649
C00349=2300,29798,-29274,868,-28430,-1623
C00350=-41004,59868,4099,4900,-34257,16705
C00351=-41004,59868,1099,4900,-34257,16705
C00352=-41004,64596,1380,5213,-31659,16463
C00353=-41004,59868,1099,4900,-34257,16705
C00354=-41004,59868,9099,4900,-34257,16705
C00355=2300,29798,-29274,868,-28430,-1623
C00356=2300,31351,-29483,897,-27333,-1643
C00357=2298,31374,-29456,897,-27341,-1642
C00358=2282,31389,-29437,899,-27346,-1636
C00359=2277,31410,-29412,900,-27354,-1634
C00360=2275,31433,-29385,900,-27362,-1633
C00361=2263,31450,-29365,901,-27368,-1628
C00362=2255,31469,-29341,902,-27376,-1625
C00363=2250,31490,-29316,903,-27383,-1623
C00364=2234,31505,-29298,905,-27389,-1616
C00365=2233,31528,-29270,905,-27397,-1616
C00366=2231,31550,-29243,905,-27405,-1615
C00367=2229,31573,-29216,905,-27414,-1614
C00368=2227,31596,-29188,905,-27422,-1613
C00369=2228,31618,-29161,905,-27430,-1613
C00370=2241,31637,-29138,902,-27438,-1618
C00371=2246,31658,-29113,901,-27445,-1620
C00372=2262,31676,-29090,899,-27452,-1626
C00373=2281,31689,-29075,896,-27457,-1633
C00374=2305,31693,-29070,893,-27459,-1642
C00375=2329,31696,-29066,889,-27460,-1652
C00376=2350,31691,-29072,886,-27459,-1660
C00377=2360,31674,-29093,885,-27452,-1664
C00378=2375,31658,-29112,883,-27447,-1670
C00379=2381,31637,-29137,882,-27439,-1672
C00380=2383,31615,-29164,882,-27431,-1673
C00381=2394,31597,-29185,881,-27424,-1678
C00382=2403,31579,-29208,880,-27418,-1682
C00383=2407,31557,-29234,879,-27410,-1683
C00384=2424,31543,-29251,877,-27405,-1690
C00385=2426,31520,-29278,877,-27396,-1691
C00386=2428,31497,-29306,877,-27388,-1692
C00387=2445,31483,-29323,875,-27383,-1699
C00388=2452,31463,-29347,874,-27375,-1701
C00389=2467,31448,-29365,872,-27370,-1707
C00390=2477,31429,-29388,871,-27363,-1711
C00391=2488,31412,-29409,869,-27357,-1716
C00392=2490,31389,-29436,869,-27348,-1717
C00393=2496,31369,-29460,869,-27341,-1719
C00394=2510,31353,-29480,867,-27335,-1725
C00395=2512,31330,-29507,867,-27327,-1726
C00396=2528,31315,-29525,865,-27321,-1732
C00397=2528,29762,-29316,836,-28418,-1712
C00398=3077,30500,-28420,749,-28697,-1920
C00399=3077,32053,-28629,778,-27600,-1940
C00400=3057,32068,-28611,781,-27605,-1933
C00401=3037,32081,-28596,784,-27610,-1925
C00402=3014,32085,-28591,787,-27611,-1916
C00403=3002,32104,-28568,788,-27618,-1911
C00404=2986,32120,-28549,790,-27624,-1905
C00405=2981,32143,-28521,791,-27633,-1903
C00406=2989,32165,-28494,790,-27641,-1905
C00407=2995,32188,-28467,789,-27649,-1907
C00408=2992,32212,-28438,789,-27658,-1906
C00409=3000,32234,-28411,787,-27666,-1909
C00410=3005,32256,-28384,786,-27675,-1911
C00411=3021,32276,-28360,784,-27682,-1917
C00412=3019,32300,-28330,784,-27691,-1916
C00413=3016,32325,-28301,784,-27700,-1915
C00414=3019,32348,-28273,784,-27709,-1916
C00415=3029,32369,-28247,782,-27717,-1920
C00416=3040,32390,-28222,780,-27725,-1924
C00417=3043,32413,-28194,780,-27734,-1925
C00418=3040,32438,-28164,780,-27742,-1924
C00419=3051,32459,-28139,778,-27750,-1928
C00420=3053,32482,-28111,777,-27759,-1928
C00421=3051,32506,-28081,778,-27768,-1927
C00422=3063,32527,-28056,776,-27776,-1932
C00423=3066,32550,-28028,775,-27784,-1933
C00424=3079,32571,-28003,773,-27792,-1938
C00425=3077,32595,-27974,773,-27801,-1937
C00426=3090,32615,-27949,771,-27809,-1942
C00427=3113,32624,-27938,768,-27813,-1951
C00428=3131,32640,-27919,765,-27819,-1958
C00429=3157,32644,-27914,761,-27820,-1968
C00430=3182,32647,-27909,757,-27822,-1978
C00431=3204,32641,-27917,754,-27820,-1986
C00432=3224,32626,-27935,752,-27814,-1994
C00433=3232,32605,-27960,751,-27807,-1997
C00434=3234,32581,-27990,751,-27798,-1998
C00435=3237,32556,-28019,751,-27789,-1999
C00436=3239,32532,-28048,750,-27780,-2001
C00437=3241,32508,-28078,750,-27771,-2002
C00438=3238,32485,-28106,751,-27762,-2001
C00439=3229,32464,-28131,753,-27754,-1997
C00440=3218,32442,-28157,754,-27746,-1993
C00441=3216,32419,-28185,755,-27738,-1992
C00442=3218,32395,-28215,755,-27729,-1993
C00443=3220,32371,-28244,755,-27720,-1994
C00444=3216,32348,-28271,755,-27711,-1993
C00445=3207,32326,-28298,757,-27703,-1989
C00446=3195,32305,-28323,759,-27695,-1985
C00447=3192,32283,-28351,760,-27687,-1984
C00448=3175,32263,-28375,762,-27679,-1977
C00449=3163,32242,-28400,764,-27671,-1973
C00450=3166,32218,-28429,764,-27662,-1974
C00451=3168,32193,-28459,764,-27653,-1975
C00452=3160,32172,-28485,765,-27645,-1972
C00453=3155,32149,-28512,766,-27637,-1970
C00454=3157,32125,-28542,766,-27628,-1971
C00455=3160,32101,-28571,766,-27619,-1972
C00456=3145,32080,-28596,768,-27611,-1967
C00457=3128,32061,-28619,771,-27604,-1960
C00458=3103,32057,-28624,774,-27602,-1950
C00459=3077,32053,-28629,778,-27600,-1940
C00460=3077,30500,-28420,749,-28697,-1920
C00461=3251,32064,-26527,710,-29280,-1979
C00462=3251,33617,-26736,739,-28183,-1999
C00463=3235,33629,-26721,741,-28187,-1992
C00464=3218,33641,-26706,743,-28191,-1986
C00465=3202,33654,-26691,746,-28196,-1979
C00466=3195,33672,-26670,746,-28202,-1976
C00467=3193,33692,-26645,746,-28210,-1975
C00468=3191,33713,-26620,747,-28218,-1974
C00469=3197,33732,-26597,746,-28225,-1977
C00470=3213,33743,-26583,743,-28229,-1983
C00471=3230,33755,-26569,741,-28234,-1989
C00472=3247,33765,-26556,738,-28238,-1996
C00473=3263,33778,-26541,736,-28243,-2002
C00474=3277,33795,-26520,734,-28249,-2008
C00475=3290,33811,-26500,732,-28255,-2013
C00476=3307,33823,-26485,729,-28260,-2019
C00477=3323,33834,-26472,727,-28264,-2026
C00478=3341,33845,-26459,724,-28268,-2032
C00479=3357,33857,-26444,722,-28273,-2038
C00480=3375,33866,-26433,719,-28277,-2045
C00481=3390,33880,-26416,717,-28282,-2051
C00482=3408,33888,-26406,714,-28285,-2059
C00483=3430,33891,-26402,711,-28287,-2067
C00484=3449,33898,-26393,709,-28290,-2074
C00485=3462,33915,-26373,707,-28296,-2079
C00486=3476,33931,-26353,704,-28302,-2085
C00487=3498,33934,-26349,701,-28304,-2093
C00488=3519,33937,-26345,698,-28305,-2101
C00489=3535,33950,-26330,696,-28310,-2107
C00490=3553,33959,-26319,693,-28313,-2115
C00491=3574,33962,-26315,690,-28315,-2123
C00492=3595,33965,-26311,687,-28316,-2131
C00493=3614,33961,-26316,685,-28315,-2139
C00494=3626,33946,-26334,683,-28310,-2143
C00495=3636,33930,-26353,682,-28304,-2147
C00496=3647,33914,-26372,681,-28298,-2152
C00497=3649,33893,-26398,680,-28290,-2153
C00498=3650,33873,-26422,680,-28283,-2153
C00499=3637,33856,-26443,682,-28276,-2148
C00500=3634,33838,-26464,683,-28270,-2147
C00501=3616,33830,-26474,686,-28266,-2140
C00502=3600,33817,-26490,688,-28261,-2134
C00503=3583,33807,-26502,690,-28257,-2127
C00504=3566,33795,-26517,693,-28253,-2121
C00505=3545,33792,-26521,696,-28251,-2112
C00506=3524,33789,-26525,699,-28250,-2104
C00507=3504,33783,-26532,702,-28247,-2096
C00508=3490,33767,-26551,704,-28241,-2091
C00509=3471,33760,-26560,707,-28239,-2084
C00510=3456,33746,-26578,709,-28233,-2078
C00511=3438,33737,-26588,712,-28230,-2071
C00512=3424,33720,-26609,714,-28223,-2066
C00513=3410,33703,-26629,716,-28217,-2060
C00514=3396,33688,-26649,718,-28211,-2055
C00515=3377,33681,-26657,721,-28208,-2048
C00516=3364,33664,-26678,723,-28201,-2042
C00517=3350,33648,-26697,725,-28195,-2037
C00518=3330,33641,-26706,727,-28193,-2029
C00519=3316,33626,-26724,730,-28187,-2024
C00520=3294,33623,-26728,733,-28185,-2015
C00521=3273,33620,-26732,736,-28184,-2007
C00522=3251,32064,-26527,710,-29280,-1979
C00523=-41004,59868,4099,4900,-34257,16705
C00524=-41004,59868,1099,4900,-34257,16705
C00525=-41004,64596,1380,5213,-31659,16463
C00526=-41004,59868,1099,4900,-34257,16705
C00527=-41004,59868,9099,4900,-34257,16705
C00528=3251,32064,-26527,710,-29280,-1979
C00529=3251,33617,-26736,739,-28183,-1999
C00530=3251,32064,-26527,710,-29280,-1979
C00531=3572,32905,-25506,658,-29596,-2099
C00532=3572,34458,-25715,687,-28499,-2119
C00533=3553,34471,-25698,689,-28504,-2112
C00534=3535,34485,-25681,692,-28509,-2105
C00535=3532,34508,-25654,692,-28518,-2104
C00536=3530,34531,-25626,692,-28526,-2102
C00537=3528,34554,-25598,692,-28535,-2101
C00538=3533,34576,-25572,691,-28543,-2104
C00539=3552,34587,-25558,688,-28547,-2111
C00540=3569,34602,-25540,686,-28553,-2117
C00541=3572,34623,-25514,685,-28561,-2118
C00542=3593,34632,-25503,682,-28564,-2126
C00543=3610,34645,-25487,680,-28570,-2133
C00544=3628,34659,-25471,677,-28575,-2140
C00545=3643,34677,-25448,675,-28582,-2146
C00546=3658,34696,-25425,673,-28589,-2152
C00547=3678,34705,-25414,670,-28593,-2160
C00548=3694,34723,-25392,668,-28600,-2166
C00549=3715,34731,-25382,665,-28603,-2174
C00550=3725,34750,-25358,663,-28610,-2178
C00551=3723,34773,-25331,663,-28619,-2177
C00552=3734,34793,-25307,661,-28626,-2181
C00553=3738,34813,-25283,661,-28634,-2182
C00554=3758,34823,-25271,658,-28638,-2190
C00555=3773,34841,-25248,656,-28645,-2196
C00556=3787,34860,-25225,653,-28652,-2202
C00557=3802,34879,-25202,651,-28659,-2207
C00558=3820,34891,-25187,649,-28664,-2214
C00559=3838,34906,-25169,646,-28669,-2221
C00560=3858,34914,-25160,643,-28673,-2229
C00561=3880,34912,-25161,640,-28672,-2238
C00562=3900,34903,-25172,637,-28669,-2246
C00563=3921,34896,-25180,635,-28667,-2254
C00564=3939,34883,-25196,632,-28662,-2261
C00565=3948,34863,-25219,631,-28655,-2265
C00566=3965,34848,-25237,629,-28650,-2271
C00567=3969,34826,-25264,628,-28642,-2273
C00568=3972,34803,-25292,628,-28633,-2274
C00569=3961,34784,-25316,630,-28626,-2270
C00570=3946,34765,-25339,632,-28618,-2264
C00571=3932,34746,-25361,634,-28611,-2259
C00572=3917,34727,-25384,636,-28604,-2253
C00573=3902,34709,-25407,639,-28597,-2247
C00574=3881,34701,-25417,642,-28594,-2239
C00575=3866,34682,-25440,644,-28587,-2233
C00576=3852,34663,-25463,646,-28579,-2228
C00577=3836,34646,-25484,648,-28573,-2222
C00578=3816,34637,-25495,651,-28569,-2214
C00579=3801,34618,-25518,653,-28562,-2208
C00580=3786,34599,-25541,656,-28555,-2203
C00581=3772,34580,-25564,658,-28548,-2197
C00582=3754,34567,-25580,660,-28542,-2190
C00583=3736,34554,-25597,663,-28537,-2183
C00584=3732,34532,-25623,664,-28529,-2182
C00585=3718,34513,-25646,666,-28522,-2176
C00586=3704,34495,-25669,668,-28515,-2171
C00587=3681,34490,-25674,671,-28513,-2162
C00588=3662,34479,-25688,674,-28508,-2154
C00589=3642,34468,-25701,677,-28504,-2147
C00590=3619,34465,-25706,680,-28502,-2138
C00591=3595,34461,-25710,683,-28501,-2128
C00592=3572,34458,-25715,687,-28499,-2119
C00593=3572,32905,-25506,658,-29596,-2099
C00594=3122,33632,-24629,714,-29861,-1919
C00595=3122,35185,-24838,743,-28764,-1939
C00596=3128,35187,-24836,742,-28765,-1941
C00597=3132,35192,-24830,742,-28767,-1943
C00598=3136,35197,-24824,741,-28769,-1944
C00599=3140,35202,-24818,741,-28770,-1946
C00600=3142,35207,-24811,740,-28772,-1946
C00601=3141,35214,-24804,740,-28775,-1946
C00602=3140,35220,-24797,740,-28777,-1946
C00603=3140,35226,-24789,740,-28779,-1946
C00604=3139,35232,-24782,741,-28782,-1945
C00605=3138,35238,-24775,741,-28784,-1945
C00606=3133,35241,-24770,741,-28785,-1943
C00607=3128,35245,-24766,742,-28786,-1941
C00608=3124,35249,-24761,742,-28788,-1939
C00609=3118,35251,-24759,743,-28788,-1937
C00610=3112,35250,-24760,744,-28788,-1935
C00611=3106,35249,-24761,745,-28787,-1932
C00612=3101,35251,-24759,746,-28788,-1930
C00613=3096,35255,-24754,746,-28789,-1928
C00614=3091,35259,-24750,747,-28791,-1926
C00615=3087,35262,-24746,748,-28792,-1924
C00616=3081,35262,-24746,748,-28792,-1922
C00617=3074,35261,-24747,749,-28791,-1920
C00618=3068,35260,-24748,750,-28791,-1917
C00619=3062,35259,-24750,751,-28791,-1915
C00620=3056,35258,-24751,752,-28790,-1912
C00621=3050,35257,-24752,753,-28790,-1910
C00622=3044,35256,-24753,754,-28789,-1908
C00623=3038,35255,-24754,754,-28789,-1905
C00624=3033,35251,-24760,755,-28787,-1904
C00625=3030,35246,-24766,756,-28785,-1902
C00626=3026,35241,-24772,756,-28783,-1901
C00627=3022,35236,-24778,757,-28781,-1899
C00628=3018,35231,-24784,757,-28780,-1898
C00629=3014,35226,-24790,758,-28778,-1896
C00630=3010,35221,-24796,758,-28776,-1895
C00631=3008,35216,-24803,759,-28774,-1894
C00632=3008,35210,-24810,759,-28772,-1894
C00633=3009,35204,-24817,759,-28769,-1894
C00634=3009,35198,-24825,759,-28767,-1894
C00635=3010,35191,-24832,759,-28765,-1895
C00636=3011,35185,-24840,759,-28762,-1895
C00637=3015,35182,-24844,758,-28761,-1897
C00638=3020,35178,-24848,757,-28760,-1899
C00639=3025,35174,-24853,757,-28759,-1901
C00640=3030,35172,-24856,756,-28758,-1903
C00641=3036,35173,-24855,755,-28758,-1905
C00642=3042,35173,-24854,754,-28758,-1908
C00643=3048,35174,-24852,754,-28759,-1910
C00644=3055,35175,-24851,753,-28759,-1912
C00645=3061,35176,-24850,752,-28760,-1915
C00646=3067,35177,-24849,751,-28760,-1917
C00647=3073,35178,-24848,750,-28761,-1920
C00648=3079,35179,-24847,749,-28761,-1922
C00649=3085,35180,-24845,748,-28761,-1924
C00650=3092,35181,-24844,748,-28762,-1927
C00651=3098,35182,-24843,747,-28762,-1929
C00652=3104,35183,-24842,746,-28763,-1932
C00653=3110,35183,-24841,745,-28763,-1934
C00654=3116,35184,-24839,744,-28764,-1936
C00655=3122,35185,-24838,743,-28764,-1939
C00656=3122,33632,-24629,714,-29861,-1919
C00657=2926,33644,-24618,741,-29863,-1842
C00658=2926,35197,-24827,770,-28766,-1862
C00659=2924,35221,-24797,770,-28775,-1861
C00660=2917,35243,-24771,771,-28782,-1858
C00661=2895,35251,-24761,774,-28785,-1849
C00662=2871,35247,-24766,778,-28784,-1840
C00663=2849,35238,-24778,781,-28780,-1831
C00664=2834,35218,-24802,783,-28772,-1825
C00665=2814,35206,-24817,786,-28767,-1818
C00666=2790,35205,-24819,789,-28767,-1808
C00667=2770,35216,-24805,792,-28770,-1800
C00668=2745,35212,-24810,795,-28769,-1791
C00669=2721,35209,-24815,799,-28767,-1781
C00670=2696,35205,-24819,802,-28765,-1771
C00671=2671,35201,-24824,806,-28764,-1762
C00672=2650,35207,-24817,808,-28766,-1753
C00673=2627,35211,-24812,812,-28767,-1744
C00674=2608,35225,-24796,814,-28771,-1737
C00675=2584,35221,-24801,817,-28770,-1727
C00676=2559,35218,-24805,821,-28768,-1717
C00677=2534,35214,-24810,824,-28767,-1708
C00678=2510,35210,-24815,828,-28765,-1698
C00679=2485,35207,-24819,831,-28763,-1689
C00680=2461,35203,-24824,835,-28761,-1679
C00681=2436,35200,-24829,838,-28760,-1669
C00682=2411,35196,-24833,842,-28758,-1660
C00683=2387,35192,-24838,845,-28756,-1650
C00684=2366,35201,-24828,848,-28759,-1642
C00685=2343,35202,-24826,851,-28760,-1633
C00686=2318,35199,-24831,854,-28758,-1623
C00687=2300,35184,-24850,857,-28752,-1616
C00688=2284,35164,-24874,859,-28744,-1610
C00689=2283,35140,-24903,860,-28736,-1610
C00690=2293,35120,-24926,859,-28728,-1614
C00691=2312,35106,-24944,856,-28723,-1621
C00692=2335,35102,-24948,853,-28722,-1630
C00693=2354,35088,-24964,851,-28717,-1638
C00694=2379,35092,-24960,847,-28719,-1647
C00695=2403,35096,-24955,844,-28721,-1657
C00696=2428,35099,-24950,840,-28722,-1667
C00697=2453,35103,-24946,837,-28724,-1676
C00698=2477,33553,-24732,804,-29823,-1666
C00699=-41004,59868,4099,4900,-34257,16705
C00700=-41004,59868,1099,4900,-34257,16705
C00701=-41004,64596,1380,5213,-31659,16463
C00702=-41004,59868,1099,4900,-34257,16705
C00703=-41004,59868,9099,4900,-34257,16705
C00704=2477,33553,-24732,804,-29823,-1666
C00705=2477,35106,-24941,833,-28726,-1686
C00706=2502,35110,-24936,830,-28728,-1696
C00707=2526,35114,-24932,826,-28729,-1705
C00708=2551,35117,-24927,823,-28731,-1715
C00709=2570,35104,-24943,820,-28726,-1723
C00710=2595,35107,-24939,817,-28728,-1732
C00711=2619,35112,-24933,814,-28730,-1742
C00712=2636,35130,-24911,811,-28737,-1748
C00713=2661,35134,-24906,808,-28738,-1758
C00714=2685,35137,-24901,804,-28740,-1768
C00715=2710,35141,-24897,801,-28742,-1777
C00716=2730,35130,-24909,798,-28738,-1785
C00717=2754,35131,-24908,795,-28739,-1795
C00718=2779,35134,-24904,791,-28740,-1804
C00719=2803,35138,-24899,788,-28742,-1814
C00720=2828,35142,-24894,784,-28744,-1824
C00721=2852,35145,-24890,781,-28745,-1833
C00722=2877,35149,-24885,778,-28747,-1843
C00723=2894,35166,-24864,775,-28754,-1849
C00724=2916,35175,-24853,772,-28757,-1858
C00725=2926,35197,-24827,770,-28766,-1862
C00726=2926,33644,-24618,741,-29863,-1842
C00727=2216,33593,-24687,840,-29834,-1563
C00728=2216,35146,-24896,869,-28737,-1583
C00729=2214,35152,-24889,869,-28739,-1582
C00730=2209,35156,-24884,870,-28740,-1580
C00731=2204,35160,-24880,871,-28742,-1578
C00732=2199,35164,-24875,871,-28743,-1576
C00733=2194,35167,-24870,872,-28744,-1574
C00734=2189,35171,-24866,873,-28746,-1572
C00735=2184,35175,-24861,873,-28747,-1570
C00736=2179,35178,-24858,874,-28748,-1568
C00737=2172,35177,-24859,875,-28748,-1566
C00738=2166,35176,-24860,876,-28747,-1563
C00739=2160,35179,-24857,876,-28748,-1561
C00740=2155,35183,-24853,877,-28750,-1559
C00741=2150,35186,-24848,878,-28751,-1557
C00742=2145,35190,-24844,878,-28752,-1555
C00743=2138,35189,-24845,879,-28752,-1552
C00744=2132,35188,-24847,880,-28751,-1550
C00745=2125,35187,-24848,881,-28751,-1547
C00746=2119,35186,-24849,882,-28750,-1545
C00747=2112,35185,-24850,883,-28750,-1542
C00748=2106,35184,-24852,884,-28749,-1540
C00749=2099,35183,-24853,885,-28749,-1537
C00750=2094,35179,-24857,886,-28747,-1535
C00751=2090,35174,-24864,886,-28745,-1534
C00752=2086,35169,-24870,887,-28743,-1532
C00753=2082,35163,-24877,887,-28741,-1530
C00754=2082,35157,-24885,887,-28739,-1531
C00755=2083,35150,-24893,887,-28737,-1531
C00756=2084,35144,-24900,887,-28734,-1531
C00757=2084,35137,-24908,887,-28732,-1531
C00758=2085,35131,-24916,887,-28729,-1532
C00759=2085,35124,-24924,887,-28727,-1532
C00760=2086,35118,-24932,887,-28725,-1532
C00761=2089,35113,-24938,887,-28723,-1533
C00762=2094,35109,-24943,886,-28721,-1535
C00763=2099,35105,-24947,886,-28720,-1537
C00764=2104,35101,-24952,885,-28719,-1539
C00765=2109,35097,-24957,884,-28717,-1541
C00766=2114,35093,-24961,884,-28716,-1543
C00767=2119,35089,-24966,883,-28714,-1545
C00768=2125,35087,-24968,882,-28714,-1548
C00769=2131,35088,-24967,881,-28714,-1550
C00770=2138,35089,-24965,880,-28715,-1553
C00771=2144,35090,-24964,880,-28715,-1555
C00772=2151,35091,-24963,879,-28716,-1558
C00773=2157,35092,-24962,878,-28716,-1560
C00774=2164,35093,-24961,877,-28717,-1563
C00775=2170,35094,-24959,876,-28717,-1566
C00776=2177,35095,-24958,875,-28717,-1568
C00777=2183,35096,-24957,874,-28718,-1571
C00778=2190,35097,-24956,873,-28718,-1573
C00779=2196,35098,-24954,872,-28719,-1576
C00780=2203,35099,-24953,871,-28719,-1578
C00781=2207,35104,-24947,871,-28721,-1580
C00782=2212,35109,-24941,870,-28723,-1582
C00783=2216,35114,-24934,869,-28725,-1583
C00784=2218,35120,-24927,869,-28727,-1584
C00785=2218,35127,-24920,869,-28730,-1584
C00786=2217,35133,-24912,869,-28732,-1584
C00787=2217,35140,-24904,869,-28734,-1584
C00788=2216,35146,-24896,869,-28737,-1583
C00789=2216,33593,-24687,840,-29834,-1563
C00790=2039,33951,-24256,861,-29964,-1491
C00791=2039,35504,-24465,890,-28867,-1511
C00792=2004,35499,-24471,895,-28865,-1497
C00793=1974,35511,-24457,899,-28869,-1486
C00794=1939,35506,-24464,903,-28866,-1472
C00795=1905,35501,-24470,908,-28864,-1458
C00796=1875,35513,-24456,912,-28868,-1447
C00797=1845,35498,-24474,917,-28862,-1435
C00798=1813,35488,-24488,921,-28858,-1422
C00799=1778,35482,-24494,926,-28855,-1409
C00800=1743,35477,-24501,931,-28853,-1395
C00801=1708,35472,-24508,936,-28850,-1381
C00802=1674,35467,-24514,940,-28848,-1368
C00803=1639,35462,-24521,945,-28846,-1354
C00804=1604,35457,-24528,950,-28843,-1340
C00805=1575,35471,-24510,954,-28848,-1329
C00806=1559,35499,-24478,956,-28858,-1322
C00807=1556,35534,-24435,956,-28871,-1321
C00808=1568,35565,-24397,954,-28883,-1326
C00809=1602,35572,-24388,949,-28886,-1339
C00810=1637,35577,-24382,944,-28888,-1352
C00811=1672,35582,-24375,939,-28891,-1366
C00812=1707,35587,-24368,935,-28893,-1380
C00813=1741,35593,-24362,930,-28896,-1393
C00814=1776,35598,-24355,925,-28898,-1407
C00815=1806,35612,-24338,921,-28904,-1419
C00816=1838,35623,-24323,916,-28908,-1431
C00817=1873,35629,-24317,911,-28911,-1445
C00818=1908,35634,-24310,907,-28913,-1459
C00819=1943,35639,-24303,902,-28916,-1472
C00820=1977,35644,-24297,897,-28918,-1486
C00821=2012,35649,-24290,892,-28920,-1500
C00822=2047,35654,-24283,887,-28923,-1513
C00823=2082,35660,-24277,882,-28925,-1527
C00824=2111,35647,-24291,878,-28921,-1539
C00825=2146,35653,-24284,874,-28924,-1552
C00826=2181,35658,-24278,869,-28926,-1566
C00827=2216,35663,-24271,864,-28929,-1580
C00828=2251,35668,-24264,859,-28931,-1593
C00829=2286,35673,-24258,854,-28933,-1607
C00830=2321,35678,-24251,849,-28936,-1621
C00831=2348,35698,-24227,845,-28943,-1631
C00832=2382,35704,-24219,841,-28946,-1645
C00833=2412,35692,-24233,837,-28942,-1657
C00834=2443,35686,-24240,832,-28940,-1669
C00835=2474,35677,-24250,828,-28938,-1681
C00836=2486,35647,-24286,827,-28927,-1686
C00837=2489,35612,-24329,827,-28914,-1687
C00838=2471,35585,-24362,830,-28903,-1681
C00839=2436,35580,-24369,834,-28901,-1667
C00840=2401,35575,-24375,839,-28898,-1653
C00841=2366,35570,-24382,844,-28896,-1640
C00842=2340,35549,-24407,848,-28888,-1629
C00843=2305,35544,-24414,853,-28886,-1615
C00844=2270,35539,-24421,858,-28883,-1602
C00845=2235,35534,-24427,863,-28881,-1588
C00846=2200,35528,-24434,867,-28878,-1574
C00847=2165,35523,-24441,872,-28876,-1561
C00848=2131,35521,-24443,877,-28875,-1547
C00849=2101,35530,-24433,881,-28878,-1535
C00850=2072,35513,-24454,885,-28871,-1524
C00851=2039,35504,-24465,890,-28867,-1511
C00852=2039,33951,-24256,861,-29964,-1491
C00853=912,33141,-25249,1025,-29648,-1055
C00854=912,34694,-25458,1054,-28551,-1075
C00855=923,34684,-25469,1053,-28548,-1079
C00856=935,34669,-25487,1052,-28543,-1083
C00857=950,34657,-25501,1050,-28538,-1090
C00858=966,34645,-25516,1048,-28534,-1096
C00859=981,34632,-25531,1046,-28530,-1102
C00860=998,34624,-25541,1043,-28527,-1109
C00861=1017,34620,-25545,1041,-28526,-1116
C00862=1028,34605,-25563,1039,-28520,-1121
C00863=1029,34585,-25588,1040,-28513,-1121
C00864=1041,34570,-25606,1038,-28507,-1126
C00865=1056,34558,-25620,1036,-28503,-1132
C00866=1074,34552,-25626,1034,-28501,-1139
C00867=1092,34545,-25635,1031,-28499,-1146
C00868=1100,34528,-25655,1030,-28493,-1149
C00869=1112,34514,-25672,1029,-28488,-1154
C00870=1127,34502,-25687,1027,-28483,-1161
C00871=1145,34497,-25693,1024,-28482,-1168
C00872=1163,34489,-25702,1022,-28479,-1174
C00873=1181,34485,-25706,1020,-28478,-1182
C00874=1198,32924,-25507,988,-29572,-1168
C00875=-41004,59868,4099,4900,-34257,16705
C00876=-41004,59868,1099,4900,-34257,16705
C00877=-41004,64596,1380,5213,-31659,16463
C00878=-41004,59868,1099,4900,-34257,16705
C00879=-41004,59868,9099,4900,-34257,16705
C00880=1198,32924,-25507,988,-29572,-1168
C00881=1198,34477,-25716,1017,-28475,-1188
C00882=1214,34464,-25731,1015,-28471,-1195
C00883=1222,34448,-25751,1014,-28465,-1198
C00884=1223,34427,-25776,1014,-28457,-1199
C00885=1225,34407,-25800,1014,-28450,-1200
C00886=1222,34388,-25824,1015,-28443,-1198
C00887=1207,34374,-25841,1017,-28437,-1193
C00888=1186,34371,-25845,1020,-28436,-1185
C00889=1165,34367,-25849,1023,-28434,-1176
C00890=1144,34364,-25853,1026,-28433,-1168
C00891=1129,34377,-25838,1028,-28437,-1162
C00892=1109,34377,-25838,1031,-28437,-1154
C00893=1093,34389,-25823,1033,-28441,-1148
C00894=1073,34387,-25826,1036,-28440,-1140
C00895=1054,34389,-25824,1038,-28441,-1133
C00896=1038,34402,-25809,1040,-28445,-1126
C00897=1023,34414,-25794,1043,-28450,-1120
C00898=1007,34426,-25779,1045,-28454,-1114
C00899=991,34439,-25765,1047,-28458,-1108
C00900=976,34451,-25750,1049,-28463,-1101
C00901=956,34452,-25749,1051,-28463,-1094
C00902=940,34463,-25735,1053,-28467,-1087
C00903=921,34464,-25735,1056,-28467,-1080
C00904=916,34482,-25713,1056,-28473,-1078
C00905=901,34495,-25698,1058,-28478,-1072
C00906=885,34507,-25683,1060,-28482,-1065
C00907=870,34519,-25669,1062,-28486,-1059
C00908=854,34532,-25654,1064,-28491,-1053
C00909=848,34550,-25632,1065,-28497,-1051
C00910=834,34563,-25616,1067,-28502,-1045
C00911=830,34581,-25594,1067,-28509,-1043
C00912=826,34601,-25571,1067,-28516,-1041
C00913=811,34613,-25556,1069,-28520,-1035
C00914=810,34634,-25531,1069,-28528,-1035
C00915=815,34653,-25508,1068,-28535,-1037
C00916=829,34669,-25488,1066,-28541,-1042
C00917=842,34686,-25468,1064,-28548,-1047
C00918=856,34702,-25448,1062,-28554,-1052
C00919=877,34705,-25445,1059,-28555,-1061
C00920=895,34701,-25449,1057,-28554,-1068
C00921=912,34694,-25458,1054,-28551,-1075
C00922=912,33141,-25249,1025,-29648,-1055
C00923=104,33231,-25149,1136,-29670,-736
C00924=104,34784,-25358,1165,-28573,-756
C00925=98,34765,-25381,1166,-28566,-754
C00926=84,34747,-25402,1168,-28560,-749
C00927=69,34734,-25419,1170,-28554,-743
C00928=48,34731,-25423,1173,-28553,-734
C00929=27,34728,-25427,1176,-28551,-726
C00930=12,34712,-25446,1178,-28545,-721
C00931=-8,34706,-25453,1181,-28543,-713
C00932=-29,34703,-25457,1184,-28542,-705
C00933=-50,34700,-25461,1187,-28540,-696
C00934=-71,34697,-25465,1190,-28539,-688
C00935=-92,34694,-25469,1193,-28537,-680
C00936=-113,34691,-25473,1196,-28536,-672
C00937=-134,34687,-25477,1199,-28534,-663
C00938=-155,34684,-25481,1202,-28533,-655
C00939=-171,34697,-25466,1204,-28537,-649
C00940=-191,34697,-25466,1207,-28537,-641
C00941=-206,34710,-25451,1209,-28542,-635
C00942=-227,34707,-25455,1211,-28540,-627
C00943=-246,34711,-25450,1214,-28541,-619
C00944=-263,34718,-25442,1216,-28544,-612
C00945=-281,34724,-25435,1219,-28546,-605
C00946=-299,34729,-25429,1221,-28547,-598
C00947=-320,34726,-25433,1224,-28546,-590
C00948=-341,34723,-25437,1227,-28544,-582
C00949=-361,34725,-25434,1230,-28545,-574
C00950=-377,34734,-25424,1232,-28548,-567
C00951=-396,34738,-25419,1234,-28549,-560
C00952=-406,34754,-25400,1235,-28555,-556
C00953=-407,34775,-25375,1235,-28563,-555
C00954=-408,34796,-25350,1235,-28570,-555
C00955=-409,34817,-25325,1235,-28578,-554
C00956=-403,34836,-25301,1234,-28585,-556
C00957=-387,34848,-25286,1231,-28590,-562
C00958=-366,34851,-25282,1229,-28591,-571
C00959=-345,34854,-25278,1226,-28593,-579
C00960=-325,34854,-25279,1223,-28593,-587
C00961=-309,34843,-25291,1221,-28589,-593
C00962=-288,34846,-25287,1218,-28591,-601
C00963=-267,34849,-25283,1215,-28592,-610
C00964=-250,34840,-25294,1213,-28589,-616
C00965=-231,34838,-25296,1210,-28588,-624
C00966=-211,34840,-25295,1207,-28589,-632
C00967=-195,34827,-25310,1205,-28585,-638
C00968=-175,34827,-25310,1203,-28585,-646
C00969=-159,34816,-25323,1201,-28581,-652
C00970=-138,34819,-25319,1198,-28583,-661
C00971=-117,34822,-25315,1195,-28584,-669
C00972=-96,34825,-25311,1192,-28586,-677
C00973=-75,34828,-25307,1189,-28587,-685
C00974=-54,34831,-25303,1186,-28588,-694
C00975=-33,34834,-25299,1183,-28590,-702
C00976=-18,34850,-25280,1181,-28596,-707
C00977=1,34856,-25272,1178,-28598,-715
C00978=22,34859,-25268,1175,-28600,-723
C00979=41,34855,-25272,1172,-28599,-731
C00980=57,34843,-25288,1171,-28594,-737
C00981=72,34830,-25303,1169,-28590,-743
C00982=88,34817,-25318,1167,-28585,-749
C00983=103,34805,-25333,1165,-28581,-756
C00984=104,34784,-25358,1165,-28573,-756
C00985=104,33231,-25149,1136,-29670,-736
C00986=-462,32558,-25967,1223,-29415,-520
C00987=-462,34111,-26176,1252,-28318,-540
C00988=-439,34098,-26192,1250,-28313,-549
C00989=-426,34085,-26207,1248,-28309,-555
C00990=-424,34056,-26242,1248,-28298,-556
C00991=-423,34028,-26276,1248,-28288,-556
C00992=-435,34003,-26306,1250,-28279,-552
C00993=-462,33996,-26315,1254,-28275,-541
C00994=-484,33979,-26335,1258,-28269,-533
C00995=-511,33972,-26344,1261,-28266,-522
C00996=-535,33982,-26332,1265,-28269,-513
C00997=-562,33981,-26334,1268,-28269,-502
C00998=-591,33976,-26340,1272,-28267,-491
C00999=-620,33972,-26345,1276,-28265,-480
C01000=-648,33968,-26350,1280,-28263,-469
C01001=-677,33964,-26356,1284,-28261,-457
C01002=-705,33960,-26361,1289,-28259,-446
C01003=-734,33955,-26367,1293,-28257,-435
C01004=-755,33936,-26390,1296,-28250,-427
C01005=-784,33932,-26396,1300,-28248,-416
C01006=-812,33927,-26401,1304,-28246,-405
C01007=-835,33939,-26387,1307,-28250,-396
C01008=-863,33936,-26391,1311,-28248,-385
C01009=-892,33932,-26396,1315,-28246,-373
C01010=-920,33928,-26402,1319,-28244,-362
C01011=-949,33924,-26407,1323,-28243,-351
C01012=-975,33914,-26419,1327,-28239,-341
C01013=-999,33900,-26436,1330,-28233,-332
C01014=-1027,33896,-26442,1334,-28231,-321
C01015=-1056,33891,-26447,1338,-28229,-309
C01016=-1084,33887,-26452,1342,-28227,-298
C01017=-1105,33904,-26432,1345,-28233,-290
C01018=-1126,33921,-26412,1347,-28239,-281
C01019=-1136,33944,-26384,1349,-28248,-277
C01020=-1137,33973,-26350,1348,-28258,-276
C01021=-1138,34001,-26316,1348,-28268,-276
C01022=-1126,34026,-26286,1346,-28278,-280
C01023=-1107,34049,-26258,1343,-28286,-288
C01024=-1078,34053,-26253,1339,-28288,-299
C01025=-1050,34057,-26247,1335,-28290,-310
C01026=-1022,34063,-26240,1331,-28293,-321
C01027=-1000,34081,-26218,1328,-28300,-329
C01028=-973,34083,-26216,1324,-28301,-340
C01029=-949,34072,-26228,1321,-28297,-349
C01030=-921,34076,-26223,1317,-28299,-360
C01031=-892,34081,-26217,1313,-28301,-372
C01032=-864,34085,-26212,1309,-28303,-383
C01033=-843,34104,-26188,1305,-28310,-391
C01034=-814,34109,-26183,1301,-28312,-402
C01035=-786,34113,-26177,1297,-28314,-413
C01036=-757,34117,-26172,1293,-28316,-424
C01037=-733,34110,-26180,1290,-28314,-434
C01038=-707,34105,-26185,1287,-28312,-444
C01039=-684,34095,-26198,1284,-28309,-453
C01040=-655,34099,-26193,1280,-28311,-464
C01041=-627,34103,-26187,1275,-28313,-476
C01042=-598,34107,-26182,1271,-28315,-487
C01043=-570,34112,-26176,1267,-28317,-498
C01044=-541,34116,-26171,1263,-28319,-509
C01045=-513,34120,-26166,1259,-28321,-520
C01046=-490,34107,-26181,1257,-28316,-529
C01047=-462,32558,-25967,1223,-29415,-520
C01048=-41004,59868,4099,4900,-34257,16705
C01049=-41004,59868,1099,4900,-34257,16705
C01050=-41004,64596,1380,5213,-31659,16463
C01051=-41004,59868,1099,4900,-34257,16705
C01052=-41004,59868,9099,4900,-34257,16705
C01053=-462,32558,-25967,1223,-29415,-520
C01054=-462,34111,-26176,1252,-28318,-540
C01055=-462,32558,-25967,1223,-29415,-520
C01056=-999,32726,-25770,1295,-29469,-308
C01057=-999,34279,-25979,1324,-28372,-328
C01058=-1022,34276,-25984,1328,-28371,-318
C01059=-1046,34272,-25988,1331,-28369,-309
C01060=-1069,34269,-25993,1334,-28367,-300
C01061=-1089,34258,-26006,1337,-28363,-292
C01062=-1109,34247,-26020,1340,-28359,-285
C01063=-1132,34243,-26024,1343,-28357,-276
C01064=-1155,34240,-26029,1346,-28355,-267
C01065=-1179,34236,-26033,1350,-28354,-257
C01066=-1195,34218,-26056,1352,-28347,-251
C01067=-1218,34214,-26061,1356,-28345,-242
C01068=-1242,34210,-26065,1359,-28344,-233
C01069=-1265,34207,-26069,1362,-28342,-224
C01070=-1289,34204,-26074,1365,-28340,-215
C01071=-1312,34200,-26078,1369,-28339,-205
C01072=-1335,34197,-26083,1372,-28337,-196
C01073=-1359,34193,-26087,1375,-28336,-187
C01074=-1382,34190,-26092,1379,-28334,-178
C01075=-1406,34186,-26096,1382,-28332,-169
C01076=-1429,34183,-26100,1385,-28331,-160
C01077=-1453,34179,-26105,1388,-28329,-150
C01078=-1476,34176,-26109,1392,-28328,-141
C01079=-1493,34190,-26093,1394,-28332,-134
C01080=-1510,34204,-26076,1396,-28337,-128
C01081=-1532,34206,-26074,1399,-28338,-119
C01082=-1551,34214,-26064,1401,-28341,-111
C01083=-1560,34227,-26049,1403,-28345,-108
C01084=-1576,34242,-26031,1404,-28350,-101
C01085=-1578,34264,-26004,1404,-28359,-100
C01086=-1570,34286,-25978,1403,-28366,-103
C01087=-1554,34305,-25955,1400,-28374,-109
C01088=-1534,34316,-25942,1398,-28378,-117
C01089=-1511,34319,-25937,1394,-28380,-126
C01090=-1488,34323,-25933,1391,-28381,-135
C01091=-1469,34337,-25916,1388,-28387,-142
C01092=-1448,34345,-25905,1385,-28390,-150
C01093=-1425,34348,-25901,1382,-28391,-159
C01094=-1405,34342,-25909,1379,-28389,-167
C01095=-1384,34338,-25913,1376,-28388,-175
C01096=-1361,34341,-25909,1373,-28390,-185
C01097=-1338,34345,-25904,1370,-28391,-194
C01098=-1315,34347,-25901,1367,-28393,-203
C01099=-1297,34334,-25917,1365,-28388,-210
C01100=-1274,34338,-25912,1361,-28390,-219
C01101=-1250,34341,-25908,1358,-28391,-228
C01102=-1234,34359,-25886,1355,-28398,-234
C01103=-1211,34363,-25880,1352,-28400,-243
C01104=-1188,34367,-25876,1349,-28402,-253
C01105=-1165,34368,-25875,1346,-28402,-261
C01106=-1147,34356,-25888,1343,-28398,-269
C01107=-1124,34360,-25884,1340,-28400,-278
C01108=-1100,34363,-25879,1337,-28402,-287
C01109=-1077,34367,-25875,1334,-28403,-296
C01110=-1054,34370,-25870,1330,-28405,-305
C01111=-1030,34374,-25866,1327,-28406,-314
C01112=-1007,34377,-25862,1324,-28408,-323
C01113=-988,34366,-25874,1321,-28404,-331
C01114=-985,34345,-25900,1321,-28396,-333
C01115=-984,34321,-25928,1322,-28388,-333
C01116=-995,34301,-25953,1323,-28380,-329
C01117=-999,34279,-25979,1324,-28372,-328
C01118=-999,32726,-25770,1295,-29469,-308
C01119=-1360,33135,-25283,1339,-29614,-161
C01120=-1360,34688,-25492,1368,-28517,-181
C01121=-1375,34685,-25494,1370,-28516,-175
C01122=-1390,34683,-25497,1372,-28515,-169
C01123=-1405,34681,-25500,1374,-28514,-163
C01124=-1421,34679,-25503,1376,-28513,-157
C01125=-1436,34677,-25506,1378,-28511,-152
C01126=-1451,34674,-25509,1380,-28510,-146
C01127=-1466,34672,-25512,1382,-28509,-140
C01128=-1481,34670,-25515,1384,-28508,-134
C01129=-1496,34668,-25518,1387,-28507,-128
C01130=-1512,34665,-25520,1389,-28506,-122
C01131=-1527,34663,-25523,1391,-28505,-116
C01132=-1542,34661,-25526,1393,-28504,-110
C01133=-1557,34659,-25529,1395,-28503,-104
C01134=-1572,34656,-25532,1397,-28502,-98
C01135=-1583,34666,-25521,1398,-28505,-94
C01136=-1596,34669,-25517,1400,-28506,-88
C01137=-1610,34672,-25514,1402,-28507,-83
C01138=-1621,34681,-25503,1403,-28510,-79
C01139=-1632,34690,-25492,1405,-28513,-74
C01140=-1643,34699,-25481,1406,-28517,-70
C01141=-1654,34708,-25471,1407,-28520,-65
C01142=-1656,34722,-25454,1408,-28525,-64
C01143=-1657,34737,-25435,1407,-28530,-64
C01144=-1657,34753,-25417,1407,-28536,-64
C01145=-1651,34766,-25401,1406,-28541,-66
C01146=-1641,34779,-25385,1405,-28546,-69
C01147=-1642,34794,-25367,1404,-28551,-69
C01148=-1627,34797,-25364,1402,-28553,-75
C01149=-1616,34808,-25350,1401,-28557,-79
C01150=-1604,34817,-25339,1399,-28560,-84
C01151=-1589,34819,-25337,1397,-28561,-90
C01152=-1574,34821,-25334,1395,-28562,-96
C01153=-1559,34823,-25331,1393,-28563,-101
C01154=-1544,34825,-25328,1390,-28564,-107
C01155=-1528,34828,-25325,1388,-28565,-113
C01156=-1513,34830,-25322,1386,-28566,-119
C01157=-1498,34832,-25319,1384,-28568,-125
C01158=-1486,34825,-25327,1383,-28565,-130
C01159=-1474,34819,-25335,1381,-28563,-135
C01160=-1459,34821,-25332,1379,-28564,-141
C01161=-1444,34824,-25329,1377,-28565,-147
C01162=-1429,34826,-25326,1375,-28566,-153
C01163=-1414,34828,-25323,1373,-28567,-158
C01164=-1399,34830,-25320,1371,-28568,-164
C01165=-1383,34833,-25317,1368,-28569,-170
C01166=-1368,34835,-25314,1366,-28570,-176
C01167=-1356,34829,-25321,1365,-28569,-181
C01168=-1344,34822,-25330,1363,-28566,-186
C01169=-1330,34823,-25328,1361,-28567,-192
C01170=-1319,34814,-25339,1360,-28564,-196
C01171=-1314,34801,-25354,1359,-28559,-198
C01172=-1313,34786,-25373,1360,-28553,-199
C01173=-1313,34771,-25391,1360,-28548,-199
C01174=-1312,34756,-25409,1360,-28542,-199
C01175=-1312,34740,-25427,1360,-28537,-200
C01176=-1313,34726,-25445,1360,-28531,-199
C01177=-1323,34713,-25460,1362,-28527,-195
C01178=-1337,34708,-25467,1364,-28524,-190
C01179=-1349,34700,-25477,1366,-28521,-185
C01180=-1360,34688,-25492,1368,-28517,-181
C01181=-1360,33135,-25283,1339,-29614,-161
C01182=5086,32719,-25716,446,-29546,-2692
C01183=5086,34272,-25925,475,-28449,-2712
C01184=5093,34294,-25898,474,-28457,-2715
C01185=5109,34315,-25873,472,-28465,-2721
C01186=5132,34323,-25863,468,-28468,-2730
C01187=5157,34327,-25858,465,-28470,-2740
C01188=5183,34331,-25853,461,-28472,-2750
C01189=5209,34334,-25848,458,-28474,-2760
C01190=5230,34323,-25862,455,-28470,-2769
C01191=5251,34308,-25880,452,-28464,-2777
C01192=5254,34284,-25910,451,-28455,-2778
C01193=5269,34265,-25932,449,-28448,-2784
C01194=5277,34243,-25959,448,-28440,-2787
C01195=5280,34218,-25989,448,-28431,-2789
C01196=5286,34194,-26017,447,-28422,-2791
C01197=5303,34177,-26038,445,-28416,-2798
C01198=5306,34152,-26068,445,-28407,-2799
C01199=5325,34137,-26087,442,-28401,-2806
C01200=5328,34112,-26117,442,-28392,-2808
C01201=5332,34087,-26147,442,-28382,-2809
C01202=5342,34066,-26173,440,-28375,-2813
C01203=5354,34046,-26197,439,-28367,-2818
C01204=5358,34021,-26227,438,-28358,-2820
C01205=5361,33996,-26257,438,-28349,-2821
C01206=5364,33971,-26287,438,-28340,-2822
C01207=5368,33947,-26317,437,-28330,-2824
C01208=5371,33922,-26348,437,-28321,-2825
C01209=5374,33897,-26378,437,-28312,-2827
C01210=5377,33872,-26408,436,-28302,-2828
C01211=5381,33847,-26438,436,-28293,-2829
C01212=5378,33824,-26467,437,-28284,-2828
C01213=5370,33801,-26494,438,-28276,-2825
C01214=5371,33777,-26523,438,-28267,-2826
C01215=5355,33757,-26548,440,-28259,-2820
C01216=5337,33741,-26568,443,-28253,-2812
C01217=5311,33737,-26572,447,-28251,-2802
C01218=5285,33733,-26577,450,-28249,-2792
C01219=5259,33729,-26582,454,-28248,-2782
C01220=5240,33745,-26563,457,-28253,-2775
C01221=5229,33766,-26538,458,-28261,-2770
C01222=5217,33786,-26514,459,-28268,-2766
C01223=5214,32257,-26275,431,-29375,-2744
C01224=-41004,59868,4099,4900,-34257,16705
C01225=-41004,59868,1099,4900,-34257,16705
C01226=-41004,64596,1380,5213,-31659,16463
C01227=-41004,59868,1099,4900,-34257,16705
C01228=-41004,59868,9099,4900,-34257,16705
C01229=5214,32257,-26275,431,-29375,-2744
C01230=5214,33810,-26484,460,-28278,-2764
C01231=5211,33835,-26454,460,-28287,-2763
C01232=5207,33860,-26423,460,-28296,-2762
C01233=5204,33885,-26393,461,-28305,-2760
C01234=5201,33910,-26363,461,-28315,-2759
C01235=5198,33935,-26333,461,-28324,-2758
C01236=5194,33960,-26303,462,-28333,-2756
C01237=5191,33985,-26272,462,-28343,-2755
C01238=5188,34010,-26242,462,-28352,-2753
C01239=5172,34028,-26221,464,-28358,-2747
C01240=5166,34051,-26193,465,-28367,-2745
C01241=5162,34075,-26163,466,-28376,-2743
C01242=5156,34098,-26135,466,-28385,-2741
C01243=5140,34116,-26114,469,-28391,-2734
C01244=5137,34141,-26084,469,-28400,-2733
C01245=5128,34163,-26057,470,-28408,-2729
C01246=5108,34178,-26039,473,-28414,-2721
C01247=5095,34197,-26016,474,-28421,-2717
C01248=5092,34222,-25985,475,-28430,-2715
C01249=5089,34247,-25955,475,-28439,-2714
C01250=5086,34272,-25925,475,-28449,-2712
C01251=5086,32719,-25716,446,-29546,-2692
C01252=5732,33223,-25099,353,-29742,-2943
C01253=5732,34776,-25308,382,-28645,-2963
C01254=5761,34764,-25322,378,-28641,-2975
C01255=5795,34769,-25316,373,-28643,-2988
C01256=5829,34774,-25309,368,-28645,-3002
C01257=5854,34794,-25285,364,-28653,-3011
C01258=5889,34799,-25278,360,-28656,-3025
C01259=5923,34804,-25272,355,-28658,-3038
C01260=5953,34815,-25258,350,-28663,-3050
C01261=5982,34829,-25241,346,-28668,-3061
C01262=6014,34837,-25231,342,-28672,-3074
C01263=6035,34864,-25197,339,-28682,-3082
C01264=6066,34875,-25184,334,-28686,-3094
C01265=6096,34886,-25170,330,-28691,-3106
C01266=6125,34900,-25153,326,-28696,-3117
C01267=6150,34919,-25130,322,-28704,-3127
C01268=6178,34935,-25110,318,-28710,-3137
C01269=6209,34945,-25097,314,-28715,-3150
C01270=6232,34968,-25069,311,-28723,-3159
C01271=6258,34986,-25048,307,-28730,-3169
C01272=6293,34991,-25041,302,-28733,-3182
C01273=6320,35007,-25022,298,-28739,-3193
C01274=6347,35023,-25002,294,-28745,-3204
C01275=6368,35050,-24969,291,-28756,-3212
C01276=6388,35077,-24935,288,-28766,-3220
C01277=6415,35094,-24915,284,-28773,-3230
C01278=6436,35121,-24882,282,-28783,-3238
C01279=6456,35148,-24849,279,-28794,-3246
C01280=6471,35167,-24825,276,-28801,-3252
C01281=6492,35194,-24792,273,-28812,-3260
C01282=6495,35226,-24754,273,-28823,-3261
C01283=6475,35250,-24725,276,-28832,-3253
C01284=6441,35244,-24732,280,-28830,-3240
C01285=6420,35217,-24765,283,-28819,-3232
C01286=6410,35191,-24797,285,-28809,-3228
C01287=6379,35181,-24809,289,-28805,-3216
C01288=6351,35165,-24829,293,-28799,-3205
C01289=6325,35149,-24849,297,-28792,-3194
C01290=6293,35140,-24860,302,-28789,-3182
C01291=6261,35145,-24855,306,-28790,-3170
C01292=6234,35165,-24831,310,-28797,-3159
C01293=6200,35160,-24837,315,-28795,-3145
C01294=6173,35142,-24858,318,-28788,-3135
C01295=6165,35112,-24895,320,-28777,-3132
C01296=6144,35085,-24928,323,-28766,-3124
C01297=6129,35066,-24952,325,-28759,-3118
C01298=6104,35046,-24976,328,-28751,-3108
C01299=6082,35022,-25005,332,-28742,-3100
C01300=6061,34995,-25039,335,-28731,-3092
C01301=6039,34970,-25069,338,-28722,-3083
C01302=6007,34962,-25079,342,-28718,-3070
C01303=5980,34945,-25100,346,-28712,-3060
C01304=5959,34919,-25132,349,-28701,-3052
C01305=5938,34891,-25165,352,-28691,-3044
C01306=5905,34884,-25175,357,-28688,-3031
C01307=5871,34879,-25181,362,-28686,-3018
C01308=5846,34859,-25206,365,-28678,-3008
C01309=5812,34854,-25212,370,-28675,-2995
C01310=5778,34849,-25219,375,-28673,-2981
C01311=5753,34829,-25243,379,-28665,-2972
C01312=5728,34809,-25268,382,-28657,-2962
C01313=5732,34776,-25308,382,-28645,-2963
C01314=5732,33223,-25099,353,-29742,-2943
C01315=7139,33678,-24533,154,-29930,-3493
C01316=7139,35231,-24742,183,-28833,-3513
C01317=7130,35274,-24689,184,-28850,-3510
C01318=7153,35311,-24643,180,-28864,-3518
C01319=7195,35323,-24629,174,-28869,-3535
C01320=7240,35330,-24620,168,-28872,-3553
C01321=7276,35351,-24593,163,-28880,-3567
C01322=7318,35345,-24601,157,-28879,-3583
C01323=7362,35348,-24597,151,-28880,-3600
C01324=7407,35353,-24591,145,-28882,-3618
C01325=7449,35344,-24601,139,-28880,-3634
C01326=7486,35363,-24577,134,-28888,-3649
C01327=7519,35389,-24546,129,-28897,-3662
C01328=7556,35409,-24520,124,-28906,-3676
C01329=7601,35416,-24512,117,-28909,-3694
C01330=7643,35412,-24517,111,-28908,-3710
C01331=7686,35415,-24513,105,-28909,-3727
C01332=7723,35434,-24489,100,-28917,-3741
C01333=7764,35423,-24501,94,-28914,-3757
C01334=7800,35445,-24474,89,-28922,-3771
C01335=7845,35452,-24466,83,-28925,-3789
C01336=7890,35459,-24457,77,-28928,-3807
C01337=7935,35465,-24449,70,-28932,-3824
C01338=7980,35472,-24440,64,-28935,-3842
C01339=8026,35479,-24432,58,-28938,-3860
C01340=8071,35485,-24423,51,-28941,-3878
C01341=8116,35492,-24414,45,-28944,-3895
C01342=8161,35500,-24405,39,-28947,-3913
C01343=8197,35520,-24379,34,-28956,-3927
C01344=8242,35527,-24370,27,-28959,-3944
C01345=8287,35534,-24362,21,-28962,-3962
C01346=8328,35521,-24377,15,-28957,-3978
C01347=8349,35484,-24421,12,-28944,-3986
C01348=8329,35447,-24467,15,-28929,-3978
C01349=8297,35419,-24501,19,-28919,-3966
C01350=8252,35412,-24510,26,-28915,-3948
C01351=8216,35391,-24537,31,-28907,-3934
C01352=8181,35369,-24564,36,-28898,-3921
C01353=8136,35362,-24572,42,-28895,-3903
C01354=8090,35355,-24581,49,-28892,-3885
C01355=8046,35353,-24584,55,-28890,-3868
C01356=8004,35359,-24577,61,-28892,-3851
C01357=7958,35353,-24586,67,-28889,-3834
C01358=7913,35346,-24594,74,-28886,-3816
C01359=7868,35339,-24603,80,-28883,-3798
C01360=7822,35333,-24611,86,-28880,-3780
C01361=7777,35326,-24620,93,-28877,-3763
C01362=7732,35320,-24627,99,-28874,-3745
C01363=7691,35330,-24616,105,-28877,-3729
C01364=7653,35311,-24639,110,-28870,-3714
C01365=7613,35296,-24657,116,-28864,-3698
C01366=7574,35279,-24678,121,-28857,-3683
C01367=7529,35273,-24687,128,-28854,-3666
C01368=7492,35252,-24712,133,-28846,-3651
C01369=7448,35244,-24722,139,-28842,-3634
C01370=7402,35237,-24731,146,-28839,-3616
C01371=7357,35231,-24739,152,-28836,-3598
C01372=7312,35224,-24748,158,-28833,-3581
C01373=7266,35217,-24757,165,-28830,-3563
C01374=7221,35211,-24765,171,-28827,-3545
C01375=7176,35204,-24774,177,-28824,-3528
C01376=7139,35231,-24742,183,-28833,-3513
C01377=7139,33678,-24533,154,-29930,-3493
C01378=7343,34057,-24069,124,-30076,-3572
C01379=7343,35610,-24278,153,-28979,-3592
C01380=7303,35627,-24258,159,-28985,-3577
C01381=7286,35666,-24211,161,-28999,-3570
C01382=7291,35702,-24167,160,-29013,-3572
C01383=7327,35724,-24140,155,-29021,-3586
C01384=7373,35731,-24131,149,-29025,-3604
C01385=7419,35737,-24123,142,-29028,-3622
C01386=7464,35739,-24120,136,-29029,-3640
C01387=7506,35734,-24126,130,-29027,-3656
C01388=7552,35741,-24118,124,-29031,-3674
C01389=7598,35747,-24109,117,-29034,-3692
C01390=7643,35756,-24098,111,-29037,-3710
C01391=7680,35776,-24073,106,-29046,-3724
C01392=7726,35783,-24064,99,-29049,-3742
C01393=7768,35776,-24072,93,-29047,-3759
C01394=7813,35779,-24068,87,-29048,-3777
C01395=7859,35786,-24059,81,-29052,-3795
C01396=7905,35793,-24051,74,-29055,-3812
C01397=7945,35808,-24031,69,-29061,-3828
C01398=7987,35821,-24015,63,-29067,-3845
C01399=8033,34275,-23797,27,-30167,-3842
C01400=-41004,59868,4099,4900,-34257,16705
C01401=-41004,59868,1099,4900,-34257,16705
C01402=-41004,64596,1380,5213,-31659,16463
C01403=-41004,59868,1099,4900,-34257,16705
C01404=-41004,59868,9099,4900,-34257,16705
C01405=8033,34275,-23797,27,-30167,-3842
C01406=8033,35828,-24006,56,-29070,-3862
C01407=8069,35850,-23979,51,-29078,-3877
C01408=8114,35857,-23970,45,-29082,-3895
C01409=8150,35879,-23943,40,-29090,-3909
C01410=8196,35885,-23935,34,-29093,-3927
C01411=8242,35892,-23926,27,-29097,-3944
C01412=8288,35899,-23917,21,-29100,-3962
C01413=8333,35906,-23909,14,-29103,-3980
C01414=8379,35912,-23900,8,-29106,-3998
C01415=8425,35919,-23891,2,-29109,-4016
C01416=8468,35914,-23897,-4,-29108,-4033
C01417=8506,35887,-23930,-10,-29098,-4048
C01418=8535,35854,-23969,-14,-29086,-4059
C01419=8515,35825,-24005,-11,-29075,-4052
C01420=8475,35810,-24023,-5,-29069,-4036
C01421=8429,35804,-24032,1,-29066,-4018
C01422=8383,35797,-24041,7,-29062,-4000
C01423=8337,35790,-24049,14,-29059,-3982
C01424=8300,35771,-24074,19,-29051,-3967
C01425=8255,35761,-24085,25,-29047,-3950
C01426=8209,35755,-24094,32,-29044,-3932
C01427=8164,35748,-24102,38,-29041,-3914
C01428=8118,35741,-24111,45,-29038,-3896
C01429=8072,35734,-24120,51,-29035,-3878
C01430=8026,35728,-24129,57,-29032,-3860
C01431=7980,35721,-24137,64,-29029,-3842
C01432=7948,35692,-24173,68,-29017,-3830
C01433=7908,35677,-24191,74,-29011,-3814
C01434=7862,35670,-24200,80,-29008,-3796
C01435=7816,35663,-24209,87,-29005,-3778
C01436=7771,35661,-24212,93,-29003,-3760
C01437=7728,35667,-24205,99,-29005,-3743
C01438=7692,35645,-24232,104,-28996,-3729
C01439=7650,35655,-24220,110,-29000,-3713
C01440=7606,35646,-24232,116,-28996,-3696
C01441=7568,35627,-24256,122,-28988,-3681
C01442=7522,35620,-24264,128,-28985,-3663
C01443=7476,35613,-24273,135,-28982,-3645
C01444=7430,35606,-24282,141,-28978,-3627
C01445=7389,35617,-24270,147,-28982,-3610
C01446=7343,35610,-24278,153,-28979,-3592
C01447=7343,34057,-24069,124,-30076,-3572
C01448=6592,28659,-30632,251,-28042,-3293
C01449=6592,30212,-30841,280,-26945,-3313
C01450=6547,30208,-30847,287,-26942,-3295
C01451=6501,30201,-30855,294,-26940,-3277
C01452=6472,30167,-30896,298,-26927,-3267
C01453=6428,30157,-30908,305,-26923,-3250
C01454=6382,30151,-30916,311,-26920,-3232
C01455=6336,30144,-30924,318,-26917,-3214
C01456=6304,30115,-30960,323,-26906,-3202
C01457=6273,30085,-30996,328,-26895,-3190
C01458=6227,30079,-31004,335,-26892,-3172
C01459=6186,30089,-30991,341,-26896,-3156
C01460=6145,30075,-31009,347,-26890,-3141
C01461=6110,30051,-31038,352,-26881,-3127
C01462=6075,30027,-31067,357,-26872,-3114
C01463=6031,30017,-31079,364,-26868,-3097
C01464=5991,30002,-31098,370,-26862,-3081
C01465=5955,29978,-31127,375,-26852,-3068
C01466=5922,29952,-31159,381,-26842,-3055
C01467=5885,29930,-31186,386,-26834,-3041
C01468=5844,29940,-31173,392,-26838,-3025
C01469=5798,29934,-31181,399,-26835,-3007
C01470=5752,29927,-31189,406,-26832,-2989
C01471=5706,29921,-31198,413,-26829,-2972
C01472=5670,29899,-31224,418,-26821,-2958
C01473=5633,29877,-31251,424,-26812,-2944
C01474=5587,29870,-31259,430,-26810,-2926
C01475=5550,29849,-31285,436,-26802,-2912
C01476=5515,29826,-31313,442,-26792,-2898
C01477=5502,29788,-31360,444,-26778,-2893
C01478=5508,29746,-31410,443,-26763,-2896
C01479=5546,29732,-31427,438,-26758,-2911
C01480=5587,29721,-31440,432,-26754,-2926
C01481=5623,29743,-31413,426,-26762,-2940
C01482=5669,29750,-31405,419,-26765,-2958
C01483=5716,29756,-31397,412,-26768,-2976
C01484=5754,29775,-31374,406,-26775,-2991
C01485=5790,29798,-31346,401,-26784,-3004
C01486=5835,29807,-31335,394,-26788,-3022
C01487=5881,29813,-31327,387,-26790,-3040
C01488=5918,29835,-31300,382,-26799,-3054
C01489=5954,29857,-31274,376,-26807,-3068
C01490=5994,29873,-31254,370,-26814,-3083
C01491=6037,29885,-31239,364,-26818,-3099
C01492=6083,29892,-31231,357,-26821,-3117
C01493=6129,29899,-31223,350,-26824,-3135
C01494=6175,29905,-31214,343,-26827,-3153
C01495=6212,29927,-31188,338,-26835,-3167
C01496=6258,29934,-31179,331,-26838,-3185
C01497=6303,29942,-31169,324,-26842,-3202
C01498=6340,29962,-31145,319,-26849,-3216
C01499=6386,29969,-31136,312,-26852,-3234
C01500=6432,29976,-31128,305,-26855,-3252
C01501=6471,29994,-31106,299,-26862,-3267
C01502=6505,30019,-31075,294,-26872,-3280
C01503=6551,30026,-31067,287,-26875,-3298
C01504=6590,30043,-31046,281,-26881,-3313
C01505=6625,30067,-31017,276,-26890,-3326
C01506=6642,30104,-30972,273,-26904,-3332
C01507=6630,30142,-30925,275,-26919,-3328
C01508=6613,30178,-30882,277,-26932,-3321
C01509=6592,30212,-30841,280,-26945,-3313
C01510=6592,28659,-30632,251,-28042,-3293
C01511=6930,28177,-31215,204,-27864,-3425
C01512=6930,29730,-31424,233,-26767,-3445
C01513=6997,29749,-31402,223,-26774,-3471
C01514=7063,29717,-31441,213,-26762,-3496
C01515=7082,29648,-31524,210,-26737,-3504
C01516=7102,29580,-31607,208,-26711,-3512
C01517=7113,29506,-31696,206,-26684,-3516
C01518=7124,29433,-31784,205,-26657,-3521
C01519=7163,29375,-31855,200,-26635,-3536
C01520=7197,29315,-31928,195,-26613,-3549
C01521=7208,29242,-32017,194,-26585,-3554
C01522=7219,29168,-32105,192,-26558,-3558
C01523=7238,29107,-32180,190,-26535,-3566
C01524=7220,29040,-32262,193,-26510,-3559
C01525=7192,28975,-32340,197,-26485,-3548
C01526=7182,28906,-32424,199,-26460,-3545
C01527=7176,28837,-32508,200,-26433,-3543
C01528=7187,28763,-32597,199,-26406,-3547
C01529=7167,28697,-32678,202,-26381,-3540
C01530=7132,28634,-32755,208,-26357,-3526
C01531=7107,28568,-32834,212,-26333,-3517
C01532=7096,28499,-32917,214,-26307,-3513
C01533=7107,28426,-33006,213,-26279,-3517
C01534=7105,28361,-33086,214,-26255,-3517
C01535=7144,28303,-33156,208,-26233,-3532
C01536=7163,28234,-33239,205,-26208,-3540
C01537=7183,28166,-33322,203,-26182,-3547
C01538=7234,28115,-33384,195,-26163,-3568
C01539=7274,28057,-33454,190,-26142,-3583
C01540=7284,27984,-33543,188,-26115,-3587
C01541=7276,27914,-33627,190,-26089,-3584
C01542=7248,27859,-33695,195,-26068,-3574
C01543=7176,27831,-33729,206,-26057,-3546
C01544=7130,27885,-33663,212,-26077,-3528
C01545=7085,27940,-33597,219,-26097,-3511
C01546=7074,28013,-33508,220,-26125,-3506
C01547=7063,28086,-33419,221,-26152,-3502
C01548=7017,28140,-33354,228,-26172,-3484
C01549=6990,28204,-33276,232,-26196,-3473
C01550=6946,28260,-33209,238,-26216,-3456
C01551=6917,28323,-33132,242,-26240,-3445
C01552=6906,28396,-33043,243,-26267,-3440
C01553=6896,28469,-32955,244,-26294,-3436
C01554=6905,28538,-32871,243,-26320,-3440
C01555=6913,28607,-32787,241,-26346,-3442
C01556=6941,28672,-32708,237,-26371,-3453
C01557=6962,28739,-32628,233,-26396,-3461
C01558=6977,28806,-32545,230,-26421,-3466
C01559=6985,28875,-32462,229,-26447,-3469
C01560=6994,28945,-32378,227,-26473,-3472
C01561=7015,29011,-32297,224,-26498,-3480
C01562=7029,29079,-32215,221,-26523,-3485
C01563=7057,29143,-32136,217,-26548,-3496
C01564=7046,29217,-32047,218,-26575,-3491
C01565=7001,29271,-31981,224,-26595,-3474
C01566=6973,29335,-31904,228,-26619,-3463
C01567=6949,29401,-31824,231,-26643,-3453
C01568=6954,29468,-31743,230,-26668,-3455
C01569=6926,29532,-31665,234,-26692,-3444
C01570=6910,29602,-31580,236,-26718,-3438
C01571=6906,29665,-31504,236,-26742,-3436
C01572=6930,28177,-31215,204,-27864,-3425
C01573=-41004,59868,4099,4900,-34257,16705
C01574=-41004,59868,1099,4900,-34257,16705
C01575=-41004,64596,1380,5213,-31659,16463
C01576=-41004,59868,1099,4900,-34257,16705
C01577=-41004,59868,9099,4900,-34257,16705
C01578=6930,28177,-31215,204,-27864,-3425
C01579=6930,29730,-31424,233,-26767,-3445
C01580=6930,28177,-31215,204,-27864,-3425
C01581=6049,28093,-31321,335,-27826,-3085
C01582=6049,29646,-31530,364,-26729,-3105
C01583=6032,29666,-31505,366,-26737,-3098
C01584=6019,29690,-31476,368,-26745,-3093
C01585=5991,29697,-31468,372,-26748,-3083
C01586=5960,29692,-31473,377,-26746,-3071
C01587=5929,29688,-31479,381,-26744,-3059
C01588=5898,29683,-31485,386,-26742,-3047
C01589=5867,29679,-31490,390,-26740,-3035
C01590=5845,29659,-31514,394,-26733,-3026
C01591=5820,29646,-31530,398,-26727,-3017
C01592=5792,29635,-31544,402,-26723,-3006
C01593=5761,29631,-31549,406,-26721,-2994
C01594=5734,29619,-31563,410,-26717,-2984
C01595=5708,29606,-31579,414,-26712,-2974
C01596=5682,29594,-31593,418,-26707,-2964
C01597=5655,29582,-31608,422,-26703,-2954
C01598=5629,29569,-31624,426,-26698,-2944
C01599=5610,29546,-31652,429,-26689,-2936
C01600=5591,29523,-31680,432,-26680,-2929
C01601=5594,29495,-31714,432,-26670,-2930
C01602=5616,29476,-31737,429,-26663,-2939
C01603=5636,29457,-31760,426,-26656,-2946
C01604=5641,29429,-31793,425,-26646,-2949
C01605=5666,29413,-31814,422,-26639,-2958
C01606=5690,29396,-31834,418,-26633,-2968
C01607=5703,29372,-31862,417,-26625,-2973
C01608=5722,29353,-31886,414,-26617,-2980
C01609=5740,29332,-31911,411,-26610,-2987
C01610=5747,29305,-31943,411,-26600,-2990
C01611=5750,29277,-31978,410,-26589,-2992
C01612=5754,29249,-32012,410,-26579,-2993
C01613=5780,29236,-32027,406,-26574,-3003
C01614=5811,29241,-32022,402,-26576,-3015
C01615=5837,29254,-32006,398,-26581,-3025
C01616=5864,29266,-31990,394,-26586,-3035
C01617=5883,29289,-31962,391,-26595,-3043
C01618=5903,29313,-31934,387,-26604,-3050
C01619=5930,29324,-31920,383,-26608,-3061
C01620=5955,29337,-31904,380,-26613,-3070
C01621=5981,29350,-31889,376,-26618,-3080
C01622=6001,29373,-31860,372,-26627,-3088
C01623=6009,29399,-31829,371,-26636,-3091
C01624=6024,29423,-31800,369,-26646,-3097
C01625=6021,29451,-31766,369,-26656,-3095
C01626=6009,29475,-31737,371,-26665,-3091
C01627=5981,29480,-31731,375,-26667,-3080
C01628=5950,29476,-31736,379,-26665,-3068
C01629=5918,29471,-31742,384,-26663,-3055
C01630=5906,29489,-31720,386,-26669,-3051
C01631=5902,29517,-31686,386,-26680,-3049
C01632=5907,29544,-31654,385,-26690,-3051
C01633=5933,29556,-31639,381,-26695,-3061
C01634=5965,29561,-31633,377,-26697,-3073
C01635=5990,29547,-31650,373,-26692,-3083
C01636=6003,29524,-31678,371,-26683,-3088
C01637=6032,29521,-31681,367,-26682,-3099
C01638=6057,29534,-31665,363,-26687,-3109
C01639=6061,29561,-31632,362,-26697,-3110
C01640=6057,29589,-31598,363,-26708,-3108
C01641=6053,29618,-31564,363,-26719,-3107
C01642=6049,29646,-31530,364,-26729,-3105
C01643=6049,28093,-31321,335,-27826,-3085
C01644=5009,27951,-31496,489,-27766,-2684
C01645=5009,29504,-31705,518,-26669,-2704
C01646=5010,29498,-31712,518,-26667,-2705
C01647=5011,29492,-31720,518,-26665,-2705
C01648=5012,29486,-31727,518,-26662,-2705
C01649=5012,29480,-31734,518,-26660,-2706
C01650=5013,29474,-31742,518,-26658,-2706
C01651=5014,29468,-31749,518,-26655,-2706
C01652=5014,29461,-31756,518,-26653,-2707
C01653=5015,29455,-31764,518,-26651,-2707
C01654=5016,29449,-31771,518,-26649,-2707
C01655=5017,29443,-31779,518,-26646,-2708
C01656=5017,29437,-31786,518,-26644,-2708
C01657=5018,29431,-31793,518,-26642,-2708
C01658=5019,29425,-31801,518,-26640,-2709
C01659=5015,29420,-31807,518,-26638,-2707
C01660=5011,29415,-31813,519,-26636,-2706
C01661=5007,29410,-31819,520,-26634,-2704
C01662=5002,29405,-31825,520,-26632,-2702
C01663=4998,29400,-31831,521,-26630,-2701
C01664=4994,29395,-31837,522,-26628,-2699
C01665=4990,29390,-31843,522,-26626,-2697
C01666=4985,29386,-31848,523,-26625,-2696
C01667=4978,29385,-31849,524,-26625,-2693
C01668=4971,29384,-31850,525,-26624,-2690
C01669=4964,29383,-31851,526,-26624,-2688
C01670=4958,29382,-31853,527,-26623,-2685
C01671=4951,29381,-31854,528,-26623,-2683
C01672=4946,29385,-31849,529,-26624,-2681
C01673=4941,29389,-31845,530,-26626,-2678
C01674=4935,29392,-31841,530,-26627,-2676
C01675=4930,29396,-31836,531,-26628,-2674
C01676=4925,29399,-31832,532,-26630,-2672
C01677=4919,29403,-31828,533,-26631,-2670
C01678=4914,29407,-31823,533,-26632,-2668
C01679=4911,29411,-31817,534,-26634,-2667
C01680=4910,29417,-31810,534,-26636,-2667
C01681=4910,29424,-31803,534,-26638,-2666
C01682=4909,29430,-31795,534,-26641,-2666
C01683=4908,29436,-31788,534,-26643,-2666
C01684=4907,29442,-31781,534,-26645,-2665
C01685=4907,29448,-31773,534,-26647,-2665
C01686=4906,29454,-31766,534,-26650,-2665
C01687=4907,29460,-31759,534,-26652,-2665
C01688=4912,29465,-31753,533,-26654,-2667
C01689=4916,29470,-31747,533,-26656,-2669
C01690=4920,29475,-31741,532,-26657,-2670
C01691=4924,29480,-31735,531,-26659,-2672
C01692=4929,29485,-31729,531,-26661,-2673
C01693=4933,29490,-31723,530,-26663,-2675
C01694=4937,29495,-31717,529,-26665,-2677
C01695=4944,29496,-31715,528,-26666,-2679
C01696=4950,29497,-31714,527,-26666,-2682
C01697=4957,29498,-31712,526,-26666,-2684
C01698=4964,29499,-31711,525,-26667,-2687
C01699=4970,29500,-31710,524,-26667,-2689
C01700=4977,29501,-31709,523,-26668,-2692
C01701=4984,29502,-31708,522,-26668,-2695
C01702=4991,29503,-31706,521,-26668,-2697
C01703=4997,29504,-31705,520,-26669,-2700
C01704=5004,29505,-31704,519,-26669,-2702
C01705=5009,29504,-31705,518,-26669,-2704
C01706=5009,27951,-31496,489,-27766,-2684
C01707=4803,28007,-31429,520,-27785,-2604
C01708=4803,29560,-31638,549,-26688,-2624
C01709=4787,29535,-31668,551,-26679,-2618
C01710=4770,29520,-31687,554,-26673,-2612
C01711=4747,29501,-31710,557,-26666,-2603
C01712=4715,29496,-31716,562,-26664,-2591
C01713=4683,29492,-31721,567,-26662,-2578
C01714=4658,29509,-31700,570,-26668,-2569
C01715=4633,29526,-31680,574,-26675,-2559
C01716=4608,29543,-31659,577,-26681,-2549
C01717=4579,29548,-31653,582,-26683,-2538
C01718=4555,29566,-31632,585,-26689,-2528
C01719=4530,29583,-31611,589,-26695,-2519
C01720=4505,29600,-31590,592,-26701,-2509
C01721=4480,29617,-31569,596,-26708,-2499
C01722=4455,29635,-31549,599,-26714,-2490
C01723=4426,29640,-31543,603,-26715,-2478
C01724=4399,29649,-31532,607,-26719,-2468
C01725=4369,29650,-31531,612,-26719,-2456
C01726=4341,29657,-31522,616,-26721,-2445
C01727=4327,29679,-31496,618,-26729,-2440
C01728=4303,29696,-31475,621,-26735,-2430
C01729=4274,29701,-31469,625,-26737,-2419
C01730=4249,29718,-31448,629,-26743,-2410
C01731=4224,29736,-31427,632,-26750,-2400
C01732=4196,29741,-31421,637,-26751,-2389
C01733=4168,29748,-31413,641,-26754,-2378
C01734=4138,29751,-31409,645,-26755,-2367
C01735=4114,29768,-31389,648,-26761,-2357
C01736=4089,29785,-31368,652,-26767,-2347
C01737=4085,29814,-31333,652,-26778,-2346
C01738=4082,29843,-31298,652,-26788,-2344
C01739=4096,29868,-31267,650,-26798,-2349
C01740=4117,29889,-31242,647,-26806,-2358
C01741=4149,29894,-31236,642,-26808,-2370
C01742=4178,29889,-31242,638,-26806,-2381
C01743=4207,29886,-31246,634,-26805,-2392
C01744=4235,29879,-31254,630,-26803,-2403
C01745=4263,29874,-31260,625,-26801,-2414
C01746=4291,29865,-31271,622,-26798,-2425
C01747=4317,29852,-31286,618,-26794,-2435
C01748=4349,28304,-31071,584,-27893,-2427
C01749=-41004,59868,4099,4900,-34257,16705
C01750=-41004,59868,1099,4900,-34257,16705
C01751=-41004,64596,1380,5213,-31659,16463
C01752=-41004,59868,1099,4900,-34257,16705
C01753=-41004,59868,9099,4900,-34257,16705
C01754=4349,28304,-31071,584,-27893,-2427
C01755=4349,29857,-31280,613,-26796,-2447
C01756=4378,29854,-31284,609,-26795,-2459
C01757=4403,29836,-31305,605,-26788,-2468
C01758=4428,29819,-31326,602,-26782,-2478
C01759=4452,29802,-31346,598,-26776,-2488
C01760=4480,29793,-31357,594,-26773,-2498
C01761=4510,29792,-31358,590,-26773,-2510
C01762=4538,29785,-31367,586,-26770,-2521
C01763=4567,29782,-31370,582,-26769,-2532
C01764=4592,29764,-31391,578,-26763,-2542
C01765=4617,29747,-31412,575,-26757,-2552
C01766=4642,29730,-31433,571,-26750,-2561
C01767=4667,29712,-31454,567,-26744,-2571
C01768=4692,29695,-31474,564,-26738,-2581
C01769=4704,29671,-31503,562,-26729,-2586
C01770=4719,29649,-31531,560,-26721,-2592
C01771=4743,29632,-31550,557,-26715,-2601
C01772=4771,29625,-31559,553,-26712,-2612
C01773=4796,29618,-31568,549,-26710,-2621
C01774=4799,29589,-31603,549,-26699,-2623
C01775=4803,29560,-31638,549,-26688,-2624
C01776=4803,28007,-31429,520,-27785,-2604
C01777=4707,27787,-31696,535,-27703,-2569
C01778=4707,29340,-31905,564,-26606,-2589
C01779=4740,29332,-31914,560,-26603,-2601
C01780=4769,29312,-31938,556,-26596,-2613
C01781=4780,29282,-31974,554,-26585,-2617
C01782=4765,29253,-32010,557,-26574,-2612
C01783=4753,29223,-32046,559,-26563,-2607
C01784=4717,29215,-32056,564,-26560,-2593
C01785=4680,29210,-32062,570,-26557,-2579
C01786=4643,29205,-32069,575,-26555,-2565
C01787=4611,29217,-32054,580,-26559,-2552
C01788=4574,29211,-32061,585,-26557,-2538
C01789=4537,29206,-32068,591,-26555,-2524
C01790=4503,29211,-32062,596,-26556,-2511
C01791=4469,29212,-32060,601,-26557,-2497
C01792=4434,29214,-32058,606,-26557,-2484
C01793=4401,29222,-32049,611,-26560,-2471
C01794=4372,29242,-32025,615,-26567,-2460
C01795=4343,29260,-32002,619,-26574,-2448
C01796=4306,29257,-32006,624,-26572,-2434
C01797=4274,29267,-31994,629,-26576,-2422
C01798=4245,29285,-31973,633,-26582,-2410
C01799=4212,29293,-31963,638,-26585,-2398
C01800=4183,29313,-31939,642,-26592,-2386
C01801=4149,29315,-31937,647,-26593,-2373
C01802=4112,29310,-31943,653,-26591,-2359
C01803=4081,29324,-31926,657,-26596,-2347
C01804=4062,29349,-31896,660,-26605,-2339
C01805=4034,29365,-31877,664,-26610,-2328
C01806=4002,29377,-31863,668,-26615,-2316
C01807=3965,29371,-31869,674,-26612,-2302
C01808=3928,29366,-31876,679,-26610,-2288
C01809=3897,29377,-31863,684,-26614,-2275
C01810=3868,29397,-31839,688,-26621,-2264
C01811=3854,29425,-31805,690,-26631,-2259
C01812=3854,29458,-31765,689,-26644,-2258
C01813=3884,29475,-31744,685,-26650,-2270
C01814=3912,29496,-31719,681,-26658,-2280
C01815=3949,29501,-31712,675,-26661,-2295
C01816=3983,29498,-31716,670,-26660,-2308
C01817=4017,29495,-31720,665,-26659,-2321
C01818=4052,29495,-31720,660,-26659,-2335
C01819=4085,29488,-31728,655,-26657,-2347
C01820=4122,29493,-31721,650,-26659,-2362
C01821=4154,29484,-31733,645,-26655,-2374
C01822=4187,29476,-31742,640,-26653,-2387
C01823=4219,29468,-31751,635,-26650,-2400
C01824=4248,29448,-31775,631,-26643,-2411
C01825=4279,29433,-31793,627,-26638,-2423
C01826=4310,29420,-31809,623,-26633,-2435
C01827=4341,29409,-31822,618,-26629,-2447
C01828=4373,29397,-31837,613,-26625,-2459
C01829=4404,29385,-31851,609,-26621,-2471
C01830=4441,29390,-31844,603,-26623,-2486
C01831=4478,29396,-31838,598,-26625,-2500
C01832=4510,29386,-31849,593,-26622,-2512
C01833=4547,29389,-31846,588,-26623,-2526
C01834=4578,29377,-31860,583,-26619,-2539
C01835=4609,29363,-31877,579,-26614,-2551
C01836=4638,29343,-31901,575,-26607,-2562
C01837=4673,29341,-31903,570,-26606,-2575
C01838=4707,29340,-31905,564,-26606,-2589
C01839=4707,27787,-31696,535,-27703,-2569
C01840=4620,27412,-32150,551,-27563,-2537
C01841=4620,28965,-32359,580,-26466,-2557
C01842=4641,28951,-32376,577,-26461,-2565
C01843=4665,28943,-32385,574,-26458,-2574
C01844=4688,28934,-32397,571,-26455,-2583
C01845=4713,28932,-32399,567,-26454,-2593
C01846=4735,28920,-32413,564,-26450,-2602
C01847=4750,28910,-32425,562,-26446,-2608
C01848=4768,28894,-32445,559,-26440,-2615
C01849=4789,28879,-32463,556,-26435,-2623
C01850=4793,28855,-32492,556,-26426,-2624
C01851=4796,28831,-32521,555,-26417,-2626
C01852=4799,28806,-32551,555,-26408,-2627
C01853=4801,28782,-32580,555,-26399,-2628
C01854=4785,28761,-32605,558,-26391,-2622
C01855=4781,28738,-32633,558,-26383,-2620
C01856=4760,28725,-32649,562,-26377,-2612
C01857=4733,28721,-32654,566,-26376,-2602
C01858=4709,28711,-32667,569,-26372,-2593
C01859=4687,28698,-32682,573,-26367,-2585
C01860=4668,28681,-32702,576,-26361,-2577
C01861=4651,28661,-32727,578,-26353,-2571
C01862=4625,28656,-32733,582,-26351,-2561
C01863=4603,28642,-32750,586,-26346,-2552
C01864=4579,28633,-32761,589,-26342,-2543
C01865=4552,28629,-32766,593,-26340,-2533
C01866=4525,28625,-32771,597,-26339,-2522
C01867=4498,28621,-32775,602,-26337,-2512
C01868=4470,28617,-32780,606,-26336,-2501
C01869=4449,28632,-32763,609,-26341,-2493
C01870=4427,28644,-32748,612,-26345,-2485
C01871=4400,28640,-32753,616,-26344,-2474
C01872=4378,28651,-32740,619,-26348,-2465
C01873=4353,28653,-32737,623,-26348,-2456
C01874=4330,28663,-32725,626,-26352,-2447
C01875=4303,28659,-32730,630,-26350,-2437
C01876=4276,28655,-32735,634,-26349,-2426
C01877=4252,28662,-32727,638,-26351,-2417
C01878=4243,28683,-32701,639,-26359,-2413
C01879=4223,28698,-32683,642,-26364,-2405
C01880=4213,28719,-32658,643,-26372,-2402
C01881=4200,28738,-32635,645,-26379,-2396
C01882=4199,28762,-32606,645,-26388,-2396
C01883=4217,28782,-32582,642,-26395,-2403
C01884=4234,28802,-32557,639,-26403,-2409
C01885=4246,28823,-32532,637,-26411,-2414
C01886=4261,28835,-32517,635,-26415,-2420
C01887=4286,28844,-32507,631,-26419,-2429
C01888=4306,28858,-32489,628,-26424,-2437
C01889=4327,28873,-32471,625,-26430,-2445
C01890=4344,28893,-32447,622,-26437,-2451
C01891=4362,28913,-32422,619,-26445,-2458
C01892=4387,28920,-32415,615,-26447,-2468
C01893=4409,28932,-32400,612,-26452,-2476
C01894=4432,28943,-32387,609,-26456,-2485
C01895=4459,28946,-32382,605,-26458,-2495
C01896=4486,28950,-32377,600,-26460,-2506
C01897=4513,28954,-32372,596,-26461,-2516
C01898=4541,28958,-32367,592,-26463,-2526
C01899=4568,28962,-32363,588,-26464,-2537
C01900=4595,28966,-32358,584,-26466,-2547
C01901=4620,28965,-32359,580,-26466,-2557
C01902=4620,27412,-32150,551,-27563,-2537
C01903=3348,27222,-32384,742,-27484,-2048
C01904=3348,28775,-32593,771,-26387,-2068
C01905=3356,28750,-32623,770,-26378,-2071
C01906=3345,28724,-32654,772,-26368,-2067
C01907=3338,28698,-32686,773,-26358,-2064
C01908=3314,28682,-32705,777,-26352,-2055
C01909=3291,28663,-32729,780,-26345,-2046
C01910=3260,28658,-32734,785,-26343,-2034
C01911=3238,28638,-32758,789,-26336,-2026
C01912=3212,28626,-32774,793,-26331,-2016
C01913=3184,28614,-32788,797,-26326,-2005
C01914=3153,28610,-32793,801,-26324,-1993
C01915=3122,28605,-32799,806,-26322,-1981
C01916=3091,28601,-32804,811,-26321,-1969
C01917=3059,28596,-32810,816,-26319,-1957
C01918=3034,28609,-32794,819,-26323,-1947
C01919=3003,28605,-32800,824,-26321,-1935
C01920=2972,28600,-32805,829,-26320,-1923
C01921=2947,28614,-32789,832,-26325,-1914
C01922=2923,28631,-32768,835,-26331,-1904
C01923=2899,28648,-32748,839,-26337,-1895
C01924=2875,27111,-32519,813,-27440,-1866
C01925=-41004,59868,4099,4900,-34257,16705
C01926=-41004,59868,1099,4900,-34257,16705
C01927=-41004,64596,1380,5213,-31659,16463
C01928=-41004,59868,1099,4900,-34257,16705
C01929=-41004,59868,9099,4900,-34257,16705
C01930=2875,27111,-32519,813,-27440,-1866
C01931=2875,28664,-32728,842,-26343,-1886
C01932=2851,28681,-32708,845,-26349,-1876
C01933=2828,28698,-32687,849,-26355,-1867
C01934=2811,28719,-32663,851,-26362,-1861
C01935=2792,28738,-32639,854,-26370,-1853
C01936=2788,28766,-32606,854,-26380,-1852
C01937=2786,28794,-32572,854,-26390,-1850
C01938=2784,28822,-32537,854,-26401,-1849
C01939=2781,28851,-32503,854,-26411,-1848
C01940=2797,28875,-32474,851,-26420,-1854
C01941=2795,28903,-32440,851,-26430,-1853
C01942=2800,28929,-32408,850,-26440,-1855
C01943=2808,28955,-32377,849,-26450,-1858
C01944=2834,28968,-32361,845,-26455,-1868
C01945=2854,28991,-32333,842,-26463,-1875
C01946=2874,29014,-32305,839,-26472,-1883
C01947=2904,29020,-32298,834,-26475,-1894
C01948=2927,29039,-32275,830,-26482,-1903
C01949=2958,29044,-32269,826,-26484,-1915
C01950=2989,29049,-32263,821,-26486,-1927
C01951=3020,29053,-32257,817,-26488,-1939
C01952=3047,29047,-32264,813,-26486,-1949
C01953=3075,29043,-32270,809,-26484,-1960
C01954=3099,29026,-32290,805,-26478,-1970
C01955=3113,29004,-32316,803,-26470,-1975
C01956=3133,28985,-32339,801,-26463,-1983
C01957=3136,28957,-32373,800,-26453,-1984
C01958=3139,28929,-32407,800,-26442,-1986
C01959=3137,28901,-32440,801,-26432,-1985
C01960=3117,28878,-32469,804,-26424,-1978
C01961=3109,28852,-32500,805,-26414,-1975
C01962=3120,28829,-32529,804,-26405,-1979
C01963=3144,28812,-32549,801,-26399,-1988
C01964=3173,28811,-32550,796,-26399,-2000
C01965=3204,28815,-32544,792,-26401,-2012
C01966=3235,28820,-32539,787,-26403,-2024
C01967=3266,28824,-32533,782,-26405,-2036
C01968=3297,28826,-32531,778,-26406,-2047
C01969=3323,28816,-32543,774,-26402,-2057
C01970=3333,28797,-32567,773,-26395,-2062
C01971=3348,28775,-32593,771,-26387,-2068
C01972=3348,27222,-32384,742,-27484,-2048
C01973=3055,28166,-31243,775,-27832,-1928
C01974=3055,29719,-31452,804,-26735,-1948
C01975=3030,29716,-31456,808,-26733,-1938
C01976=3010,29730,-31440,811,-26738,-1930
C01977=2991,29744,-31423,814,-26743,-1923
C01978=2984,29764,-31398,815,-26751,-1920
C01979=2970,29781,-31378,816,-26757,-1914
C01980=2957,29798,-31357,818,-26763,-1909
C01981=2949,29818,-31333,819,-26770,-1906
C01982=2946,29841,-31305,819,-26779,-1905
C01983=2944,29865,-31277,819,-26788,-1904
C01984=2928,29880,-31258,821,-26793,-1897
C01985=2921,29901,-31233,822,-26801,-1894
C01986=2904,29916,-31215,825,-26806,-1888
C01987=2894,29935,-31192,826,-26813,-1884
C01988=2882,29953,-31170,827,-26820,-1879
C01989=2867,29969,-31151,829,-26826,-1873
C01990=2861,29990,-31125,830,-26834,-1871
C01991=2853,30010,-31101,831,-26841,-1867
C01992=2840,30027,-31080,833,-26847,-1862
C01993=2826,30044,-31060,835,-26853,-1857
C01994=2819,30065,-31035,836,-26861,-1854
C01995=2800,30079,-31018,838,-26866,-1846
C01996=2793,30099,-30994,839,-26873,-1843
C01997=2778,30116,-30974,841,-26879,-1838
C01998=2776,30139,-30946,841,-26888,-1837
C01999=2778,30162,-30918,841,-26896,-1837
C02000=2796,30178,-30899,838,-26902,-1844
C02001=2817,30189,-30885,835,-26907,-1852
C02002=2833,30208,-30862,832,-26914,-1858
C02003=2854,30219,-30849,829,-26918,-1866
C02004=2879,30223,-30844,825,-26920,-1876
C02005=2904,30226,-30839,821,-26921,-1886
C02006=2925,30218,-30850,818,-26918,-1894
C02007=2932,30197,-30875,818,-26911,-1897
C02008=2951,30183,-30892,815,-26906,-1904
C02009=2959,30163,-30916,814,-26898,-1907
C02010=2973,30146,-30937,812,-26892,-1913
C02011=2986,30129,-30957,810,-26886,-1918
C02012=2994,30109,-30981,809,-26878,-1921
C02013=2996,30085,-31010,809,-26870,-1922
C02014=2998,30062,-31038,809,-26861,-1923
C02015=3015,30047,-31056,807,-26856,-1930
C02016=3034,30033,-31073,804,-26851,-1937
C02017=3039,30011,-31099,804,-26843,-1939
C02018=3049,29992,-31122,803,-26836,-1943
C02019=3060,29974,-31144,801,-26829,-1948
C02020=3075,29958,-31164,799,-26823,-1954
C02021=3083,29937,-31188,798,-26816,-1957
C02022=3102,29923,-31205,796,-26811,-1965
C02023=3120,29909,-31223,793,-26805,-1972
C02024=3129,29889,-31246,792,-26798,-1975
C02025=3142,29871,-31268,790,-26792,-1980
C02026=3144,29848,-31296,790,-26783,-1981
C02027=3146,29825,-31324,790,-26775,-1982
C02028=3148,29802,-31352,790,-26766,-1983
C02029=3147,29779,-31379,790,-26758,-1983
C02030=3134,29759,-31403,792,-26750,-1978
C02031=3123,29746,-31420,794,-26745,-1974
C02032=3104,29730,-31439,797,-26739,-1967
C02033=3081,29723,-31447,801,-26736,-1958
C02034=3055,29719,-31452,804,-26735,-1948
C02035=3055,28166,-31243,775,-27832,-1928
//INST
///DATE 2026/04/30 10:00
///ATTR SC,RW
///GROUP1 RB1
NOP
MOVJ C00000 VJ=0.78
MOVJ C00001 VJ=0.78
MOVL C00002 V=11.7
TIMER T=2.00
MOVL C00003 V=11.7
MOVJ C00004 VJ=0.78
MOVJ C00005 VJ=0.78
MOVJ C00006 VJ=0.78
MOVL C00007 V=8.0
MOVL C00008 V=8.0
MOVL C00009 V=8.0
MOVL C00010 V=8.0
MOVL C00011 V=8.0
MOVL C00012 V=8.0
MOVL C00013 V=8.0
MOVL C00014 V=8.0
MOVL C00015 V=8.0
MOVL C00016 V=8.0
MOVL C00017 V=8.0
MOVL C00018 V=8.0
MOVL C00019 V=8.0
MOVL C00020 V=8.0
MOVL C00021 V=8.0
MOVL C00022 V=8.0
MOVL C00023 V=8.0
MOVL C00024 V=8.0
MOVL C00025 V=8.0
MOVL C00026 V=8.0
MOVL C00027 V=8.0
MOVL C00028 V=8.0
MOVL C00029 V=8.0
MOVL C00030 V=8.0
MOVL C00031 V=8.0
MOVL C00032 V=8.0
MOVL C00033 V=8.0
MOVL C00034 V=8.0
MOVL C00035 V=8.0
MOVL C00036 V=8.0
MOVL C00037 V=8.0
MOVL C00038 V=8.0
MOVL C00039 V=8.0
MOVL C00040 V=8.0
MOVL C00041 V=8.0
MOVL C00042 V=8.0
MOVL C00043 V=8.0
MOVL C00044 V=8.0
MOVL C00045 V=8.0
MOVL C00046 V=8.0
MOVL C00047 V=8.0
MOVL C00048 V=8.0
MOVL C00049 V=8.0
MOVL C00050 V=8.0
MOVL C00051 V=8.0
MOVL C00052 V=8.0
MOVL C00053 V=8.0
MOVL C00054 V=8.0
MOVL C00055 V=8.0
MOVL C00056 V=8.0
MOVL C00057 V=8.0
MOVL C00058 V=8.0
MOVL C00059 V=8.0
MOVL C00060 V=8.0
MOVL C00061 V=8.0
MOVL C00062 V=8.0
MOVL C00063 V=8.0
MOVL C00064 V=8.0
MOVL C00065 V=8.0
MOVL C00066 V=8.0
MOVL C00067 V=8.0
MOVL C00068 V=8.0
MOVJ C00069 VJ=0.78
MOVL C00070 V=8.0
MOVL C00071 V=8.0
MOVL C00072 V=8.0
MOVL C00073 V=8.0
MOVL C00074 V=8.0
MOVL C00075 V=8.0
MOVL C00076 V=8.0
MOVL C00077 V=8.0
MOVL C00078 V=8.0
MOVL C00079 V=8.0
MOVL C00080 V=8.0
MOVL C00081 V=8.0
MOVL C00082 V=8.0
MOVL C00083 V=8.0
MOVL C00084 V=8.0
MOVL C00085 V=8.0
MOVL C00086 V=8.0
MOVL C00087 V=8.0
MOVL C00088 V=8.0
MOVL C00089 V=8.0
MOVL C00090 V=8.0
MOVL C00091 V=8.0
MOVL C00092 V=8.0
MOVL C00093 V=8.0
MOVL C00094 V=8.0
MOVL C00095 V=8.0
MOVL C00096 V=8.0
MOVL C00097 V=8.0
MOVL C00098 V=8.0
MOVL C00099 V=8.0
MOVL C00100 V=8.0
MOVL C00101 V=8.0
MOVL C00102 V=8.0
MOVL C00103 V=8.0
MOVL C00104 V=8.0
MOVL C00105 V=8.0
MOVL C00106 V=8.0
MOVL C00107 V=8.0
MOVL C00108 V=8.0
MOVL C00109 V=8.0
MOVL C00110 V=8.0
MOVL C00111 V=8.0
MOVL C00112 V=8.0
MOVL C00113 V=8.0
MOVL C00114 V=8.0
MOVL C00115 V=8.0
MOVL C00116 V=8.0
MOVL C00117 V=8.0
MOVL C00118 V=8.0
MOVL C00119 V=8.0
MOVL C00120 V=8.0
MOVL C00121 V=8.0
MOVL C00122 V=8.0
MOVL C00123 V=8.0
MOVL C00124 V=8.0
MOVL C00125 V=8.0
MOVL C00126 V=8.0
MOVL C00127 V=8.0
MOVL C00128 V=8.0
MOVL C00129 V=8.0
MOVL C00130 V=8.0
MOVL C00131 V=8.0
MOVJ C00132 VJ=0.78
MOVL C00133 V=8.0
MOVL C00134 V=8.0
MOVL C00135 V=8.0
MOVL C00136 V=8.0
MOVL C00137 V=8.0
MOVL C00138 V=8.0
MOVL C00139 V=8.0
MOVL C00140 V=8.0
MOVL C00141 V=8.0
MOVL C00142 V=8.0
MOVL C00143 V=8.0
MOVL C00144 V=8.0
MOVL C00145 V=8.0
MOVL C00146 V=8.0
MOVL C00147 V=8.0
MOVL C00148 V=8.0
MOVL C00149 V=8.0
MOVL C00150 V=8.0
MOVL C00151 V=8.0
MOVL C00152 V=8.0
MOVL C00153 V=8.0
MOVL C00154 V=8.0
MOVL C00155 V=8.0
MOVL C00156 V=8.0
MOVL C00157 V=8.0
MOVL C00158 V=8.0
MOVL C00159 V=8.0
MOVL C00160 V=8.0
MOVL C00161 V=8.0
MOVL C00162 V=8.0
MOVL C00163 V=8.0
MOVL C00164 V=8.0
MOVL C00165 V=8.0
MOVL C00166 V=8.0
MOVL C00167 V=8.0
MOVL C00168 V=8.0
MOVL C00169 V=8.0
MOVL C00170 V=8.0
MOVL C00171 V=8.0
MOVL C00172 V=8.0
MOVL C00173 V=8.0
MOVJ C00174 VJ=0.78
MOVJ C00175 VJ=0.78
MOVL C00176 V=11.7
TIMER T=2.00
MOVL C00177 V=11.7
MOVJ C00178 VJ=0.78
MOVJ C00179 VJ=0.78
MOVL C00180 V=8.0
MOVL C00181 V=8.0
MOVL C00182 V=8.0
MOVL C00183 V=8.0
MOVL C00184 V=8.0
MOVL C00185 V=8.0
MOVL C00186 V=8.0
MOVL C00187 V=8.0
MOVL C00188 V=8.0
MOVL C00189 V=8.0
MOVL C00190 V=8.0
MOVL C00191 V=8.0
MOVL C00192 V=8.0
MOVL C00193 V=8.0
MOVL C00194 V=8.0
MOVL C00195 V=8.0
MOVL C00196 V=8.0
MOVL C00197 V=8.0
MOVL C00198 V=8.0
MOVL C00199 V=8.0
MOVL C00200 V=8.0
MOVL C00201 V=8.0
MOVJ C00202 VJ=0.78
MOVL C00203 V=8.0
MOVL C00204 V=8.0
MOVL C00205 V=8.0
MOVL C00206 V=8.0
MOVL C00207 V=8.0
MOVL C00208 V=8.0
MOVL C00209 V=8.0
MOVL C00210 V=8.0
MOVL C00211 V=8.0
MOVL C00212 V=8.0
MOVL C00213 V=8.0
MOVL C00214 V=8.0
MOVL C00215 V=8.0
MOVL C00216 V=8.0
MOVL C00217 V=8.0
MOVL C00218 V=8.0
MOVL C00219 V=8.0
MOVL C00220 V=8.0
MOVL C00221 V=8.0
MOVL C00222 V=8.0
MOVL C00223 V=8.0
MOVL C00224 V=8.0
MOVL C00225 V=8.0
MOVL C00226 V=8.0
MOVL C00227 V=8.0
MOVL C00228 V=8.0
MOVL C00229 V=8.0
MOVL C00230 V=8.0
MOVL C00231 V=8.0
MOVL C00232 V=8.0
MOVL C00233 V=8.0
MOVL C00234 V=8.0
MOVL C00235 V=8.0
MOVL C00236 V=8.0
MOVL C00237 V=8.0
MOVL C00238 V=8.0
MOVL C00239 V=8.0
MOVL C00240 V=8.0
MOVL C00241 V=8.0
MOVL C00242 V=8.0
MOVL C00243 V=8.0
MOVL C00244 V=8.0
MOVL C00245 V=8.0
MOVL C00246 V=8.0
MOVL C00247 V=8.0
MOVL C00248 V=8.0
MOVL C00249 V=8.0
MOVL C00250 V=8.0
MOVL C00251 V=8.0
MOVL C00252 V=8.0
MOVL C00253 V=8.0
MOVL C00254 V=8.0
MOVL C00255 V=8.0
MOVL C00256 V=8.0
MOVL C00257 V=8.0
MOVL C00258 V=8.0
MOVL C00259 V=8.0
MOVL C00260 V=8.0
MOVL C00261 V=8.0
MOVL C00262 V=8.0
MOVL C00263 V=8.0
MOVL C00264 V=8.0
MOVJ C00265 VJ=0.78
MOVL C00266 V=8.0
MOVL C00267 V=8.0
MOVL C00268 V=8.0
MOVL C00269 V=8.0
MOVL C00270 V=8.0
MOVL C00271 V=8.0
MOVL C00272 V=8.0
MOVL C00273 V=8.0
MOVL C00274 V=8.0
MOVL C00275 V=8.0
MOVL C00276 V=8.0
MOVL C00277 V=8.0
MOVL C00278 V=8.0
MOVL C00279 V=8.0
MOVL C00280 V=8.0
MOVL C00281 V=8.0
MOVL C00282 V=8.0
MOVL C00283 V=8.0
MOVL C00284 V=8.0
MOVL C00285 V=8.0
MOVL C00286 V=8.0
MOVL C00287 V=8.0
MOVL C00288 V=8.0
MOVL C00289 V=8.0
MOVL C00290 V=8.0
MOVL C00291 V=8.0
MOVL C00292 V=8.0
MOVL C00293 V=8.0
MOVL C00294 V=8.0
MOVL C00295 V=8.0
MOVL C00296 V=8.0
MOVL C00297 V=8.0
MOVL C00298 V=8.0
MOVL C00299 V=8.0
MOVL C00300 V=8.0
MOVL C00301 V=8.0
MOVL C00302 V=8.0
MOVL C00303 V=8.0
MOVL C00304 V=8.0
MOVL C00305 V=8.0
MOVL C00306 V=8.0
MOVL C00307 V=8.0
MOVL C00308 V=8.0
MOVL C00309 V=8.0
MOVL C00310 V=8.0
MOVL C00311 V=8.0
MOVL C00312 V=8.0
MOVL C00313 V=8.0
MOVL C00314 V=8.0
MOVL C00315 V=8.0
MOVL C00316 V=8.0
MOVL C00317 V=8.0
MOVL C00318 V=8.0
MOVL C00319 V=8.0
MOVL C00320 V=8.0
MOVL C00321 V=8.0
MOVL C00322 V=8.0
MOVL C00323 V=8.0
MOVL C00324 V=8.0
MOVL C00325 V=8.0
MOVL C00326 V=8.0
MOVL C00327 V=8.0
MOVJ C00328 VJ=0.78
MOVL C00329 V=8.0
MOVL C00330 V=8.0
MOVL C00331 V=8.0
MOVL C00332 V=8.0
MOVL C00333 V=8.0
MOVL C00334 V=8.0
MOVL C00335 V=8.0
MOVL C00336 V=8.0
MOVL C00337 V=8.0
MOVL C00338 V=8.0
MOVL C00339 V=8.0
MOVL C00340 V=8.0
MOVL C00341 V=8.0
MOVL C00342 V=8.0
MOVL C00343 V=8.0
MOVL C00344 V=8.0
MOVL C00345 V=8.0
MOVL C00346 V=8.0
MOVL C00347 V=8.0
MOVL C00348 V=8.0
MOVL C00349 V=8.0
MOVJ C00350 VJ=0.78
MOVJ C00351 VJ=0.78
MOVL C00352 V=11.7
TIMER T=2.00
MOVL C00353 V=11.7
MOVJ C00354 VJ=0.78
MOVJ C00355 VJ=0.78
MOVL C00356 V=8.0
MOVL C00357 V=8.0
MOVL C00358 V=8.0
MOVL C00359 V=8.0
MOVL C00360 V=8.0
MOVL C00361 V=8.0
MOVL C00362 V=8.0
MOVL C00363 V=8.0
MOVL C00364 V=8.0
MOVL C00365 V=8.0
MOVL C00366 V=8.0
MOVL C00367 V=8.0
MOVL C00368 V=8.0
MOVL C00369 V=8.0
MOVL C00370 V=8.0
MOVL C00371 V=8.0
MOVL C00372 V=8.0
MOVL C00373 V=8.0
MOVL C00374 V=8.0
MOVL C00375 V=8.0
MOVL C00376 V=8.0
MOVL C00377 V=8.0
MOVL C00378 V=8.0
MOVL C00379 V=8.0
MOVL C00380 V=8.0
MOVL C00381 V=8.0
MOVL C00382 V=8.0
MOVL C00383 V=8.0
MOVL C00384 V=8.0
MOVL C00385 V=8.0
MOVL C00386 V=8.0
MOVL C00387 V=8.0
MOVL C00388 V=8.0
MOVL C00389 V=8.0
MOVL C00390 V=8.0
MOVL C00391 V=8.0
MOVL C00392 V=8.0
MOVL C00393 V=8.0
MOVL C00394 V=8.0
MOVL C00395 V=8.0
MOVL C00396 V=8.0
MOVL C00397 V=8.0
MOVJ C00398 VJ=0.78
MOVL C00399 V=8.0
MOVL C00400 V=8.0
MOVL C00401 V=8.0
MOVL C00402 V=8.0
MOVL C00403 V=8.0
MOVL C00404 V=8.0
MOVL C00405 V=8.0
MOVL C00406 V=8.0
MOVL C00407 V=8.0
MOVL C00408 V=8.0
MOVL C00409 V=8.0
MOVL C00410 V=8.0
MOVL C00411 V=8.0
MOVL C00412 V=8.0
MOVL C00413 V=8.0
MOVL C00414 V=8.0
MOVL C00415 V=8.0
MOVL C00416 V=8.0
MOVL C00417 V=8.0
MOVL C00418 V=8.0
MOVL C00419 V=8.0
MOVL C00420 V=8.0
MOVL C00421 V=8.0
MOVL C00422 V=8.0
MOVL C00423 V=8.0
MOVL C00424 V=8.0
MOVL C00425 V=8.0
MOVL C00426 V=8.0
MOVL C00427 V=8.0
MOVL C00428 V=8.0
MOVL C00429 V=8.0
MOVL C00430 V=8.0
MOVL C00431 V=8.0
MOVL C00432 V=8.0
MOVL C00433 V=8.0
MOVL C00434 V=8.0
MOVL C00435 V=8.0
MOVL C00436 V=8.0
MOVL C00437 V=8.0
MOVL C00438 V=8.0
MOVL C00439 V=8.0
MOVL C00440 V=8.0
MOVL C00441 V=8.0
MOVL C00442 V=8.0
MOVL C00443 V=8.0
MOVL C00444 V=8.0
MOVL C00445 V=8.0
MOVL C00446 V=8.0
MOVL C00447 V=8.0
MOVL C00448 V=8.0
MOVL C00449 V=8.0
MOVL C00450 V=8.0
MOVL C00451 V=8.0
MOVL C00452 V=8.0
MOVL C00453 V=8.0
MOVL C00454 V=8.0
MOVL C00455 V=8.0
MOVL C00456 V=8.0
MOVL C00457 V=8.0
MOVL C00458 V=8.0
MOVL C00459 V=8.0
MOVL C00460 V=8.0
MOVJ C00461 VJ=0.78
MOVL C00462 V=8.0
MOVL C00463 V=8.0
MOVL C00464 V=8.0
MOVL C00465 V=8.0
MOVL C00466 V=8.0
MOVL C00467 V=8.0
MOVL C00468 V=8.0
MOVL C00469 V=8.0
MOVL C00470 V=8.0
MOVL C00471 V=8.0
MOVL C00472 V=8.0
MOVL C00473 V=8.0
MOVL C00474 V=8.0
MOVL C00475 V=8.0
MOVL C00476 V=8.0
MOVL C00477 V=8.0
MOVL C00478 V=8.0
MOVL C00479 V=8.0
MOVL C00480 V=8.0
MOVL C00481 V=8.0
MOVL C00482 V=8.0
MOVL C00483 V=8.0
MOVL C00484 V=8.0
MOVL C00485 V=8.0
MOVL C00486 V=8.0
MOVL C00487 V=8.0
MOVL C00488 V=8.0
MOVL C00489 V=8.0
MOVL C00490 V=8.0
MOVL C00491 V=8.0
MOVL C00492 V=8.0
MOVL C00493 V=8.0
MOVL C00494 V=8.0
MOVL C00495 V=8.0
MOVL C00496 V=8.0
MOVL C00497 V=8.0
MOVL C00498 V=8.0
MOVL C00499 V=8.0
MOVL C00500 V=8.0
MOVL C00501 V=8.0
MOVL C00502 V=8.0
MOVL C00503 V=8.0
MOVL C00504 V=8.0
MOVL C00505 V=8.0
MOVL C00506 V=8.0
MOVL C00507 V=8.0
MOVL C00508 V=8.0
MOVL C00509 V=8.0
MOVL C00510 V=8.0
MOVL C00511 V=8.0
MOVL C00512 V=8.0
MOVL C00513 V=8.0
MOVL C00514 V=8.0
MOVL C00515 V=8.0
MOVL C00516 V=8.0
MOVL C00517 V=8.0
MOVL C00518 V=8.0
MOVL C00519 V=8.0
MOVL C00520 V=8.0
MOVL C00521 V=8.0
MOVL C00522 V=8.0
MOVJ C00523 VJ=0.78
MOVJ C00524 VJ=0.78
MOVL C00525 V=11.7
TIMER T=2.00
MOVL C00526 V=11.7
MOVJ C00527 VJ=0.78
MOVJ C00528 VJ=0.78
MOVL C00529 V=8.0
MOVL C00530 V=8.0
MOVJ C00531 VJ=0.78
MOVL C00532 V=8.0
MOVL C00533 V=8.0
MOVL C00534 V=8.0
MOVL C00535 V=8.0
MOVL C00536 V=8.0
MOVL C00537 V=8.0
MOVL C00538 V=8.0
MOVL C00539 V=8.0
MOVL C00540 V=8.0
MOVL C00541 V=8.0
MOVL C00542 V=8.0
MOVL C00543 V=8.0
MOVL C00544 V=8.0
MOVL C00545 V=8.0
MOVL C00546 V=8.0
MOVL C00547 V=8.0
MOVL C00548 V=8.0
MOVL C00549 V=8.0
MOVL C00550 V=8.0
MOVL C00551 V=8.0
MOVL C00552 V=8.0
MOVL C00553 V=8.0
MOVL C00554 V=8.0
MOVL C00555 V=8.0
MOVL C00556 V=8.0
MOVL C00557 V=8.0
MOVL C00558 V=8.0
MOVL C00559 V=8.0
MOVL C00560 V=8.0
MOVL C00561 V=8.0
MOVL C00562 V=8.0
MOVL C00563 V=8.0
MOVL C00564 V=8.0
MOVL C00565 V=8.0
MOVL C00566 V=8.0
MOVL C00567 V=8.0
MOVL C00568 V=8.0
MOVL C00569 V=8.0
MOVL C00570 V=8.0
MOVL C00571 V=8.0
MOVL C00572 V=8.0
MOVL C00573 V=8.0
MOVL C00574 V=8.0
MOVL C00575 V=8.0
MOVL C00576 V=8.0
MOVL C00577 V=8.0
MOVL C00578 V=8.0
MOVL C00579 V=8.0
MOVL C00580 V=8.0
MOVL C00581 V=8.0
MOVL C00582 V=8.0
MOVL C00583 V=8.0
MOVL C00584 V=8.0
MOVL C00585 V=8.0
MOVL C00586 V=8.0
MOVL C00587 V=8.0
MOVL C00588 V=8.0
MOVL C00589 V=8.0
MOVL C00590 V=8.0
MOVL C00591 V=8.0
MOVL C00592 V=8.0
MOVL C00593 V=8.0
MOVJ C00594 VJ=0.78
MOVL C00595 V=8.0
MOVL C00596 V=8.0
MOVL C00597 V=8.0
MOVL C00598 V=8.0
MOVL C00599 V=8.0
MOVL C00600 V=8.0
MOVL C00601 V=8.0
MOVL C00602 V=8.0
MOVL C00603 V=8.0
MOVL C00604 V=8.0
MOVL C00605 V=8.0
MOVL C00606 V=8.0
MOVL C00607 V=8.0
MOVL C00608 V=8.0
MOVL C00609 V=8.0
MOVL C00610 V=8.0
MOVL C00611 V=8.0
MOVL C00612 V=8.0
MOVL C00613 V=8.0
MOVL C00614 V=8.0
MOVL C00615 V=8.0
MOVL C00616 V=8.0
MOVL C00617 V=8.0
MOVL C00618 V=8.0
MOVL C00619 V=8.0
MOVL C00620 V=8.0
MOVL C00621 V=8.0
MOVL C00622 V=8.0
MOVL C00623 V=8.0
MOVL C00624 V=8.0
MOVL C00625 V=8.0
MOVL C00626 V=8.0
MOVL C00627 V=8.0
MOVL C00628 V=8.0
MOVL C00629 V=8.0
MOVL C00630 V=8.0
MOVL C00631 V=8.0
MOVL C00632 V=8.0
MOVL C00633 V=8.0
MOVL C00634 V=8.0
MOVL C00635 V=8.0
