/JOB
//NAME CONTOUR2
//POS
///NPOS 380,0,0,0,0,0
///TOOL 0
///POSTYPE PULSE
///PULSE
C00000=-5517,65128,75665,1217,-52936,1935
C00001=-5517,65128,75665,1217,-52936,1935
C00002=-5517,50128,90665,1217,-52936,1935
C00003=-5305,49891,90665,1217,-52936,1935
C00004=-5249,49589,90665,1217,-52936,1935
C00005=-4962,49588,90665,1217,-52936,1935
C00006=-4675,49586,90665,1217,-52936,1935
C00007=-4448,49736,90665,1217,-52936,1935
C00008=-4359,50021,90665,1217,-52936,1935
C00009=-4511,50287,90665,1217,-52936,1935
C00010=-4723,50524,90665,1217,-52936,1935
C00011=-4852,50802,90665,1217,-52936,1935
C00012=-4865,51135,90665,1217,-52936,1935
C00013=-4879,51469,90665,1217,-52936,1935
C00014=-4892,51802,90665,1217,-52936,1935
C00015=-4905,52136,90665,1217,-52936,1935
C00016=-4797,52412,90665,1217,-52936,1935
C00017=-4698,52691,90665,1217,-52936,1935
C00018=-4711,53025,90665,1217,-52936,1935
C00019=-4717,53355,90665,1217,-52936,1935
C00020=-4525,53591,90665,1217,-52936,1935
C00021=-4518,53915,90665,1217,-52936,1935
C00022=-4473,54220,90665,1217,-52936,1935
C00023=-4311,54471,90665,1217,-52936,1935
C00024=-4325,54804,90665,1217,-52936,1935
C00025=-4228,55085,90665,1217,-52936,1935
C00026=-4119,55361,90665,1217,-52936,1935
C00027=-4011,55636,90665,1217,-52936,1935
C00028=-3820,55873,90665,1217,-52936,1935
C00029=-3694,56140,90665,1217,-52936,1935
C00030=-3603,56424,90665,1217,-52936,1935
C00031=-3489,56697,90665,1217,-52936,1935
C00032=-3387,56976,90665,1217,-52936,1935
C00033=-3285,57254,90665,1217,-52936,1935
C00034=-3422,57527,90665,1217,-52936,1935
C00035=-3633,57763,90665,1217,-52936,1935
C00036=-3765,57800,90665,1217,-52936,1935
C00037=-3862,57519,90665,1217,-52936,1935
C00038=-4052,57282,90665,1217,-52936,1935
C00039=-4188,57020,90665,1217,-52936,1935
C00040=-4269,56731,90665,1217,-52936,1935
C00041=-4394,56463,90665,1217,-52936,1935
C00042=-4486,56180,90665,1217,-52936,1935
C00043=-4599,55907,90665,1217,-52936,1935
C00044=-4703,55629,90665,1217,-52936,1935
C00045=-4806,55351,90665,1217,-52936,1935
C00046=-4921,55078,90665,1217,-52936,1935
C00047=-5012,54795,90665,1217,-52936,1935
C00048=-4999,54461,90665,1217,-52936,1935
C00049=-5166,54214,90665,1217,-52936,1935
C00050=-5206,53905,90665,1217,-52936,1935
C00051=-5220,53585,90665,1217,-52936,1935
C00052=-5412,53349,90665,1217,-52936,1935
C00053=-5400,53016,90665,1217,-52936,1935
C00054=-5387,52683,90665,1217,-52936,1935
C00055=-5374,52349,90665,1217,-52936,1935
C00056=-5520,52092,90665,1217,-52936,1935
C00057=-5582,51795,90665,1217,-52936,1935
C00058=-5569,51461,90665,1217,-52936,1935
C00059=-5556,51128,90665,1217,-52936,1935
C00060=-5543,50794,90665,1217,-52936,1935
C00061=-5530,50461,90665,1217,-52936,1935
C00062=-5517,50128,90665,1217,-52936,1935
C00063=-5517,65128,75665,1217,-52936,1935
C00064=-11163,76104,75665,1217,-52936,1935
C00065=-11163,61104,90665,1217,-52936,1935
C00066=-11076,61005,90665,1217,-52936,1935
C00067=-10988,60906,90665,1217,-52936,1935
C00068=-10891,60838,90665,1217,-52936,1935
C00069=-10772,60839,90665,1217,-52936,1935
C00070=-10665,60799,90665,1217,-52936,1935
C00071=-10578,60700,90665,1217,-52936,1935
C00072=-10490,60601,90665,1217,-52936,1935
C00073=-10380,60573,90665,1217,-52936,1935
C00074=-10261,60574,90665,1217,-52936,1935
C00075=-10167,60493,90665,1217,-52936,1935
C00076=-10080,60394,90665,1217,-52936,1935
C00077=-9988,60308,90665,1217,-52936,1935
C00078=-9868,60309,90665,1217,-52936,1935
C00079=-9749,60309,90665,1217,-52936,1935
C00080=-9629,60310,90665,1217,-52936,1935
C00081=-9510,60310,90665,1217,-52936,1935
C00082=-9391,60311,90665,1217,-52936,1935
C00083=-9271,60311,90665,1217,-52936,1935
C00084=-9152,60312,90665,1217,-52936,1935
C00085=-9032,60312,90665,1217,-52936,1935
C00086=-8913,60313,90665,1217,-52936,1935
C00087=-8793,60314,90665,1217,-52936,1935
C00088=-8674,60314,90665,1217,-52936,1935
C00089=-8582,60386,90665,1217,-52936,1935
C00090=-8501,60486,90665,1217,-52936,1935
C00091=-8426,60586,90665,1217,-52936,1935
C00092=-8514,60686,90665,1217,-52936,1935
C00093=-8602,60785,90665,1217,-52936,1935
C00094=-8690,60884,90665,1217,-52936,1935
C00095=-8777,60983,90665,1217,-52936,1935
C00096=-8865,61082,90665,1217,-52936,1935
C00097=-8953,61181,90665,1217,-52936,1935
C00098=-9041,61280,90665,1217,-52936,1935
C00099=-9128,61379,90665,1217,-52936,1935
C00100=-9216,61478,90665,1217,-52936,1935
C00101=-9304,61577,90665,1217,-52936,1935
C00102=-9400,61649,90665,1217,-52936,1935
C00103=-9519,61648,90665,1217,-52936,1935
C00104=-9627,61685,90665,1217,-52936,1935
C00105=-9714,61784,90665,1217,-52936,1935
C00106=-9802,61883,90665,1217,-52936,1935
C00107=-9911,61913,90665,1217,-52936,1935
C00108=-10030,61912,90665,1217,-52936,1935
C00109=-10149,61912,90665,1217,-52936,1935
C00110=-10268,61911,90665,1217,-52936,1935
C00111=-10359,61998,90665,1217,-52936,1935
C00112=-10447,62097,90665,1217,-52936,1935
C00113=-10540,62176,90665,1217,-52936,1935
C00114=-10659,62176,90665,1217,-52936,1935
C00115=-10778,62175,90665,1217,-52936,1935
C00116=-10897,62174,90665,1217,-52936,1935
C00117=-11002,62134,90665,1217,-52936,1935
C00118=-11083,62035,90665,1217,-52936,1935
C00119=-11164,61935,90665,1217,-52936,1935
C00120=-11185,61806,90665,1217,-52936,1935
C00121=-11180,61666,90665,1217,-52936,1935
C00122=-11176,61525,90665,1217,-52936,1935
C00123=-11172,61385,90665,1217,-52936,1935
C00124=-11168,61244,90665,1217,-52936,1935
C00125=-11163,61104,90665,1217,-52936,1935
C00126=-11163,76104,75665,1217,-52936,1935
C00127=-10909,67824,75665,1217,-52936,1935
C00128=-10909,52824,90665,1217,-52936,1935
C00129=-10795,52696,90665,1217,-52936,1935
C00130=-10681,52568,90665,1217,-52936,1935
C00131=-10567,52440,90665,1217,-52936,1935
C00132=-10453,52312,90665,1217,-52936,1935
C00133=-10305,52288,90665,1217,-52936,1935
C00134=-10163,52244,90665,1217,-52936,1935
C00135=-10049,52115,90665,1217,-52936,1935
C00136=-9924,52020,90665,1217,-52936,1935
C00137=-9768,52020,90665,1217,-52936,1935
C00138=-9612,52019,90665,1217,-52936,1935
C00139=-9469,51980,90665,1217,-52936,1935
C00140=-9355,51851,90665,1217,-52936,1935
C00141=-9240,51723,90665,1217,-52936,1935
C00142=-9125,51594,90665,1217,-52936,1935
C00143=-9025,51459,90665,1217,-52936,1935
C00144=-9019,51278,90665,1217,-52936,1935
C00145=-9012,51097,90665,1217,-52936,1935
C00146=-9006,50916,90665,1217,-52936,1935
C00147=-9000,50735,90665,1217,-52936,1935
C00148=-8890,50679,90665,1217,-52936,1935
C00149=-8733,50678,90665,1217,-52936,1935
C00150=-8577,50678,90665,1217,-52936,1935
C00151=-8458,50772,90665,1217,-52936,1935
C00152=-8352,50900,90665,1217,-52936,1935
C00153=-8246,51028,90665,1217,-52936,1935
C00154=-8141,51156,90665,1217,-52936,1935
C00155=-8098,51314,90665,1217,-52936,1935
C00156=-8104,51495,90665,1217,-52936,1935
C00157=-8111,51676,90665,1217,-52936,1935
C00158=-8183,51825,90665,1217,-52936,1935
C00159=-8298,51954,90665,1217,-52936,1935
C00160=-8413,52082,90665,1217,-52936,1935
C00161=-8527,52211,90665,1217,-52936,1935
C00162=-8642,52339,90665,1217,-52936,1935
C00163=-8757,52468,90665,1217,-52936,1935
C00164=-8871,52596,90665,1217,-52936,1935
C00165=-8985,52725,90665,1217,-52936,1935
C00166=-9100,52853,90665,1217,-52936,1935
C00167=-9214,52981,90665,1217,-52936,1935
C00168=-9328,53110,90665,1217,-52936,1935
C00169=-9443,53238,90665,1217,-52936,1935
C00170=-9560,53356,90665,1217,-52936,1935
C00171=-9716,53356,90665,1217,-52936,1935
C00172=-9846,53434,90665,1217,-52936,1935
C00173=-9960,53562,90665,1217,-52936,1935
C00174=-10074,53690,90665,1217,-52936,1935
C00175=-10188,53818,90665,1217,-52936,1935
C00176=-10320,53892,90665,1217,-52936,1935
C00177=-10475,53892,90665,1217,-52936,1935
C00178=-10591,54014,90665,1217,-52936,1935
C00179=-10705,54142,90665,1217,-52936,1935
C00180=-10855,54160,90665,1217,-52936,1935
C00181=-10948,54090,90665,1217,-52936,1935
C00182=-10943,53909,90665,1217,-52936,1935
C00183=-10937,53729,90665,1217,-52936,1935
C00184=-10932,53548,90665,1217,-52936,1935
C00185=-10926,53367,90665,1217,-52936,1935
C00186=-10920,53186,90665,1217,-52936,1935
C00187=-10915,53005,90665,1217,-52936,1935
C00188=-10909,52824,90665,1217,-52936,1935
C00189=-10909,67824,75665,1217,-52936,1935
C00190=-15538,69165,75665,1217,-52936,1935
C00191=-15538,54165,90665,1217,-52936,1935
C00192=-15435,54049,90665,1217,-52936,1935
C00193=-15333,53933,90665,1217,-52936,1935
C00194=-15230,53817,90665,1217,-52936,1935
C00195=-15127,53701,90665,1217,-52936,1935
C00196=-15065,53565,90665,1217,-52936,1935
C00197=-15061,53401,90665,1217,-52936,1935
C00198=-14979,53275,90665,1217,-52936,1935
C00199=-14876,53159,90665,1217,-52936,1935
C00200=-14773,53043,90665,1217,-52936,1935
C00201=-14670,52926,90665,1217,-52936,1935
C00202=-14587,52801,90665,1217,-52936,1935
C00203=-14583,52637,90665,1217,-52936,1935
C00204=-14579,52473,90665,1217,-52936,1935
C00205=-14575,52309,90665,1217,-52936,1935
C00206=-14570,52145,90665,1217,-52936,1935
C00207=-14566,51981,90665,1217,-52936,1935
C00208=-14562,51817,90665,1217,-52936,1935
C00209=-14558,51653,90665,1217,-52936,1935
C00210=-14554,51489,90665,1217,-52936,1935
C00211=-14550,51325,90665,1217,-52936,1935
C00212=-14483,51236,90665,1217,-52936,1935
C00213=-14341,51235,90665,1217,-52936,1935
C00214=-14199,51235,90665,1217,-52936,1935
C00215=-14088,51269,90665,1217,-52936,1935
C00216=-14092,51433,90665,1217,-52936,1935
C00217=-14036,51569,90665,1217,-52936,1935
C00218=-13939,51685,90665,1217,-52936,1935
C00219=-13872,51815,90665,1217,-52936,1935
C00220=-13876,51979,90665,1217,-52936,1935
C00221=-13880,52143,90665,1217,-52936,1935
C00222=-13884,52307,90665,1217,-52936,1935
C00223=-13889,52471,90665,1217,-52936,1935
C00224=-13893,52635,90665,1217,-52936,1935
C00225=-13897,52799,90665,1217,-52936,1935
C00226=-13981,52925,90665,1217,-52936,1935
C00227=-14084,53041,90665,1217,-52936,1935
C00228=-14137,53182,90665,1217,-52936,1935
C00229=-14141,53346,90665,1217,-52936,1935
C00230=-14145,53510,90665,1217,-52936,1935
C00231=-14175,53661,90665,1217,-52936,1935
C00232=-14278,53777,90665,1217,-52936,1935
C00233=-14381,53894,90665,1217,-52936,1935
C00234=-14484,54010,90665,1217,-52936,1935
C00235=-14587,54126,90665,1217,-52936,1935
C00236=-14690,54242,90665,1217,-52936,1935
C00237=-14792,54358,90665,1217,-52936,1935
C00238=-14895,54474,90665,1217,-52936,1935
C00239=-14998,54590,90665,1217,-52936,1935
C00240=-15100,54706,90665,1217,-52936,1935
C00241=-15203,54822,90665,1217,-52936,1935
C00242=-15306,54938,90665,1217,-52936,1935
C00243=-15408,55054,90665,1217,-52936,1935
C00244=-15511,55170,90665,1217,-52936,1935
C00245=-15561,55148,90665,1217,-52936,1935
C00246=-15557,54984,90665,1217,-52936,1935
C00247=-15553,54820,90665,1217,-52936,1935
C00248=-15549,54657,90665,1217,-52936,1935
C00249=-15546,54493,90665,1217,-52936,1935
C00250=-15542,54329,90665,1217,-52936,1935
C00251=-15538,54165,90665,1217,-52936,1935
C00252=-15538,69165,75665,1217,-52936,1935
C00253=-21964,69437,75665,1217,-52936,1935
C00254=-21964,54437,90665,1217,-52936,1935
C00255=-21978,55556,90665,1217,-52936,1935
C00256=-21996,56894,90665,1217,-52936,1935
C00257=-21784,58124,90665,1217,-52936,1935
C00258=-21343,59245,90665,1217,-52936,1935
C00259=-20905,60367,90665,1217,-52936,1935
C00260=-20363,61441,90665,1217,-52936,1935
C00261=-19805,62507,90665,1217,-52936,1935
C00262=-19097,63502,90665,1217,-52936,1935
C00263=-18306,64458,90665,1217,-52936,1935
C00264=-17482,65318,90665,1217,-52936,1935
C00265=-16593,66000,90665,1217,-52936,1935
C00266=-15670,66586,90665,1217,-52936,1935
C00267=-14748,67173,90665,1217,-52936,1935
C00268=-13724,67486,90665,1217,-52936,1935
C00269=-12689,67765,90665,1217,-52936,1935
C00270=-11624,67556,90665,1217,-52936,1935
C00271=-10551,67368,90665,1217,-52936,1935
C00272=-9534,67000,90665,1217,-52936,1935
C00273=-8564,66475,90665,1217,-52936,1935
C00274=-7623,65848,90665,1217,-52936,1935
C00275=-6722,65086,90665,1217,-52936,1935
C00276=-5878,64133,90665,1217,-52936,1935
C00277=-5031,63177,90665,1217,-52936,1935
C00278=-4338,62141,90665,1217,-52936,1935
C00279=-3643,61103,90665,1217,-52936,1935
C00280=-3103,59985,90665,1217,-52936,1935
C00281=-2561,58865,90665,1217,-52936,1935
C00282=-2163,57671,90665,1217,-52936,1935
C00283=-1878,56419,90665,1217,-52936,1935
C00284=-1592,55167,90665,1217,-52936,1935
C00285=-1530,53803,90665,1217,-52936,1935
C00286=-1703,52551,90665,1217,-52936,1935
C00287=-1877,51299,90665,1217,-52936,1935
C00288=-2257,50146,90665,1217,-52936,1935
C00289=-2708,49028,90665,1217,-52936,1935
C00290=-3329,47990,90665,1217,-52936,1935
C00291=-4119,47033,90665,1217,-52936,1935
C00292=-4911,46078,90665,1217,-52936,1935
C00293=-5782,45315,90665,1217,-52936,1935
C00294=-6741,44773,90665,1217,-52936,1935
C00295=-7709,44247,90665,1217,-52936,1935
C00296=-8706,43793,90665,1217,-52936,1935
C00297=-9808,43604,90665,1217,-52936,1935
C00298=-10936,43480,90665,1217,-52936,1935
C00299=-12117,43493,90665,1217,-52936,1935
C00300=-13299,43506,90665,1217,-52936,1935
C00301=-14391,43784,90665,1217,-52936,1935
C00302=-15432,44205,90665,1217,-52936,1935
C00303=-16480,44603,90665,1217,-52936,1935
C00304=-17462,45188,90665,1217,-52936,1935
C00305=-18378,45958,90665,1217,-52936,1935
C00306=-19283,46750,90665,1217,-52936,1935
C00307=-20024,47736,90665,1217,-52936,1935
C00308=-20504,48860,90665,1217,-52936,1935
C00309=-20754,50091,90665,1217,-52936,1935
C00310=-20339,51224,90665,1217,-52936,1935
C00311=-20787,51780,90665,1217,-52936,1935
C00312=-21701,51869,90665,1217,-52936,1935
C00313=-21947,53098,90665,1217,-52936,1935
C00314=-21964,54437,90665,1217,-52936,1935
C00315=-21964,69437,75665,1217,-52936,1935
C00316=-22636,68116,75665,1217,-52936,1935
C00317=-22636,53116,90665,1217,-52936,1935
C00318=-22257,51903,90665,1217,-52936,1935
C00319=-21916,50670,90665,1217,-52936,1935
C00320=-21493,49475,90665,1217,-52936,1935
C00321=-21109,48259,90665,1217,-52936,1935
C00322=-20560,47119,90665,1217,-52936,1935
C00323=-19683,46130,90665,1217,-52936,1935
C00324=-18739,45326,90665,1217,-52936,1935
C00325=-17759,44616,90665,1217,-52936,1935
C00326=-16779,43901,90665,1217,-52936,1935
C00327=-15677,43532,90665,1217,-52936,1935
C00328=-14618,43033,90665,1217,-52936,1935
C00329=-13408,42973,90665,1217,-52936,1935
C00330=-12272,42695,90665,1217,-52936,1935
C00331=-11046,42680,90665,1217,-52936,1935
C00332=-9926,42934,90665,1217,-52936,1935
C00333=-8787,43141,90665,1217,-52936,1935
C00334=-7688,43444,90665,1217,-52936,1935
C00335=-6676,43968,90665,1217,-52936,1935
C00336=-5667,44495,90665,1217,-52936,1935
C00337=-4722,45179,90665,1217,-52936,1935
C00338=-3824,45978,90665,1217,-52936,1935
C00339=-3005,46968,90665,1217,-52936,1935
C00340=-2356,48040,90665,1217,-52936,1935
C00341=-1876,49193,90665,1217,-52936,1935
C00342=-1398,50347,90665,1217,-52936,1935
C00343=-1201,51635,90665,1217,-52936,1935
C00344=-1031,52937,90665,1217,-52936,1935
C00345=-862,54239,90665,1217,-52936,1935
C00346=-1151,55542,90665,1217,-52936,1935
C00347=-1282,56923,90665,1217,-52936,1935
C00348=-1701,58159,90665,1217,-52936,1935
C00349=-2119,59393,90665,1217,-52936,1935
C00350=-2535,60627,90665,1217,-52936,1935
C00351=-3250,61708,90665,1217,-52936,1935
C00352=-3832,62853,90665,1217,-52936,1935
C00353=-4556,63924,90665,1217,-52936,1935
C00354=-5433,64913,90665,1217,-52936,1935
C00355=-6366,65711,90665,1217,-52936,1935
C00356=-7297,66507,90665,1217,-52936,1935
C00357=-8284,67111,90665,1217,-52936,1935
C00358=-9325,67538,90665,1217,-52936,1935
C00359=-10418,67792,90665,1217,-52936,1935
C00360=-11594,67778,90665,1217,-52936,1935
C00361=-12771,67764,90665,1217,-52936,1935
C00362=-13947,67750,90665,1217,-52936,1935
C00363=-15124,67736,90665,1217,-52936,1935
C00364=-16102,67193,90665,1217,-52936,1935
C00365=-17083,66650,90665,1217,-52936,1935
C00366=-17995,65922,90665,1217,-52936,1935
C00367=-18881,65117,90665,1217,-52936,1935
C00368=-19700,64126,90665,1217,-52936,1935
C00369=-20361,63061,90665,1217,-52936,1935
C00370=-21024,61997,90665,1217,-52936,1935
C00371=-21528,60858,90665,1217,-52936,1935
C00372=-21873,59643,90665,1217,-52936,1935
C00373=-22243,58441,90665,1217,-52936,1935
C00374=-22456,57164,90665,1217,-52936,1935
C00375=-22669,55888,90665,1217,-52936,1935
C00376=-22653,54502,90665,1217,-52936,1935
C00377=-22636,53116,90665,1217,-52936,1935
C00378=-22636,68116,75665,1217,-52936,1935
C00379=-22636,68116,75665,1217,-52936,1935
//INST
///DATE 2026/04/29 01:19
///ATTR SC,RW
///GROUP1 RB1
NOP
MOVJ C00000 VJ=0.78
MOVJ C00001 VJ=0.78
MOVJ C00002 VJ=0.10
MOVJ C00003 VJ=0.10
MOVJ C00004 VJ=0.10
MOVJ C00005 VJ=0.10
MOVJ C00006 VJ=0.10
MOVJ C00007 VJ=0.10
MOVJ C00008 VJ=0.10
MOVJ C00009 VJ=0.10
MOVJ C00010 VJ=0.10
MOVJ C00011 VJ=0.10
MOVJ C00012 VJ=0.10
MOVJ C00013 VJ=0.10
MOVJ C00014 VJ=0.10
MOVJ C00015 VJ=0.10
MOVJ C00016 VJ=0.10
MOVJ C00017 VJ=0.10
MOVJ C00018 VJ=0.10
MOVJ C00019 VJ=0.10
MOVJ C00020 VJ=0.10
MOVJ C00021 VJ=0.10
MOVJ C00022 VJ=0.10
MOVJ C00023 VJ=0.10
MOVJ C00024 VJ=0.10
MOVJ C00025 VJ=0.10
MOVJ C00026 VJ=0.10
MOVJ C00027 VJ=0.10
MOVJ C00028 VJ=0.10
MOVJ C00029 VJ=0.10
MOVJ C00030 VJ=0.10
MOVJ C00031 VJ=0.10
MOVJ C00032 VJ=0.10
MOVJ C00033 VJ=0.10
MOVJ C00034 VJ=0.10
MOVJ C00035 VJ=0.10
MOVJ C00036 VJ=0.10
MOVJ C00037 VJ=0.10
MOVJ C00038 VJ=0.10
MOVJ C00039 VJ=0.10
MOVJ C00040 VJ=0.10
MOVJ C00041 VJ=0.10
MOVJ C00042 VJ=0.10
MOVJ C00043 VJ=0.10
MOVJ C00044 VJ=0.10
MOVJ C00045 VJ=0.10
MOVJ C00046 VJ=0.10
MOVJ C00047 VJ=0.10
MOVJ C00048 VJ=0.10
MOVJ C00049 VJ=0.10
MOVJ C00050 VJ=0.10
MOVJ C00051 VJ=0.10
MOVJ C00052 VJ=0.10
MOVJ C00053 VJ=0.10
MOVJ C00054 VJ=0.10
MOVJ C00055 VJ=0.10
MOVJ C00056 VJ=0.10
MOVJ C00057 VJ=0.10
MOVJ C00058 VJ=0.10
MOVJ C00059 VJ=0.10
MOVJ C00060 VJ=0.10
MOVJ C00061 VJ=0.10
MOVJ C00062 VJ=0.10
MOVJ C00063 VJ=0.78
MOVJ C00064 VJ=0.78
MOVJ C00065 VJ=0.10
MOVJ C00066 VJ=0.10
MOVJ C00067 VJ=0.10
MOVJ C00068 VJ=0.10
MOVJ C00069 VJ=0.10
MOVJ C00070 VJ=0.10
MOVJ C00071 VJ=0.10
MOVJ C00072 VJ=0.10
MOVJ C00073 VJ=0.10
MOVJ C00074 VJ=0.10
MOVJ C00075 VJ=0.10
MOVJ C00076 VJ=0.10
MOVJ C00077 VJ=0.10
MOVJ C00078 VJ=0.10
MOVJ C00079 VJ=0.10
MOVJ C00080 VJ=0.10
MOVJ C00081 VJ=0.10
MOVJ C00082 VJ=0.10
MOVJ C00083 VJ=0.10
MOVJ C00084 VJ=0.10
MOVJ C00085 VJ=0.10
MOVJ C00086 VJ=0.10
MOVJ C00087 VJ=0.10
MOVJ C00088 VJ=0.10
MOVJ C00089 VJ=0.10
MOVJ C00090 VJ=0.10
MOVJ C00091 VJ=0.10
MOVJ C00092 VJ=0.10
MOVJ C00093 VJ=0.10
MOVJ C00094 VJ=0.10
MOVJ C00095 VJ=0.10
MOVJ C00096 VJ=0.10
MOVJ C00097 VJ=0.10
MOVJ C00098 VJ=0.10
MOVJ C00099 VJ=0.10
MOVJ C00100 VJ=0.10
MOVJ C00101 VJ=0.10
MOVJ C00102 VJ=0.10
MOVJ C00103 VJ=0.10
MOVJ C00104 VJ=0.10
MOVJ C00105 VJ=0.10
MOVJ C00106 VJ=0.10
MOVJ C00107 VJ=0.10
MOVJ C00108 VJ=0.10
MOVJ C00109 VJ=0.10
MOVJ C00110 VJ=0.10
MOVJ C00111 VJ=0.10
MOVJ C00112 VJ=0.10
MOVJ C00113 VJ=0.10
MOVJ C00114 VJ=0.10
MOVJ C00115 VJ=0.10
MOVJ C00116 VJ=0.10
MOVJ C00117 VJ=0.10
MOVJ C00118 VJ=0.10
MOVJ C00119 VJ=0.10
MOVJ C00120 VJ=0.10
MOVJ C00121 VJ=0.10
MOVJ C00122 VJ=0.10
MOVJ C00123 VJ=0.10
MOVJ C00124 VJ=0.10
MOVJ C00125 VJ=0.10
MOVJ C00126 VJ=0.78
MOVJ C00127 VJ=0.78
MOVJ C00128 VJ=0.10
MOVJ C00129 VJ=0.10
MOVJ C00130 VJ=0.10
MOVJ C00131 VJ=0.10
MOVJ C00132 VJ=0.10
MOVJ C00133 VJ=0.10
MOVJ C00134 VJ=0.10
MOVJ C00135 VJ=0.10
MOVJ C00136 VJ=0.10
MOVJ C00137 VJ=0.10
MOVJ C00138 VJ=0.10
MOVJ C00139 VJ=0.10
MOVJ C00140 VJ=0.10
MOVJ C00141 VJ=0.10
MOVJ C00142 VJ=0.10
MOVJ C00143 VJ=0.10
MOVJ C00144 VJ=0.10
MOVJ C00145 VJ=0.10
MOVJ C00146 VJ=0.10
MOVJ C00147 VJ=0.10
MOVJ C00148 VJ=0.10
MOVJ C00149 VJ=0.10
MOVJ C00150 VJ=0.10
MOVJ C00151 VJ=0.10
MOVJ C00152 VJ=0.10
MOVJ C00153 VJ=0.10
MOVJ C00154 VJ=0.10
MOVJ C00155 VJ=0.10
MOVJ C00156 VJ=0.10
MOVJ C00157 VJ=0.10
MOVJ C00158 VJ=0.10
MOVJ C00159 VJ=0.10
MOVJ C00160 VJ=0.10
MOVJ C00161 VJ=0.10
MOVJ C00162 VJ=0.10
MOVJ C00163 VJ=0.10
MOVJ C00164 VJ=0.10
MOVJ C00165 VJ=0.10
MOVJ C00166 VJ=0.10
MOVJ C00167 VJ=0.10
MOVJ C00168 VJ=0.10
MOVJ C00169 VJ=0.10
MOVJ C00170 VJ=0.10
MOVJ C00171 VJ=0.10
MOVJ C00172 VJ=0.10
MOVJ C00173 VJ=0.10
MOVJ C00174 VJ=0.10
MOVJ C00175 VJ=0.10
MOVJ C00176 VJ=0.10
MOVJ C00177 VJ=0.10
MOVJ C00178 VJ=0.10
MOVJ C00179 VJ=0.10
MOVJ C00180 VJ=0.10
MOVJ C00181 VJ=0.10
MOVJ C00182 VJ=0.10
MOVJ C00183 VJ=0.10
MOVJ C00184 VJ=0.10
MOVJ C00185 VJ=0.10
MOVJ C00186 VJ=0.10
MOVJ C00187 VJ=0.10
MOVJ C00188 VJ=0.10
MOVJ C00189 VJ=0.78
MOVJ C00190 VJ=0.78
MOVJ C00191 VJ=0.10
MOVJ C00192 VJ=0.10
MOVJ C00193 VJ=0.10
MOVJ C00194 VJ=0.10
MOVJ C00195 VJ=0.10
MOVJ C00196 VJ=0.10
MOVJ C00197 VJ=0.10
MOVJ C00198 VJ=0.10
MOVJ C00199 VJ=0.10
MOVJ C00200 VJ=0.10
MOVJ C00201 VJ=0.10
MOVJ C00202 VJ=0.10
MOVJ C00203 VJ=0.10
MOVJ C00204 VJ=0.10
MOVJ C00205 VJ=0.10
MOVJ C00206 VJ=0.10
MOVJ C00207 VJ=0.10
MOVJ C00208 VJ=0.10
MOVJ C00209 VJ=0.10
MOVJ C00210 VJ=0.10
MOVJ C00211 VJ=0.10
MOVJ C00212 VJ=0.10
MOVJ C00213 VJ=0.10
MOVJ C00214 VJ=0.10
MOVJ C00215 VJ=0.10
MOVJ C00216 VJ=0.10
MOVJ C00217 VJ=0.10
MOVJ C00218 VJ=0.10
MOVJ C00219 VJ=0.10
MOVJ C00220 VJ=0.10
MOVJ C00221 VJ=0.10
MOVJ C00222 VJ=0.10
MOVJ C00223 VJ=0.10
MOVJ C00224 VJ=0.10
MOVJ C00225 VJ=0.10
MOVJ C00226 VJ=0.10
MOVJ C00227 VJ=0.10
MOVJ C00228 VJ=0.10
MOVJ C00229 VJ=0.10
MOVJ C00230 VJ=0.10
MOVJ C00231 VJ=0.10
MOVJ C00232 VJ=0.10
MOVJ C00233 VJ=0.10
MOVJ C00234 VJ=0.10
MOVJ C00235 VJ=0.10
MOVJ C00236 VJ=0.10
MOVJ C00237 VJ=0.10
MOVJ C00238 VJ=0.10
MOVJ C00239 VJ=0.10
MOVJ C00240 VJ=0.10
MOVJ C00241 VJ=0.10
MOVJ C00242 VJ=0.10
MOVJ C00243 VJ=0.10
MOVJ C00244 VJ=0.10
MOVJ C00245 VJ=0.10
MOVJ C00246 VJ=0.10
MOVJ C00247 VJ=0.10
MOVJ C00248 VJ=0.10
MOVJ C00249 VJ=0.10
MOVJ C00250 VJ=0.10
MOVJ C00251 VJ=0.10
MOVJ C00252 VJ=0.78
MOVJ C00253 VJ=0.78
MOVJ C00254 VJ=0.10
MOVJ C00255 VJ=0.10
MOVJ C00256 VJ=0.10
MOVJ C00257 VJ=0.10
MOVJ C00258 VJ=0.10
MOVJ C00259 VJ=0.10
MOVJ C00260 VJ=0.10
MOVJ C00261 VJ=0.10
MOVJ C00262 VJ=0.10
MOVJ C00263 VJ=0.10
MOVJ C00264 VJ=0.10
MOVJ C00265 VJ=0.10
MOVJ C00266 VJ=0.10
MOVJ C00267 VJ=0.10
MOVJ C00268 VJ=0.10
MOVJ C00269 VJ=0.10
MOVJ C00270 VJ=0.10
MOVJ C00271 VJ=0.10
MOVJ C00272 VJ=0.10
MOVJ C00273 VJ=0.10
MOVJ C00274 VJ=0.10
MOVJ C00275 VJ=0.10
MOVJ C00276 VJ=0.10
MOVJ C00277 VJ=0.10
MOVJ C00278 VJ=0.10
MOVJ C00279 VJ=0.10
MOVJ C00280 VJ=0.10
MOVJ C00281 VJ=0.10
MOVJ C00282 VJ=0.10
MOVJ C00283 VJ=0.10
MOVJ C00284 VJ=0.10
MOVJ C00285 VJ=0.10
MOVJ C00286 VJ=0.10
MOVJ C00287 VJ=0.10
MOVJ C00288 VJ=0.10
MOVJ C00289 VJ=0.10
MOVJ C00290 VJ=0.10
MOVJ C00291 VJ=0.10
MOVJ C00292 VJ=0.10
MOVJ C00293 VJ=0.10
MOVJ C00294 VJ=0.10
MOVJ C00295 VJ=0.10
MOVJ C00296 VJ=0.10
MOVJ C00297 VJ=0.10
MOVJ C00298 VJ=0.10
MOVJ C00299 VJ=0.10
MOVJ C00300 VJ=0.10
MOVJ C00301 VJ=0.10
MOVJ C00302 VJ=0.10
MOVJ C00303 VJ=0.10
MOVJ C00304 VJ=0.10
MOVJ C00305 VJ=0.10
MOVJ C00306 VJ=0.10
MOVJ C00307 VJ=0.10
MOVJ C00308 VJ=0.10
MOVJ C00309 VJ=0.10
MOVJ C00310 VJ=0.10
MOVJ C00311 VJ=0.10
MOVJ C00312 VJ=0.10
MOVJ C00313 VJ=0.10
MOVJ C00314 VJ=0.10
MOVJ C00315 VJ=0.78
MOVJ C00316 VJ=0.78
MOVJ C00317 VJ=0.10
MOVJ C00318 VJ=0.10
MOVJ C00319 VJ=0.10
MOVJ C00320 VJ=0.10
MOVJ C00321 VJ=0.10
MOVJ C00322 VJ=0.10
MOVJ C00323 VJ=0.10
MOVJ C00324 VJ=0.10
MOVJ C00325 VJ=0.10
MOVJ C00326 VJ=0.10
MOVJ C00327 VJ=0.10
MOVJ C00328 VJ=0.10
MOVJ C00329 VJ=0.10
MOVJ C00330 VJ=0.10
MOVJ C00331 VJ=0.10
MOVJ C00332 VJ=0.10
MOVJ C00333 VJ=0.10
MOVJ C00334 VJ=0.10
MOVJ C00335 VJ=0.10
MOVJ C00336 VJ=0.10
MOVJ C00337 VJ=0.10
MOVJ C00338 VJ=0.10
MOVJ C00339 VJ=0.10
MOVJ C00340 VJ=0.10
MOVJ C00341 VJ=0.10
MOVJ C00342 VJ=0.10
MOVJ C00343 VJ=0.10
MOVJ C00344 VJ=0.10
MOVJ C00345 VJ=0.10
MOVJ C00346 VJ=0.10
MOVJ C00347 VJ=0.10
MOVJ C00348 VJ=0.10
MOVJ C00349 VJ=0.10
MOVJ C00350 VJ=0.10
MOVJ C00351 VJ=0.10
MOVJ C00352 VJ=0.10
MOVJ C00353 VJ=0.10
MOVJ C00354 VJ=0.10
MOVJ C00355 VJ=0.10
MOVJ C00356 VJ=0.10
MOVJ C00357 VJ=0.10
MOVJ C00358 VJ=0.10
MOVJ C00359 VJ=0.10
MOVJ C00360 VJ=0.10
MOVJ C00361 VJ=0.10
MOVJ C00362 VJ=0.10
MOVJ C00363 VJ=0.10
MOVJ C00364 VJ=0.10
MOVJ C00365 VJ=0.10
MOVJ C00366 VJ=0.10
MOVJ C00367 VJ=0.10
MOVJ C00368 VJ=0.10
MOVJ C00369 VJ=0.10
MOVJ C00370 VJ=0.10
MOVJ C00371 VJ=0.10
MOVJ C00372 VJ=0.10
MOVJ C00373 VJ=0.10
MOVJ C00374 VJ=0.10
MOVJ C00375 VJ=0.10
MOVJ C00376 VJ=0.10
MOVJ C00377 VJ=0.10
MOVJ C00378 VJ=0.78
MOVJ C00379 VJ=0.78
END
