/JOB
//NAME CONTOUR2
//POS
///NPOS 820,0,0,0,0,0
///TOOL 0
///POSTYPE PULSE
///PULSE
C00000=3811,31631,-29134,676,-27450,-2228
C00001=2783,32449,-26752,816,-27744,-1823
C00002=2783,32449,-28152,816,-27744,-1823
C00003=2623,32368,-28252,840,-27712,-1762
C00004=2486,32254,-28390,861,-27669,-1709
C00005=2329,32168,-28495,884,-27635,-1648
C00006=2180,32069,-28616,906,-27597,-1591
C00007=2082,31953,-28758,922,-27553,-1554
C00008=2094,31807,-28934,922,-27499,-1560
C00009=2106,31662,-29109,922,-27445,-1565
C00010=2118,31516,-29285,921,-27392,-1571
C00011=2129,31370,-29461,921,-27338,-1577
C00012=2141,31225,-29637,921,-27284,-1582
C00013=2153,31079,-29813,921,-27230,-1588
C00014=2165,30934,-29989,921,-27177,-1594
C00015=2176,30788,-30164,921,-27123,-1599
C00016=2188,30643,-30340,921,-27069,-1605
C00017=2254,30521,-30486,913,-27025,-1631
C00018=2425,30483,-30531,888,-27013,-1698
C00019=2593,30435,-30588,865,-26996,-1764
C00020=2768,30402,-30628,839,-26985,-1832
C00021=2942,30369,-30667,814,-26975,-1900
C00022=3116,30332,-30711,789,-26962,-1967
C00023=3269,30250,-30809,768,-26933,-2027
C00024=3441,30208,-30859,743,-26919,-2094
C00025=3617,30175,-30899,718,-26908,-2162
C00026=3793,30142,-30938,692,-26897,-2231
C00027=3997,30171,-30901,662,-26910,-2309
C00028=4169,30244,-30812,636,-26938,-2376
C00029=4326,30336,-30700,612,-26974,-2436
C00030=4463,30453,-30557,591,-27018,-2488
C00031=4623,30540,-30452,567,-27052,-2550
C00032=4776,30635,-30336,544,-27089,-2608
C00033=4939,30717,-30236,520,-27120,-2671
C00034=5101,30799,-30135,495,-27152,-2734
C00035=5261,30884,-30032,471,-27185,-2795
C00036=5391,31007,-29882,452,-27232,-2845
C00037=5550,31093,-29777,428,-27266,-2906
C00038=5538,31237,-29603,429,-27319,-2901
C00039=5520,31382,-29427,431,-27373,-2893
C00040=5501,31526,-29252,432,-27427,-2885
C00041=5482,31671,-29076,434,-27481,-2877
C00042=5463,31816,-28901,436,-27535,-2869
C00043=5444,31961,-28725,438,-27589,-2861
C00044=5425,32106,-28550,440,-27643,-2853
C00045=5406,32250,-28374,442,-27697,-2846
C00046=5357,32381,-28216,448,-27745,-2826
C00047=5204,32463,-28118,469,-27774,-2766
C00048=5033,32501,-28073,494,-27787,-2699
C00049=4880,32580,-27978,515,-27815,-2639
C00050=4711,32621,-27930,539,-27828,-2573
C00051=4536,32647,-27900,564,-27836,-2505
C00052=4371,32697,-27840,587,-27853,-2441
C00053=4202,32736,-27795,611,-27866,-2375
C00054=4033,32774,-27750,635,-27878,-2309
C00055=3883,32856,-27651,656,-27907,-2250
C00056=3734,32939,-27553,676,-27936,-2191
C00057=3552,32892,-27611,703,-27917,-2120
C00058=3396,32806,-27716,725,-27883,-2060
C00059=3260,32694,-27852,746,-27840,-2008
C00060=3101,32613,-27952,769,-27808,-1946
C00061=2942,32531,-28052,793,-27776,-1885
C00062=2783,32449,-28152,816,-27744,-1823
C00063=2783,32449,-26752,816,-27744,-1823
C00064=2636,32647,-26515,835,-27816,-1765
C00065=2636,32647,-27915,835,-27816,-1765
C00066=2791,32743,-27797,812,-27853,-1824
C00067=2954,32825,-27696,788,-27885,-1888
C00068=3113,32913,-27588,765,-27920,-1949
C00069=3245,33040,-27434,745,-27968,-2000
C00070=3430,33091,-27370,718,-27989,-2072
C00071=3546,33220,-27214,701,-28038,-2116
C00072=3530,33369,-27033,702,-28094,-2109
C00073=3515,33518,-26853,703,-28149,-2102
C00074=3499,33667,-26673,703,-28204,-2095
C00075=3483,33816,-26492,704,-28259,-2088
C00076=3468,33965,-26312,705,-28315,-2081
C00077=3452,34114,-26132,706,-28370,-2074
C00078=3437,34263,-25951,707,-28425,-2067
C00079=3421,34412,-25771,708,-28480,-2061
C00080=3406,34561,-25591,709,-28536,-2054
C00081=3390,34710,-25410,710,-28591,-2047
C00082=3375,34860,-25230,711,-28646,-2040
C00083=3359,35009,-25050,712,-28701,-2033
C00084=3343,35158,-24869,713,-28757,-2026
C00085=3328,35307,-24689,714,-28812,-2019
C00086=3256,35429,-24542,723,-28856,-1990
C00087=3093,35476,-24487,745,-28872,-1926
C00088=2963,35355,-24634,764,-28825,-1875
C00089=2836,35229,-24788,782,-28776,-1826
C00090=2709,35104,-24942,801,-28728,-1777
C00091=2582,34978,-25095,820,-28680,-1728
C00092=2453,34852,-25249,839,-28631,-1678
C00093=2325,34726,-25403,858,-28583,-1629
C00094=2196,34600,-25557,877,-28534,-1579
C00095=2066,34474,-25710,897,-28486,-1529
C00096=1937,34348,-25864,916,-28437,-1479
C00097=1806,34222,-26018,936,-28389,-1429
C00098=1675,34096,-26172,955,-28341,-1379
C00099=1544,33969,-26326,975,-28292,-1328
C00100=1387,33880,-26435,998,-28257,-1267
C00101=1255,33754,-26588,1018,-28209,-1217
C00102=1122,33628,-26742,1038,-28161,-1166
C00103=989,33501,-26896,1058,-28112,-1115
C00104=856,33375,-27050,1079,-28064,-1064
C00105=722,33248,-27204,1099,-28016,-1012
C00106=588,33122,-27358,1120,-27968,-961
C00107=453,32995,-27512,1140,-27919,-909
C00108=295,32903,-27625,1164,-27883,-848
C00109=213,32771,-27786,1177,-27834,-817
C00110=160,32639,-27945,1186,-27785,-798
C00111=308,32555,-28045,1167,-27755,-857
C00112=480,32521,-28084,1143,-27745,-924
C00113=653,32488,-28122,1119,-27735,-992
C00114=825,32455,-28161,1095,-27725,-1060
C00115=984,32390,-28238,1073,-27703,-1122
C00116=1153,32350,-28285,1050,-27689,-1189
C00117=1317,32294,-28352,1027,-27671,-1253
C00118=1490,32261,-28390,1003,-27660,-1321
C00119=1665,32228,-28429,978,-27650,-1389
C00120=1839,32195,-28467,954,-27640,-1457
C00121=2005,32277,-28366,929,-27672,-1521
C00122=2170,32360,-28265,905,-27704,-1585
C00123=2335,32442,-28164,880,-27737,-1649
C00124=2477,32558,-28024,859,-27781,-1703
C00125=2636,32647,-27915,835,-27816,-1765
C00126=2636,32647,-26515,835,-27816,-1765
C00127=3783,33201,-25834,667,-28034,-2209
C00128=3783,33201,-27234,667,-28034,-2209
C00129=3915,33109,-27345,649,-28001,-2261
C00130=4085,33070,-27391,625,-27989,-2327
C00131=4247,33014,-27457,602,-27970,-2391
C00132=4420,32981,-27496,578,-27959,-2458
C00133=4593,32948,-27535,554,-27949,-2526
C00134=4747,32870,-27628,532,-27921,-2586
C00135=4918,32831,-27674,508,-27909,-2653
C00136=5087,32786,-27727,484,-27894,-2719
C00137=5261,32753,-27766,459,-27883,-2787
C00138=5435,32720,-27805,435,-27872,-2855
C00139=5595,32802,-27704,411,-27905,-2917
C00140=5753,32883,-27604,388,-27937,-2978
C00141=5912,32965,-27504,365,-27969,-3040
C00142=6051,33071,-27374,344,-28010,-3093
C00143=6205,33158,-27268,322,-28044,-3153
C00144=6345,33263,-27139,301,-28085,-3207
C00145=6502,33344,-27039,279,-28117,-3268
C00146=6659,33426,-26939,256,-28149,-3329
C00147=6816,33507,-26839,233,-28182,-3390
C00148=6971,33590,-26737,211,-28214,-3450
C00149=6967,33695,-26610,211,-28254,-3449
C00150=6812,33778,-26511,233,-28283,-3388
C00151=6657,33860,-26411,255,-28313,-3327
C00152=6503,33943,-26312,276,-28342,-3267
C00153=6349,34026,-26213,298,-28371,-3207
C00154=6195,34109,-26113,319,-28401,-3146
C00155=6042,34192,-26014,341,-28430,-3086
C00156=5889,34275,-25914,362,-28459,-3027
C00157=5737,34358,-25815,383,-28489,-2967
C00158=5569,34397,-25769,407,-28501,-2901
C00159=5417,34480,-25669,427,-28531,-2841
C00160=5266,34563,-25570,448,-28560,-2782
C00161=5116,34647,-25470,469,-28589,-2723
C00162=4966,34730,-25371,489,-28618,-2664
C00163=4816,34813,-25271,510,-28648,-2605
C00164=4667,34897,-25172,530,-28677,-2546
C00165=4518,34980,-25072,551,-28706,-2487
C00166=4370,35063,-24973,571,-28735,-2429
C00167=4222,35147,-24873,591,-28764,-2371
C00168=4074,35230,-24773,611,-28794,-2312
C00169=3927,35314,-24674,631,-28823,-2254
C00170=3781,35398,-24574,650,-28852,-2196
C00171=3686,35506,-24444,663,-28891,-2158
C00172=3550,35496,-24457,681,-28885,-2105
C00173=3551,35352,-24632,682,-28832,-2106
C00174=3567,35205,-24809,681,-28777,-2113
C00175=3583,35059,-24987,680,-28723,-2120
C00176=3599,34912,-25164,679,-28669,-2127
C00177=3639,34777,-25327,675,-28619,-2144
C00178=3704,34654,-25476,667,-28574,-2170
C00179=3720,34507,-25653,666,-28520,-2177
C00180=3736,34361,-25830,665,-28465,-2184
C00181=3752,34214,-26008,663,-28411,-2191
C00182=3768,34068,-26185,662,-28357,-2198
C00183=3784,33921,-26362,661,-28302,-2205
C00184=3799,33775,-26539,660,-28248,-2212
C00185=3815,33628,-26717,659,-28194,-2219
C00186=3777,33490,-26884,666,-28142,-2205
C00187=3768,33348,-27057,668,-28089,-2202
C00188=3783,33201,-27234,667,-28034,-2209
C00189=3783,33201,-25834,667,-28034,-2209
C00190=5710,32542,-26618,396,-27809,-2963
C00191=5710,32542,-28018,396,-27809,-2963
C00192=5704,32427,-28158,398,-27766,-2961
C00193=5720,32308,-28302,396,-27721,-2967
C00194=5736,32189,-28446,394,-27677,-2974
C00195=5752,32070,-28590,393,-27633,-2981
C00196=5768,31952,-28734,391,-27588,-2987
C00197=5784,31833,-28878,389,-27544,-2994
C00198=5800,31714,-29022,388,-27500,-3001
C00199=5816,31595,-29166,386,-27456,-3007
C00200=5832,31476,-29310,385,-27411,-3014
C00201=5848,31358,-29454,383,-27367,-3021
C00202=5864,31239,-29598,381,-27323,-3027
C00203=5880,31120,-29742,380,-27279,-3034
C00204=5979,31039,-29840,366,-27249,-3073
C00205=6122,31006,-29880,345,-27238,-3128
C00206=6273,30993,-29894,323,-27234,-3187
C00207=6404,30929,-29971,304,-27212,-3237
C00208=6550,30904,-30002,283,-27203,-3294
C00209=6698,30881,-30029,261,-27196,-3352
C00210=6846,30858,-30056,240,-27188,-3409
C00211=6977,30791,-30137,221,-27164,-3460
C00212=7113,30739,-30199,201,-27146,-3513
C00213=7256,30702,-30244,180,-27133,-3568
C00214=7399,30664,-30290,159,-27120,-3623
C00215=7566,30688,-30260,134,-27130,-3688
C00216=7710,30742,-30194,113,-27151,-3743
C00217=7728,30855,-30056,110,-27194,-3750
C00218=7709,30973,-29912,112,-27238,-3742
C00219=7690,31092,-29768,115,-27282,-3735
C00220=7671,31210,-29625,117,-27327,-3727
C00221=7652,31329,-29481,120,-27371,-3719
C00222=7632,31447,-29337,122,-27416,-3712
C00223=7613,31566,-29193,124,-27460,-3704
C00224=7594,31684,-29049,127,-27504,-3696
C00225=7575,31803,-28905,129,-27549,-3689
C00226=7556,31921,-28761,132,-27593,-3681
C00227=7537,32040,-28618,134,-27637,-3673
C00228=7518,32158,-28474,136,-27682,-3666
C00229=7499,32277,-28330,139,-27726,-3658
C00230=7480,32395,-28186,141,-27770,-3651
C00231=7461,32513,-28042,144,-27815,-3643
C00232=7441,32632,-27898,146,-27859,-3635
C00233=7422,32750,-27754,149,-27903,-3628
C00234=7403,32869,-27611,151,-27948,-3620
C00235=7384,32987,-27467,153,-27992,-3612
C00236=7365,33106,-27323,156,-28036,-3605
C00237=7346,33224,-27179,158,-28081,-3597
C00238=7279,33320,-27063,167,-28116,-3571
C00239=7152,33387,-26982,186,-28140,-3521
C00240=7035,33389,-26981,202,-28139,-3476
C00241=6933,33290,-27102,217,-28101,-3436
C00242=6804,33225,-27182,236,-28075,-3386
C00243=6692,33138,-27289,252,-28042,-3343
C00244=6572,33062,-27382,270,-28012,-3296
C00245=6442,32998,-27461,289,-27987,-3246
C00246=6311,32934,-27539,308,-27961,-3195
C00247=6208,32833,-27662,323,-27923,-3155
C00248=6077,32770,-27740,342,-27898,-3104
C00249=5946,32707,-27817,361,-27873,-3053
C00250=5842,32606,-27940,377,-27834,-3014
C00251=5710,32542,-28018,396,-27809,-2963
C00252=5710,32542,-26618,396,-27809,-2963
C00253=7614,33052,-25986,120,-28019,-3702
C00254=7614,33052,-27386,120,-28019,-3702
C00255=8249,33190,-27215,28,-28077,-3948
C00256=8925,33550,-26772,-69,-28219,-4211
C00257=9627,33655,-26639,-170,-28266,-4484
C00258=9708,33052,-27374,-182,-28038,-4515
C00259=9663,32443,-28116,-176,-27808,-4497
C00260=9346,31872,-28813,-129,-27589,-4375
C00261=8843,31342,-29460,-55,-27385,-4180
C00262=8332,30811,-30107,21,-27182,-3984
C00263=7859,30289,-30742,93,-26982,-3802
C00264=7186,29872,-31252,194,-26821,-3543
C00265=6470,29500,-31705,302,-26677,-3268
C00266=6259,28937,-32388,337,-26466,-3189
C00267=6346,28300,-33161,328,-26228,-3225
C00268=6316,27678,-33915,336,-25996,-3216
C00269=5592,27281,-34397,448,-25844,-2940
C00270=4888,26850,-34919,558,-25681,-2672
C00271=4068,26558,-35273,685,-25569,-2359
C00272=3294,26782,-35002,800,-25648,-2061
C00273=2506,26963,-34785,916,-25711,-1757
C00274=2030,27348,-34320,983,-25851,-1570
C00275=1982,27990,-33546,982,-26088,-1547
C00276=2000,28611,-32795,972,-26317,-1548
C00277=1260,28841,-32520,1079,-26397,-1260
C00278=524,29067,-32250,1184,-26474,-974
C00279=-170,29312,-31959,1282,-26559,-703
C00280=-802,29685,-31512,1368,-26690,-454
C00281=-1414,30064,-31059,1451,-26823,-212
C00282=-1919,30490,-30551,1516,-26974,-11
C00283=-2160,31032,-29900,1541,-27170,90
C00284=-2244,31644,-29165,1542,-27392,130
C00285=-1969,32068,-28652,1496,-27550,28
C00286=-1238,31920,-28823,1395,-27505,-260
C00287=-519,31735,-29040,1296,-27445,-542
C00288=-224,32223,-28450,1247,-27627,-652
C00289=-157,32851,-27692,1228,-27859,-672
C00290=448,33356,-27077,1136,-28052,-904
C00291=273,33806,-26536,1155,-28216,-832
C00292=-293,34198,-26069,1228,-28352,-606
C00293=-568,34725,-25437,1258,-28542,-492
C00294=-408,35336,-24698,1227,-28769,-549
C00295=-251,35947,-23959,1197,-28996,-605
C00296=276,35985,-23906,1125,-29018,-813
C00297=941,35749,-24182,1038,-28941,-1077
C00298=1629,35551,-24413,946,-28879,-1350
C00299=2301,35300,-24709,856,-28795,-1616
C00300=2935,35707,-24209,765,-28955,-1862
C00301=3528,35920,-23943,681,-29043,-2094
C00302=4113,35531,-24409,603,-28906,-2326
C00303=4757,35878,-23980,512,-29045,-2577
C00304=5378,36282,-23483,424,-29205,-2820
C00305=5966,36721,-22943,342,-29378,-3050
C00306=6553,37152,-22412,260,-29549,-3280
C00307=7004,36706,-22949,199,-29387,-3458
C00308=7264,36146,-23627,163,-29180,-3561
C00309=7333,35559,-24341,155,-28959,-3589
C00310=6925,35004,-25019,213,-28745,-3430
C00311=6453,34457,-25688,281,-28534,-3246
C00312=6950,34019,-26217,212,-28375,-3441
C00313=7591,33675,-26629,122,-28253,-3692
C00314=7614,33052,-27386,120,-28019,-3702
C00315=7614,33052,-25986,120,-28019,-3702
C00316=8010,32803,-26287,63,-27929,-3856
C00317=8010,32803,-27687,63,-27929,-3856
C00318=7918,32739,-27766,77,-27904,-3820
C00319=7808,32696,-27818,93,-27886,-3777
C00320=7767,32610,-27923,99,-27854,-3762
C00321=7783,32516,-28037,97,-27819,-3768
C00322=7799,32422,-28151,95,-27783,-3774
C00323=7814,32328,-28266,93,-27748,-3781
C00324=7830,32234,-28380,91,-27713,-3787
C00325=7846,32140,-28494,89,-27678,-3793
C00326=7861,32046,-28609,87,-27642,-3799
C00327=7877,31951,-28723,85,-27607,-3805
C00328=7892,31857,-28837,83,-27572,-3812
C00329=7908,31763,-28951,81,-27537,-3818
C00330=7924,31669,-29066,79,-27501,-3824
C00331=7939,31575,-29180,77,-27466,-3830
C00332=7955,31481,-29294,75,-27431,-3837
C00333=7970,31387,-29408,73,-27396,-3843
C00334=7986,31293,-29523,71,-27360,-3849
C00335=8002,31199,-29637,69,-27325,-3855
C00336=8017,31105,-29751,67,-27290,-3861
C00337=8126,31062,-29803,51,-27275,-3904
C00338=8232,31113,-29740,35,-27295,-3944
C00339=8314,31193,-29642,23,-27326,-3976
C00340=8396,31274,-29544,11,-27356,-4008
C00341=8478,31354,-29447,-2,-27387,-4039
C00342=8560,31434,-29349,-14,-27418,-4071
C00343=8605,31519,-29245,-21,-27450,-4088
C00344=8664,31602,-29144,-29,-27482,-4111
C00345=8745,31682,-29046,-41,-27513,-4142
C00346=8826,31762,-28948,-53,-27544,-4173
C00347=8907,31842,-28851,-65,-27574,-4205
C00348=8988,31922,-28753,-77,-27605,-4236
C00349=9068,32002,-28656,-89,-27636,-4267
C00350=9089,32090,-28548,-92,-27670,-4275
C00351=9169,32170,-28450,-104,-27700,-4306
C00352=9209,32256,-28346,-110,-27733,-4322
C00353=9270,32338,-28245,-119,-27765,-4345
C00354=9291,32427,-28137,-122,-27798,-4353
C00355=9324,32513,-28032,-127,-27831,-4366
C00356=9389,32595,-27932,-136,-27863,-4391
C00357=9371,32689,-27818,-134,-27898,-4385
C00358=9431,32771,-27717,-142,-27930,-4408
C00359=9419,32864,-27604,-141,-27965,-4403
C00360=9401,32958,-27490,-138,-28000,-4396
C00361=9432,33045,-27384,-142,-28033,-4408
C00362=9448,33134,-27276,-145,-28067,-4414
C00363=9430,33227,-27161,-142,-28102,-4407
C00364=9342,33288,-27088,-129,-28124,-4373
C00365=9238,33341,-27024,-114,-28143,-4333
C00366=9129,33377,-26981,-99,-28156,-4290
C00367=9032,33320,-27052,-85,-28133,-4253
C00368=8923,33277,-27104,-69,-28116,-4210
C00369=8829,33216,-27180,-55,-28092,-4174
C00370=8735,33155,-27255,-42,-28068,-4137
C00371=8656,33075,-27352,-30,-28037,-4107
C00372=8547,33032,-27405,-14,-28020,-4064
C00373=8442,32983,-27465,1,-28001,-4024
C00374=8327,32947,-27510,17,-27986,-3979
C00375=8226,32893,-27576,32,-27965,-3940
C00376=8138,32824,-27660,45,-27938,-3906
C00377=8010,32803,-27687,63,-27929,-3856
C00378=8010,32803,-26287,63,-27929,-3856
C00379=6194,34591,-24128,317,-28581,-3145
C00380=6194,34591,-25528,317,-28581,-3145
C00381=6278,34676,-25424,305,-28614,-3177
C00382=6361,34761,-25320,293,-28647,-3210
C00383=6444,34845,-25217,281,-28680,-3242
C00384=6471,34939,-25103,277,-28715,-3252
C00385=6554,35023,-24999,265,-28748,-3285
C00386=6637,35108,-24895,253,-28781,-3317
C00387=6664,35202,-24781,249,-28816,-3327
C00388=6746,35286,-24678,238,-28849,-3359
C00389=6828,35371,-24574,226,-28882,-3391
C00390=6910,35456,-24471,214,-28915,-3423
C00391=6992,35540,-24367,202,-28948,-3455
C00392=7035,35631,-24256,196,-28983,-3472
C00393=7043,35727,-24139,195,-29019,-3475
C00394=7081,35818,-24028,189,-29054,-3490
C00395=7065,35918,-23906,192,-29091,-3483
C00396=7035,36012,-23793,196,-29126,-3471
C00397=6961,36084,-23706,206,-29152,-3442
C00398=6945,36184,-23584,208,-29190,-3436
C00399=6874,36257,-23496,217,-29216,-3408
C00400=6842,36350,-23384,222,-29251,-3395
C00401=6816,36445,-23268,225,-29286,-3385
C00402=6740,36515,-23184,235,-29312,-3355
C00403=6710,36609,-23071,239,-29346,-3343
C00404=6607,36666,-23002,253,-29366,-3303
C00405=6505,36723,-22934,267,-29387,-3262
C00406=6390,36714,-22946,283,-29381,-3217
C00407=6310,36630,-23050,294,-29349,-3186
C00408=6229,36545,-23154,306,-29316,-3154
C00409=6148,36461,-23257,317,-29283,-3123
C00410=6040,36413,-23316,332,-29264,-3080
C00411=5932,36365,-23376,347,-29244,-3038
C00412=5849,36282,-23478,359,-29211,-3005
C00413=5750,36221,-23553,373,-29187,-2967
C00414=5658,36150,-23640,386,-29159,-2931
C00415=5568,36076,-23731,399,-29130,-2896
C00416=5467,36018,-23802,413,-29107,-2856
C00417=5357,35971,-23861,429,-29088,-2813
C00418=5274,35886,-23965,440,-29055,-2781
C00419=5192,35802,-24068,452,-29022,-2749
C00420=5081,35754,-24127,468,-29003,-2705
C00421=4979,35696,-24198,482,-28980,-2665
C00422=4886,35624,-24287,496,-28952,-2629
C00423=4777,35575,-24348,511,-28932,-2587
C00424=4694,35490,-24452,523,-28899,-2554
C00425=4691,35392,-24571,524,-28862,-2554
C00426=4715,35297,-24686,521,-28827,-2563
C00427=4817,35240,-24754,507,-28807,-2604
C00428=4919,35182,-24823,493,-28787,-2644
C00429=5022,35125,-24891,479,-28767,-2684
C00430=5124,35068,-24959,465,-28747,-2725
C00431=5227,35011,-25028,451,-28727,-2765
C00432=5330,34953,-25096,437,-28707,-2806
C00433=5433,34896,-25165,423,-28686,-2846
C00434=5537,34839,-25233,409,-28666,-2887
C00435=5641,34782,-25301,395,-28646,-2928
C00436=5744,34725,-25370,380,-28626,-2969
C00437=5848,34668,-25438,366,-28606,-3009
C00438=5953,34611,-25506,351,-28586,-3050
C00439=6063,34568,-25557,336,-28571,-3093
C00440=6194,34591,-25528,317,-28581,-3145
C00441=6194,34591,-24128,317,-28581,-3145
C00442=2136,34979,-23699,882,-28674,-1553
C00443=2136,34979,-25099,882,-28674,-1553
C00444=2101,35063,-24998,886,-28704,-1539
C00445=2003,35120,-24930,899,-28724,-1500
C00446=1904,35178,-24861,912,-28744,-1461
C00447=1788,35191,-24846,928,-28748,-1415
C00448=1672,35207,-24828,944,-28752,-1369
C00449=1568,35250,-24778,957,-28766,-1328
C00450=1457,35276,-24748,972,-28774,-1284
C00451=1360,35334,-24679,985,-28794,-1245
C00452=1257,35379,-24625,999,-28810,-1205
C00453=1147,35405,-24596,1014,-28817,-1161
C00454=1031,35419,-24581,1029,-28821,-1115
C00455=934,35476,-24512,1042,-28841,-1077
C00456=819,35490,-24497,1057,-28844,-1031
C00457=722,35548,-24429,1070,-28864,-993
C00458=613,35576,-24396,1084,-28873,-950
C00459=511,35619,-24345,1098,-28887,-909
C00460=396,35633,-24330,1113,-28890,-863
C00461=301,35691,-24261,1126,-28910,-825
C00462=206,35749,-24193,1138,-28930,-787
C00463=104,35792,-24142,1151,-28944,-747
C00464=1,35732,-24215,1166,-28921,-707
C00465=-12,35635,-24333,1169,-28885,-703
C00466=-68,35544,-24443,1178,-28850,-681
C00467=-77,35445,-24562,1181,-28814,-679
C00468=-137,35356,-24671,1190,-28780,-656
C00469=-142,35256,-24791,1192,-28743,-655
C00470=-137,35155,-24913,1193,-28706,-658
C00471=-188,35064,-25024,1201,-28672,-639
C00472=-203,34966,-25142,1204,-28636,-634
C00473=-198,34865,-25264,1205,-28599,-637
C00474=-193,34764,-25386,1206,-28562,-640
C00475=-188,34663,-25507,1207,-28525,-643
C00476=-183,34562,-25629,1207,-28487,-646
C00477=-120,34488,-25717,1200,-28461,-671
C00478=-76,34406,-25817,1195,-28431,-689
C00479=21,34348,-25885,1182,-28412,-728
C00480=118,34290,-25954,1170,-28392,-766
C00481=215,34232,-26022,1157,-28372,-805
C00482=294,34166,-26101,1147,-28348,-837
C00483=358,34092,-26190,1139,-28322,-862
C00484=455,34035,-26258,1126,-28302,-901
C00485=535,33969,-26337,1116,-28279,-933
C00486=599,33895,-26426,1108,-28252,-958
C00487=697,33837,-26494,1095,-28233,-997
C00488=802,33794,-26545,1081,-28218,-1039
C00489=933,33817,-26516,1062,-28228,-1090
C00490=1022,33902,-26413,1049,-28261,-1124
C00491=1112,33987,-26309,1035,-28293,-1159
C00492=1200,34072,-26205,1022,-28326,-1193
C00493=1289,34157,-26101,1009,-28358,-1227
C00494=1378,34242,-25998,995,-28391,-1261
C00495=1466,34327,-25894,982,-28424,-1295
C00496=1554,34412,-25790,969,-28456,-1329
C00497=1642,34497,-25686,956,-28489,-1362
C00498=1675,34592,-25572,950,-28524,-1375
C00499=1762,34676,-25469,937,-28557,-1408
C00500=1875,34724,-25410,921,-28576,-1452
C00501=1962,34809,-25307,908,-28608,-1486
C00502=2049,34894,-25203,895,-28641,-1519
C00503=2136,34979,-25099,882,-28674,-1553
C00504=2136,34979,-23699,882,-28674,-1553
C00505=285,32343,-26901,1173,-27677,-850
C00506=285,32343,-28301,1173,-27677,-850
C00507=149,32347,-28297,1192,-27677,-797
C00508=89,32241,-28426,1202,-27637,-774
C00509=95,32123,-28567,1203,-27594,-778
C00510=101,32006,-28709,1204,-27551,-781
C00511=107,31889,-28850,1205,-27508,-785
C00512=113,31771,-28992,1205,-27465,-788
C00513=119,31654,-29133,1206,-27422,-792
C00514=125,31537,-29275,1207,-27379,-795
C00515=131,31419,-29416,1208,-27336,-799
C00516=137,31302,-29558,1209,-27293,-802
C00517=143,31185,-29699,1209,-27250,-805
C00518=149,31067,-29841,1210,-27207,-809
C00519=155,30950,-29982,1211,-27163,-812
C00520=161,30833,-30123,1212,-27120,-816
C00521=167,30715,-30265,1212,-27077,-819
C00522=173,30598,-30406,1213,-27034,-823
C00523=179,30481,-30548,1214,-26991,-826
C00524=185,30363,-30689,1215,-26948,-830
C00525=191,30246,-30831,1216,-26905,-833
C00526=122,30140,-30959,1227,-26865,-807
C00527=122,30023,-31099,1229,-26823,-809
C00528=128,29906,-31241,1230,-26779,-812
C00529=134,29789,-31382,1231,-26736,-815
C00530=139,29671,-31524,1231,-26693,-819
C00531=273,29632,-31570,1213,-26680,-871
C00532=420,29680,-31512,1190,-26699,-928
C00533=558,29742,-31436,1169,-26723,-980
C00534=669,29842,-31315,1152,-26761,-1022
C00535=781,29939,-31197,1134,-26797,-1065
C00536=916,30004,-31119,1114,-26822,-1117
C00537=1034,30093,-31011,1095,-26856,-1162
C00538=1163,30166,-30922,1076,-26884,-1211
C00539=1299,30228,-30846,1055,-26908,-1263
C00540=1435,30290,-30771,1035,-26932,-1315
C00541=1544,30389,-30650,1018,-26970,-1357
C00542=1700,30423,-30609,995,-26984,-1417
C00543=1815,30513,-30499,977,-27018,-1461
C00544=1866,30621,-30368,968,-27058,-1480
C00545=1857,30738,-30227,968,-27102,-1476
C00546=1848,30855,-30085,968,-27145,-1471
C00547=1839,30972,-29944,968,-27188,-1467
C00548=1830,31089,-29803,968,-27231,-1463
C00549=1821,31206,-29661,968,-27274,-1458
C00550=1813,31324,-29520,968,-27317,-1454
C00551=1804,31441,-29379,968,-27361,-1449
C00552=1795,31558,-29237,967,-27404,-1445
C00553=1786,31675,-29096,967,-27447,-1441
C00554=1777,31792,-28955,967,-27490,-1436
C00555=1698,31877,-28852,977,-27521,-1405
C00556=1580,31943,-28773,994,-27544,-1358
C00557=1441,31965,-28747,1013,-27551,-1304
C00558=1323,32032,-28668,1029,-27574,-1258
C00559=1185,32054,-28642,1049,-27581,-1203
C00560=1067,32120,-28563,1065,-27604,-1157
C00561=930,32143,-28537,1084,-27611,-1103
C00562=792,32165,-28511,1103,-27617,-1049
C00563=660,32197,-28473,1122,-27628,-997
C00564=530,32237,-28427,1140,-27641,-947
C00565=401,32276,-28381,1157,-27654,-896
C00566=285,32343,-28301,1173,-27677,-850
C00567=285,32343,-26901,1173,-27677,-850
C00568=-465,31478,-27950,1292,-27351,-566
C00569=-465,31478,-29350,1292,-27351,-566
C00570=-579,31492,-29334,1308,-27355,-521
C00571=-679,31535,-29282,1322,-27370,-482
C00572=-791,31552,-29263,1337,-27375,-438
C00573=-907,31562,-29252,1354,-27377,-392
C00574=-1008,31604,-29202,1367,-27391,-353
C00575=-1137,31585,-29226,1386,-27383,-302
C00576=-1237,31629,-29174,1400,-27398,-263
C00577=-1348,31647,-29153,1415,-27403,-220
C00578=-1442,31701,-29089,1428,-27422,-182
C00579=-1557,31711,-29077,1444,-27425,-137
C00580=-1662,31742,-29042,1458,-27434,-96
C00581=-1765,31776,-29001,1472,-27446,-55
C00582=-1879,31750,-29034,1489,-27435,-11
C00583=-1931,31662,-29140,1498,-27402,8
C00584=-1929,31566,-29255,1499,-27367,6
C00585=-1927,31470,-29371,1500,-27332,4
C00586=-1925,31374,-29486,1502,-27297,2
C00587=-1923,31278,-29602,1503,-27262,0
C00588=-1868,31206,-29688,1497,-27236,-22
C00589=-1840,31121,-29790,1494,-27206,-34
C00590=-1838,31025,-29906,1495,-27171,-36
C00591=-1808,30942,-30006,1492,-27140,-48
C00592=-1755,30869,-30093,1486,-27114,-70
C00593=-1731,30783,-30197,1484,-27083,-80
C00594=-1672,30712,-30281,1477,-27058,-104
C00595=-1597,30649,-30357,1467,-27035,-134
C00596=-1509,30591,-30425,1456,-27015,-169
C00597=-1463,30515,-30517,1450,-26988,-187
C00598=-1424,30435,-30613,1446,-26959,-204
C00599=-1329,30381,-30678,1433,-26940,-241
C00600=-1233,30327,-30742,1420,-26921,-279
C00601=-1138,30272,-30807,1407,-26902,-317
C00602=-1042,30218,-30872,1394,-26883,-355
C00603=-946,30164,-30937,1381,-26864,-393
C00604=-906,30084,-31032,1377,-26836,-409
C00605=-810,30030,-31097,1364,-26817,-447
C00606=-713,29976,-31162,1351,-26798,-485
C00607=-616,29922,-31226,1338,-26779,-523
C00608=-519,29868,-31291,1324,-26760,-561
C00609=-417,29824,-31343,1310,-26745,-601
C00610=-284,29843,-31319,1290,-26753,-653
C00611=-164,29883,-31270,1273,-26769,-699
C00612=-119,29972,-31163,1265,-26801,-716
C00613=-123,30067,-31048,1264,-26837,-713
C00614=-128,30163,-30932,1263,-26872,-710
C00615=-132,30259,-30817,1262,-26907,-708
C00616=-137,30355,-30701,1262,-26942,-705
C00617=-141,30451,-30586,1261,-26977,-702
C00618=-146,30547,-30470,1260,-27012,-699
C00619=-150,30642,-30355,1259,-27047,-697
C00620=-155,30738,-30239,1259,-27083,-694
C00621=-159,30834,-30124,1258,-27118,-691
C00622=-164,30930,-30008,1257,-27153,-689
C00623=-168,31026,-29893,1256,-27188,-686
C00624=-173,31122,-29777,1256,-27223,-683
C00625=-177,31217,-29662,1255,-27258,-680
C00626=-182,31313,-29546,1254,-27294,-678
C00627=-274,31369,-29480,1266,-27313,-641
C00628=-370,31423,-29415,1279,-27332,-604
C00629=-465,31478,-29350,1292,-27351,-566
C00630=-465,31478,-27950,1292,-27351,-566
C00631=1173,29869,-29880,1078,-26775,-1218
C00632=1173,29869,-31280,1078,-26775,-1218
C00633=1036,29801,-31363,1099,-26749,-1165
C00634=906,29724,-31456,1119,-26719,-1115
C00635=775,29647,-31550,1139,-26690,-1066
C00636=641,29574,-31639,1160,-26662,-1014
C00637=528,29472,-31762,1178,-26623,-971
C00638=493,29365,-31892,1184,-26584,-959
C00639=617,29297,-31972,1167,-26560,-1007
C00640=762,29274,-32000,1146,-26552,-1064
C00641=887,29207,-32080,1129,-26529,-1113
C00642=1050,29220,-32064,1105,-26535,-1176
C00643=1188,29181,-32110,1085,-26521,-1230
C00644=1325,29138,-32162,1065,-26507,-1283
C00645=1450,29071,-32243,1048,-26483,-1332
C00646=1597,29048,-32270,1026,-26475,-1389
C00647=1744,29025,-32297,1005,-26468,-1446
C00648=1885,28990,-32338,985,-26456,-1501
C00649=2025,28952,-32384,965,-26443,-1555
C00650=2164,28912,-32432,944,-26429,-1609
C00651=2306,28875,-32475,924,-26417,-1664
C00652=2460,28866,-32486,901,-26414,-1724
C00653=2608,28843,-32513,880,-26407,-1781
C00654=2756,28820,-32540,858,-26400,-1839
C00655=2899,28786,-32581,837,-26388,-1894
C00656=3040,28748,-32627,817,-26375,-1949
C00657=3181,28708,-32674,796,-26361,-2004
C00658=3324,28672,-32718,776,-26348,-2059
C00659=3466,28634,-32763,755,-26335,-2114
C00660=3608,28596,-32809,734,-26322,-2169
C00661=3751,28558,-32854,713,-26309,-2224
C00662=3922,28582,-32824,688,-26319,-2290
C00663=4019,28677,-32709,672,-26355,-2327
C00664=4007,28796,-32565,673,-26399,-2322
C00665=3995,28915,-32421,674,-26443,-2316
C00666=3982,29034,-32277,674,-26487,-2311
C00667=3970,29153,-32133,675,-26531,-2305
C00668=3957,29273,-31989,676,-26576,-2299
C00669=3945,29392,-31845,677,-26620,-2294
C00670=3932,29511,-31701,677,-26664,-2288
C00671=3920,29630,-31557,678,-26708,-2283
C00672=3852,29724,-31443,687,-26742,-2256
C00673=3724,29791,-31362,706,-26766,-2206
C00674=3597,29858,-31282,724,-26790,-2156
C00675=3470,29925,-31201,742,-26814,-2107
C00676=3327,29958,-31163,762,-26825,-2051
C00677=3188,29996,-31117,782,-26838,-1997
C00678=3050,30038,-31066,802,-26853,-1944
C00679=2909,30072,-31026,822,-26864,-1889
C00680=2758,30084,-31012,844,-26868,-1830
C00681=2613,30107,-30985,865,-26875,-1774
C00682=2487,30175,-30904,883,-26899,-1725
C00683=2342,30198,-30877,904,-26906,-1668
C00684=2217,30264,-30797,921,-26930,-1619
C00685=2073,30288,-30769,942,-26937,-1563
C00686=1950,30329,-30721,959,-26951,-1515
C00687=1839,30227,-30844,977,-26913,-1473
C00688=1701,30163,-30922,998,-26888,-1420
C00689=1589,30061,-31046,1015,-26849,-1377
C00690=1451,29997,-31124,1036,-26824,-1324
C00691=1312,29933,-31202,1057,-26800,-1271
C00692=1173,29869,-31280,1078,-26775,-1218
C00693=1173,29869,-29880,1078,-26775,-1218
C00694=2384,28630,-31372,915,-26327,-1697
C00695=2384,28630,-32772,915,-26327,-1697
C00696=2274,28549,-32870,932,-26296,-1655
C00697=2285,28404,-33044,932,-26243,-1660
C00698=2297,28260,-33219,932,-26189,-1666
C00699=2308,28115,-33393,932,-26136,-1671
C00700=2320,27971,-33568,932,-26083,-1677
C00701=2331,27826,-33742,932,-26029,-1682
C00702=2343,27682,-33917,932,-25976,-1688
C00703=2354,27537,-34091,932,-25923,-1694
C00704=2366,27393,-34266,932,-25869,-1699
C00705=2438,27275,-34408,923,-25826,-1728
C00706=2610,27226,-34467,898,-25809,-1794
C00707=2790,27193,-34506,871,-25798,-1864
C00708=2971,27161,-34545,844,-25787,-1934
C00709=3132,27085,-34637,821,-25760,-1996
C00710=3311,27048,-34680,794,-25747,-2065
C00711=3486,27000,-34738,769,-25730,-2133
C00712=3668,26968,-34777,741,-25719,-2203
C00713=3850,26936,-34816,714,-25708,-2273
C00714=4032,26903,-34855,687,-25697,-2344
C00715=4215,26871,-34894,660,-25686,-2414
C00716=4427,26901,-34857,627,-25698,-2495
C00717=4598,26984,-34757,601,-25729,-2560
C00718=4746,27096,-34622,578,-25771,-2616
C00719=4913,27182,-34518,552,-25804,-2680
C00720=5067,27285,-34392,528,-25844,-2738
C00721=5218,27391,-34264,504,-25883,-2796
C00722=5384,27477,-34160,478,-25916,-2859
C00723=5551,27563,-34056,452,-25949,-2923
C00724=5716,27648,-33951,427,-25982,-2986
C00725=5882,27734,-33847,401,-26015,-3049
C00726=5978,27863,-33692,386,-26063,-3086
C00727=6046,27994,-33532,375,-26113,-3111
C00728=6027,28138,-33357,377,-26166,-3103
C00729=6008,28282,-33183,379,-26220,-3095
C00730=5990,28425,-33009,380,-26273,-3088
C00731=5971,28569,-32835,382,-26327,-3080
C00732=5952,28713,-32661,384,-26380,-3072
C00733=5933,28856,-32487,386,-26434,-3064
C00734=5900,28994,-32320,390,-26485,-3051
C00735=5741,29075,-32223,413,-26514,-2989
C00736=5549,29033,-32274,442,-26497,-2915
C00737=5415,28910,-32423,463,-26451,-2864
C00738=5252,28825,-32527,488,-26418,-2802
C00739=5089,28739,-32631,513,-26385,-2739
C00740=4926,28654,-32735,538,-26352,-2677
C00741=4790,28532,-32883,559,-26306,-2625
C00742=4623,28449,-32983,584,-26274,-2561
C00743=4462,28359,-33093,609,-26240,-2500
C00744=4326,28236,-33242,631,-26193,-2448
C00745=4121,28202,-33284,661,-26179,-2369
C00746=3913,28172,-33321,693,-26167,-2289
C00747=3753,28248,-33230,716,-26194,-2227
C00748=3576,28284,-33186,742,-26206,-2159
C00749=3399,28321,-33142,768,-26219,-2090
C00750=3226,28365,-33088,793,-26234,-2023
C00751=3048,28398,-33049,819,-26245,-1954
C00752=2890,28475,-32957,842,-26273,-1893
C00753=2714,28512,-32913,868,-26285,-1825
C00754=2560,28593,-32815,890,-26314,-1764
C00755=2384,28630,-32772,915,-26327,-1697
C00756=2384,28630,-31372,915,-26327,-1697
C00757=4270,28691,-31292,635,-26362,-2424
C00758=4270,28691,-32692,635,-26362,-2424
C00759=4411,28653,-32738,614,-26348,-2478
C00760=4539,28730,-32644,594,-26378,-2527
C00761=4671,28803,-32555,574,-26406,-2578
C00762=4796,28883,-32457,555,-26437,-2625
C00763=4919,28966,-32357,536,-26468,-2673
C00764=5051,29037,-32270,516,-26495,-2723
C00765=5179,29114,-32177,496,-26525,-2772
C00766=5306,29191,-32083,477,-26554,-2821
C00767=5442,29256,-32004,456,-26579,-2873
C00768=5601,29292,-31960,432,-26594,-2934
C00769=5728,29369,-31867,413,-26623,-2982
C00770=5855,29445,-31774,394,-26653,-3031
C00771=5992,29508,-31697,373,-26677,-3084
C00772=6106,29599,-31586,355,-26712,-3128
C00773=6236,29671,-31499,336,-26740,-3177
C00774=6372,29734,-31422,315,-26764,-3230
C00775=6509,29797,-31345,295,-26789,-3282
C00776=6615,29897,-31223,278,-26827,-3323
C00777=6751,29960,-31147,258,-26851,-3375
C00778=6858,30058,-31026,242,-26889,-3416
C00779=7022,30085,-30993,217,-26900,-3479
C00780=7149,30159,-30903,198,-26929,-3528
C00781=7273,30235,-30810,179,-26958,-3576
C00782=7398,30311,-30718,161,-26987,-3624
C00783=7326,30402,-30607,171,-27021,-3596
C00784=7195,30468,-30528,190,-27045,-3545
C00785=7066,30534,-30448,209,-27069,-3495
C00786=6918,30556,-30422,230,-27076,-3438
C00787=6771,30578,-30396,252,-27083,-3381
C00788=6629,30611,-30357,273,-27094,-3326
C00789=6489,30649,-30311,293,-27107,-3271
C00790=6349,30687,-30265,313,-27120,-3217
C00791=6203,30710,-30238,335,-27128,-3160
C00792=6057,30732,-30212,356,-27135,-3104
C00793=5929,30798,-30132,374,-27159,-3054
C00794=5783,30821,-30106,396,-27166,-2998
C00795=5658,30873,-30044,414,-27184,-2949
C00796=5529,30803,-30129,433,-27157,-2899
C00797=5418,30710,-30242,450,-27122,-2857
C00798=5312,30610,-30364,466,-27083,-2816
C00799=5177,30547,-30440,486,-27059,-2764
C00800=5041,30484,-30517,506,-27035,-2712
C00801=4907,30420,-30596,527,-27009,-2660
C00802=4782,30343,-30689,546,-26980,-2612
C00803=4657,30267,-30782,564,-26950,-2564
C00804=4527,30196,-30869,584,-26923,-2514
C00805=4406,30114,-30969,603,-26891,-2468
C00806=4283,30033,-31068,621,-26860,-2421
C00807=4219,29926,-31197,632,-26820,-2397
C00808=4148,29820,-31325,643,-26781,-2370
C00809=4161,29703,-31468,642,-26737,-2375
C00810=4173,29585,-31610,641,-26693,-2381
C00811=4265,29503,-31709,628,-26663,-2417
C00812=4278,29385,-31851,628,-26620,-2423
C00813=4291,29267,-31994,627,-26576,-2428
C00814=4230,29160,-32124,637,-26536,-2405
C00815=4232,29044,-32265,637,-26493,-2407
C00816=4244,28926,-32407,637,-26449,-2412
C00817=4257,28809,-32549,636,-26405,-2418
C00818=4270,28691,-32692,635,-26362,-2424
C00819=4270,28691,-31292,635,-26362,-2424
//INST
///DATE 2026/04/29 10:00
///ATTR SC,RW
///GROUP1 RB1
NOP
MOVJ C00000 VJ=0.78
MOVJ C00001 VJ=0.78
MOVJ C00002 VJ=0.78
MOVL C00003 V=8.0
MOVL C00004 V=8.0
MOVL C00005 V=8.0
MOVL C00006 V=8.0
MOVL C00007 V=8.0
MOVL C00008 V=8.0
MOVL C00009 V=8.0
MOVL C00010 V=8.0
MOVL C00011 V=8.0
MOVL C00012 V=8.0
MOVL C00013 V=8.0
MOVL C00014 V=8.0
MOVL C00015 V=8.0
MOVL C00016 V=8.0
MOVL C00017 V=8.0
MOVL C00018 V=8.0
MOVL C00019 V=8.0
MOVL C00020 V=8.0
MOVL C00021 V=8.0
MOVL C00022 V=8.0
MOVL C00023 V=8.0
MOVL C00024 V=8.0
MOVL C00025 V=8.0
MOVL C00026 V=8.0
MOVL C00027 V=8.0
MOVL C00028 V=8.0
MOVL C00029 V=8.0
MOVL C00030 V=8.0
MOVL C00031 V=8.0
MOVL C00032 V=8.0
MOVL C00033 V=8.0
MOVL C00034 V=8.0
MOVL C00035 V=8.0
MOVL C00036 V=8.0
MOVL C00037 V=8.0
MOVL C00038 V=8.0
MOVL C00039 V=8.0
MOVL C00040 V=8.0
MOVL C00041 V=8.0
MOVL C00042 V=8.0
MOVL C00043 V=8.0
MOVL C00044 V=8.0
MOVL C00045 V=8.0
MOVL C00046 V=8.0
MOVL C00047 V=8.0
MOVL C00048 V=8.0
MOVL C00049 V=8.0
MOVL C00050 V=8.0
MOVL C00051 V=8.0
MOVL C00052 V=8.0
MOVL C00053 V=8.0
MOVL C00054 V=8.0
MOVL C00055 V=8.0
MOVL C00056 V=8.0
MOVL C00057 V=8.0
MOVL C00058 V=8.0
MOVL C00059 V=8.0
MOVL C00060 V=8.0
MOVL C00061 V=8.0
MOVL C00062 V=8.0
MOVJ C00063 VJ=0.78
MOVJ C00064 VJ=0.78
MOVJ C00065 VJ=0.78
MOVL C00066 V=8.0
MOVL C00067 V=8.0
MOVL C00068 V=8.0
MOVL C00069 V=8.0
MOVL C00070 V=8.0
MOVL C00071 V=8.0
MOVL C00072 V=8.0
MOVL C00073 V=8.0
MOVL C00074 V=8.0
MOVL C00075 V=8.0
MOVL C00076 V=8.0
MOVL C00077 V=8.0
MOVL C00078 V=8.0
MOVL C00079 V=8.0
MOVL C00080 V=8.0
MOVL C00081 V=8.0
MOVL C00082 V=8.0
MOVL C00083 V=8.0
MOVL C00084 V=8.0
MOVL C00085 V=8.0
MOVL C00086 V=8.0
MOVL C00087 V=8.0
MOVL C00088 V=8.0
MOVL C00089 V=8.0
MOVL C00090 V=8.0
MOVL C00091 V=8.0
MOVL C00092 V=8.0
MOVL C00093 V=8.0
MOVL C00094 V=8.0
MOVL C00095 V=8.0
MOVL C00096 V=8.0
MOVL C00097 V=8.0
MOVL C00098 V=8.0
MOVL C00099 V=8.0
MOVL C00100 V=8.0
MOVL C00101 V=8.0
MOVL C00102 V=8.0
MOVL C00103 V=8.0
MOVL C00104 V=8.0
MOVL C00105 V=8.0
MOVL C00106 V=8.0
MOVL C00107 V=8.0
MOVL C00108 V=8.0
MOVL C00109 V=8.0
MOVL C00110 V=8.0
MOVL C00111 V=8.0
MOVL C00112 V=8.0
MOVL C00113 V=8.0
MOVL C00114 V=8.0
MOVL C00115 V=8.0
MOVL C00116 V=8.0
MOVL C00117 V=8.0
MOVL C00118 V=8.0
MOVL C00119 V=8.0
MOVL C00120 V=8.0
MOVL C00121 V=8.0
MOVL C00122 V=8.0
MOVL C00123 V=8.0
MOVL C00124 V=8.0
MOVL C00125 V=8.0
MOVJ C00126 VJ=0.78
MOVJ C00127 VJ=0.78
MOVJ C00128 VJ=0.78
MOVL C00129 V=8.0
MOVL C00130 V=8.0
MOVL C00131 V=8.0
MOVL C00132 V=8.0
MOVL C00133 V=8.0
MOVL C00134 V=8.0
MOVL C00135 V=8.0
MOVL C00136 V=8.0
MOVL C00137 V=8.0
MOVL C00138 V=8.0
MOVL C00139 V=8.0
MOVL C00140 V=8.0
MOVL C00141 V=8.0
MOVL C00142 V=8.0
MOVL C00143 V=8.0
MOVL C00144 V=8.0
MOVL C00145 V=8.0
MOVL C00146 V=8.0
MOVL C00147 V=8.0
MOVL C00148 V=8.0
MOVL C00149 V=8.0
MOVL C00150 V=8.0
MOVL C00151 V=8.0
MOVL C00152 V=8.0
MOVL C00153 V=8.0
MOVL C00154 V=8.0
MOVL C00155 V=8.0
MOVL C00156 V=8.0
MOVL C00157 V=8.0
MOVL C00158 V=8.0
MOVL C00159 V=8.0
MOVL C00160 V=8.0
MOVL C00161 V=8.0
MOVL C00162 V=8.0
MOVL C00163 V=8.0
MOVL C00164 V=8.0
MOVL C00165 V=8.0
MOVL C00166 V=8.0
MOVL C00167 V=8.0
MOVL C00168 V=8.0
MOVL C00169 V=8.0
MOVL C00170 V=8.0
MOVL C00171 V=8.0
MOVL C00172 V=8.0
MOVL C00173 V=8.0
MOVL C00174 V=8.0
MOVL C00175 V=8.0
MOVL C00176 V=8.0
MOVL C00177 V=8.0
MOVL C00178 V=8.0
MOVL C00179 V=8.0
MOVL C00180 V=8.0
MOVL C00181 V=8.0
MOVL C00182 V=8.0
MOVL C00183 V=8.0
MOVL C00184 V=8.0
MOVL C00185 V=8.0
MOVL C00186 V=8.0
MOVL C00187 V=8.0
MOVL C00188 V=8.0
MOVJ C00189 VJ=0.78
MOVJ C00190 VJ=0.78
MOVJ C00191 VJ=0.78
MOVL C00192 V=8.0
MOVL C00193 V=8.0
MOVL C00194 V=8.0
MOVL C00195 V=8.0
MOVL C00196 V=8.0
MOVL C00197 V=8.0
MOVL C00198 V=8.0
MOVL C00199 V=8.0
MOVL C00200 V=8.0
MOVL C00201 V=8.0
MOVL C00202 V=8.0
MOVL C00203 V=8.0
MOVL C00204 V=8.0
MOVL C00205 V=8.0
MOVL C00206 V=8.0
MOVL C00207 V=8.0
MOVL C00208 V=8.0
MOVL C00209 V=8.0
MOVL C00210 V=8.0
MOVL C00211 V=8.0
MOVL C00212 V=8.0
MOVL C00213 V=8.0
MOVL C00214 V=8.0
MOVL C00215 V=8.0
MOVL C00216 V=8.0
MOVL C00217 V=8.0
MOVL C00218 V=8.0
MOVL C00219 V=8.0
MOVL C00220 V=8.0
MOVL C00221 V=8.0
MOVL C00222 V=8.0
MOVL C00223 V=8.0
MOVL C00224 V=8.0
MOVL C00225 V=8.0
MOVL C00226 V=8.0
MOVL C00227 V=8.0
MOVL C00228 V=8.0
MOVL C00229 V=8.0
MOVL C00230 V=8.0
MOVL C00231 V=8.0
MOVL C00232 V=8.0
MOVL C00233 V=8.0
MOVL C00234 V=8.0
MOVL C00235 V=8.0
MOVL C00236 V=8.0
MOVL C00237 V=8.0
MOVL C00238 V=8.0
MOVL C00239 V=8.0
MOVL C00240 V=8.0
MOVL C00241 V=8.0
MOVL C00242 V=8.0
MOVL C00243 V=8.0
MOVL C00244 V=8.0
MOVL C00245 V=8.0
MOVL C00246 V=8.0
MOVL C00247 V=8.0
MOVL C00248 V=8.0
MOVL C00249 V=8.0
MOVL C00250 V=8.0
MOVL C00251 V=8.0
MOVJ C00252 VJ=0.78
MOVJ C00253 VJ=0.78
MOVJ C00254 VJ=0.78
MOVL C00255 V=8.0
MOVL C00256 V=8.0
MOVL C00257 V=8.0
MOVL C00258 V=8.0
MOVL C00259 V=8.0
MOVL C00260 V=8.0
MOVL C00261 V=8.0
MOVL C00262 V=8.0
MOVL C00263 V=8.0
MOVL C00264 V=8.0
MOVL C00265 V=8.0
MOVL C00266 V=8.0
MOVL C00267 V=8.0
MOVL C00268 V=8.0
MOVL C00269 V=8.0
MOVL C00270 V=8.0
MOVL C00271 V=8.0
MOVL C00272 V=8.0
MOVL C00273 V=8.0
MOVL C00274 V=8.0
MOVL C00275 V=8.0
MOVL C00276 V=8.0
MOVL C00277 V=8.0
MOVL C00278 V=8.0
MOVL C00279 V=8.0
MOVL C00280 V=8.0
MOVL C00281 V=8.0
MOVL C00282 V=8.0
MOVL C00283 V=8.0
MOVL C00284 V=8.0
MOVL C00285 V=8.0
MOVL C00286 V=8.0
MOVL C00287 V=8.0
MOVL C00288 V=8.0
MOVL C00289 V=8.0
MOVL C00290 V=8.0
MOVL C00291 V=8.0
MOVL C00292 V=8.0
MOVL C00293 V=8.0
MOVL C00294 V=8.0
MOVL C00295 V=8.0
MOVL C00296 V=8.0
MOVL C00297 V=8.0
MOVL C00298 V=8.0
MOVL C00299 V=8.0
MOVL C00300 V=8.0
MOVL C00301 V=8.0
MOVL C00302 V=8.0
MOVL C00303 V=8.0
MOVL C00304 V=8.0
MOVL C00305 V=8.0
MOVL C00306 V=8.0
MOVL C00307 V=8.0
MOVL C00308 V=8.0
MOVL C00309 V=8.0
MOVL C00310 V=8.0
MOVL C00311 V=8.0
MOVL C00312 V=8.0
MOVL C00313 V=8.0
MOVL C00314 V=8.0
MOVJ C00315 VJ=0.78
MOVJ C00316 VJ=0.78
MOVJ C00317 VJ=0.78
MOVL C00318 V=8.0
MOVL C00319 V=8.0
MOVL C00320 V=8.0
MOVL C00321 V=8.0
MOVL C00322 V=8.0
MOVL C00323 V=8.0
MOVL C00324 V=8.0
MOVL C00325 V=8.0
MOVL C00326 V=8.0
MOVL C00327 V=8.0
MOVL C00328 V=8.0
MOVL C00329 V=8.0
MOVL C00330 V=8.0
MOVL C00331 V=8.0
MOVL C00332 V=8.0
MOVL C00333 V=8.0
MOVL C00334 V=8.0
MOVL C00335 V=8.0
MOVL C00336 V=8.0
MOVL C00337 V=8.0
MOVL C00338 V=8.0
MOVL C00339 V=8.0
MOVL C00340 V=8.0
MOVL C00341 V=8.0
MOVL C00342 V=8.0
MOVL C00343 V=8.0
MOVL C00344 V=8.0
MOVL C00345 V=8.0
MOVL C00346 V=8.0
MOVL C00347 V=8.0
MOVL C00348 V=8.0
MOVL C00349 V=8.0
MOVL C00350 V=8.0
MOVL C00351 V=8.0
MOVL C00352 V=8.0
MOVL C00353 V=8.0
MOVL C00354 V=8.0
MOVL C00355 V=8.0
MOVL C00356 V=8.0
MOVL C00357 V=8.0
MOVL C00358 V=8.0
MOVL C00359 V=8.0
MOVL C00360 V=8.0
MOVL C00361 V=8.0
MOVL C00362 V=8.0
MOVL C00363 V=8.0
MOVL C00364 V=8.0
MOVL C00365 V=8.0
MOVL C00366 V=8.0
MOVL C00367 V=8.0
MOVL C00368 V=8.0
MOVL C00369 V=8.0
MOVL C00370 V=8.0
MOVL C00371 V=8.0
MOVL C00372 V=8.0
MOVL C00373 V=8.0
MOVL C00374 V=8.0
MOVL C00375 V=8.0
MOVL C00376 V=8.0
MOVL C00377 V=8.0
MOVJ C00378 VJ=0.78
MOVJ C00379 VJ=0.78
MOVJ C00380 VJ=0.78
MOVL C00381 V=8.0
MOVL C00382 V=8.0
MOVL C00383 V=8.0
MOVL C00384 V=8.0
MOVL C00385 V=8.0
MOVL C00386 V=8.0
MOVL C00387 V=8.0
MOVL C00388 V=8.0
MOVL C00389 V=8.0
MOVL C00390 V=8.0
MOVL C00391 V=8.0
MOVL C00392 V=8.0
MOVL C00393 V=8.0
MOVL C00394 V=8.0
MOVL C00395 V=8.0
MOVL C00396 V=8.0
MOVL C00397 V=8.0
MOVL C00398 V=8.0
MOVL C00399 V=8.0
MOVL C00400 V=8.0
MOVL C00401 V=8.0
MOVL C00402 V=8.0
MOVL C00403 V=8.0
MOVL C00404 V=8.0
MOVL C00405 V=8.0
MOVL C00406 V=8.0
MOVL C00407 V=8.0
MOVL C00408 V=8.0
MOVL C00409 V=8.0
MOVL C00410 V=8.0
MOVL C00411 V=8.0
MOVL C00412 V=8.0
MOVL C00413 V=8.0
MOVL C00414 V=8.0
MOVL C00415 V=8.0
MOVL C00416 V=8.0
MOVL C00417 V=8.0
MOVL C00418 V=8.0
MOVL C00419 V=8.0
MOVL C00420 V=8.0
MOVL C00421 V=8.0
MOVL C00422 V=8.0
MOVL C00423 V=8.0
MOVL C00424 V=8.0
MOVL C00425 V=8.0
MOVL C00426 V=8.0
MOVL C00427 V=8.0
MOVL C00428 V=8.0
MOVL C00429 V=8.0
MOVL C00430 V=8.0
MOVL C00431 V=8.0
MOVL C00432 V=8.0
MOVL C00433 V=8.0
MOVL C00434 V=8.0
MOVL C00435 V=8.0
MOVL C00436 V=8.0
MOVL C00437 V=8.0
MOVL C00438 V=8.0
MOVL C00439 V=8.0
MOVL C00440 V=8.0
MOVJ C00441 VJ=0.78
MOVJ C00442 VJ=0.78
MOVJ C00443 VJ=0.78
MOVL C00444 V=8.0
MOVL C00445 V=8.0
MOVL C00446 V=8.0
MOVL C00447 V=8.0
MOVL C00448 V=8.0
MOVL C00449 V=8.0
MOVL C00450 V=8.0
MOVL C00451 V=8.0
MOVL C00452 V=8.0
MOVL C00453 V=8.0
MOVL C00454 V=8.0
MOVL C00455 V=8.0
MOVL C00456 V=8.0
MOVL C00457 V=8.0
MOVL C00458 V=8.0
MOVL C00459 V=8.0
MOVL C00460 V=8.0
MOVL C00461 V=8.0
MOVL C00462 V=8.0
MOVL C00463 V=8.0
MOVL C00464 V=8.0
MOVL C00465 V=8.0
MOVL C00466 V=8.0
MOVL C00467 V=8.0
MOVL C00468 V=8.0
MOVL C00469 V=8.0
MOVL C00470 V=8.0
MOVL C00471 V=8.0
MOVL C00472 V=8.0
MOVL C00473 V=8.0
MOVL C00474 V=8.0
MOVL C00475 V=8.0
MOVL C00476 V=8.0
MOVL C00477 V=8.0
MOVL C00478 V=8.0
MOVL C00479 V=8.0
MOVL C00480 V=8.0
MOVL C00481 V=8.0
MOVL C00482 V=8.0
MOVL C00483 V=8.0
MOVL C00484 V=8.0
MOVL C00485 V=8.0
MOVL C00486 V=8.0
MOVL C00487 V=8.0
MOVL C00488 V=8.0
MOVL C00489 V=8.0
MOVL C00490 V=8.0
MOVL C00491 V=8.0
MOVL C00492 V=8.0
MOVL C00493 V=8.0
MOVL C00494 V=8.0
MOVL C00495 V=8.0
MOVL C00496 V=8.0
MOVL C00497 V=8.0
MOVL C00498 V=8.0
MOVL C00499 V=8.0
MOVL C00500 V=8.0
MOVL C00501 V=8.0
MOVL C00502 V=8.0
MOVL C00503 V=8.0
MOVJ C00504 VJ=0.78
MOVJ C00505 VJ=0.78
MOVJ C00506 VJ=0.78
MOVL C00507 V=8.0
MOVL C00508 V=8.0
MOVL C00509 V=8.0
MOVL C00510 V=8.0
MOVL C00511 V=8.0
MOVL C00512 V=8.0
MOVL C00513 V=8.0
MOVL C00514 V=8.0
MOVL C00515 V=8.0
MOVL C00516 V=8.0
MOVL C00517 V=8.0
MOVL C00518 V=8.0
MOVL C00519 V=8.0
MOVL C00520 V=8.0
MOVL C00521 V=8.0
MOVL C00522 V=8.0
MOVL C00523 V=8.0
MOVL C00524 V=8.0
MOVL C00525 V=8.0
MOVL C00526 V=8.0
MOVL C00527 V=8.0
MOVL C00528 V=8.0
MOVL C00529 V=8.0
MOVL C00530 V=8.0
MOVL C00531 V=8.0
MOVL C00532 V=8.0
MOVL C00533 V=8.0
MOVL C00534 V=8.0
MOVL C00535 V=8.0
MOVL C00536 V=8.0
MOVL C00537 V=8.0
MOVL C00538 V=8.0
MOVL C00539 V=8.0
MOVL C00540 V=8.0
MOVL C00541 V=8.0
MOVL C00542 V=8.0
MOVL C00543 V=8.0
MOVL C00544 V=8.0
MOVL C00545 V=8.0
MOVL C00546 V=8.0
MOVL C00547 V=8.0
MOVL C00548 V=8.0
MOVL C00549 V=8.0
MOVL C00550 V=8.0
MOVL C00551 V=8.0
MOVL C00552 V=8.0
MOVL C00553 V=8.0
MOVL C00554 V=8.0
MOVL C00555 V=8.0
MOVL C00556 V=8.0
MOVL C00557 V=8.0
MOVL C00558 V=8.0
MOVL C00559 V=8.0
MOVL C00560 V=8.0
MOVL C00561 V=8.0
MOVL C00562 V=8.0
MOVL C00563 V=8.0
MOVL C00564 V=8.0
MOVL C00565 V=8.0
MOVL C00566 V=8.0
MOVJ C00567 VJ=0.78
MOVJ C00568 VJ=0.78
MOVJ C00569 VJ=0.78
MOVL C00570 V=8.0
MOVL C00571 V=8.0
MOVL C00572 V=8.0
MOVL C00573 V=8.0
MOVL C00574 V=8.0
MOVL C00575 V=8.0
MOVL C00576 V=8.0
MOVL C00577 V=8.0
MOVL C00578 V=8.0
MOVL C00579 V=8.0
MOVL C00580 V=8.0
MOVL C00581 V=8.0
MOVL C00582 V=8.0
MOVL C00583 V=8.0
MOVL C00584 V=8.0
MOVL C00585 V=8.0
MOVL C00586 V=8.0
MOVL C00587 V=8.0
MOVL C00588 V=8.0
MOVL C00589 V=8.0
MOVL C00590 V=8.0
MOVL C00591 V=8.0
MOVL C00592 V=8.0
MOVL C00593 V=8.0
MOVL C00594 V=8.0
MOVL C00595 V=8.0
MOVL C00596 V=8.0
MOVL C00597 V=8.0
MOVL C00598 V=8.0
MOVL C00599 V=8.0
MOVL C00600 V=8.0
MOVL C00601 V=8.0
MOVL C00602 V=8.0
MOVL C00603 V=8.0
MOVL C00604 V=8.0
MOVL C00605 V=8.0
MOVL C00606 V=8.0
MOVL C00607 V=8.0
MOVL C00608 V=8.0
MOVL C00609 V=8.0
MOVL C00610 V=8.0
MOVL C00611 V=8.0
MOVL C00612 V=8.0
MOVL C00613 V=8.0
MOVL C00614 V=8.0
MOVL C00615 V=8.0
MOVL C00616 V=8.0
MOVL C00617 V=8.0
MOVL C00618 V=8.0
MOVL C00619 V=8.0
MOVL C00620 V=8.0
MOVL C00621 V=8.0
MOVL C00622 V=8.0
MOVL C00623 V=8.0
MOVL C00624 V=8.0
MOVL C00625 V=8.0
MOVL C00626 V=8.0
MOVL C00627 V=8.0
MOVL C00628 V=8.0
MOVL C00629 V=8.0
MOVJ C00630 VJ=0.78
MOVJ C00631 VJ=0.78
MOVJ C00632 VJ=0.78
MOVL C00633 V=8.0
MOVL C00634 V=8.0
MOVL C00635 V=8.0
MOVL C00636 V=8.0
MOVL C00637 V=8.0
MOVL C00638 V=8.0
MOVL C00639 V=8.0
MOVL C00640 V=8.0
MOVL C00641 V=8.0
MOVL C00642 V=8.0
MOVL C00643 V=8.0
MOVL C00644 V=8.0
MOVL C00645 V=8.0
MOVL C00646 V=8.0
MOVL C00647 V=8.0
MOVL C00648 V=8.0
MOVL C00649 V=8.0
MOVL C00650 V=8.0
MOVL C00651 V=8.0
MOVL C00652 V=8.0
MOVL C00653 V=8.0
MOVL C00654 V=8.0
MOVL C00655 V=8.0
MOVL C00656 V=8.0
MOVL C00657 V=8.0
MOVL C00658 V=8.0
MOVL C00659 V=8.0
MOVL C00660 V=8.0
MOVL C00661 V=8.0
MOVL C00662 V=8.0
MOVL C00663 V=8.0
MOVL C00664 V=8.0
MOVL C00665 V=8.0
MOVL C00666 V=8.0
MOVL C00667 V=8.0
MOVL C00668 V=8.0
MOVL C00669 V=8.0
MOVL C00670 V=8.0
MOVL C00671 V=8.0
MOVL C00672 V=8.0
MOVL C00673 V=8.0
MOVL C00674 V=8.0
MOVL C00675 V=8.0
MOVL C00676 V=8.0
MOVL C00677 V=8.0
MOVL C00678 V=8.0
MOVL C00679 V=8.0
MOVL C00680 V=8.0
MOVL C00681 V=8.0
MOVL C00682 V=8.0
MOVL C00683 V=8.0
MOVL C00684 V=8.0
MOVL C00685 V=8.0
MOVL C00686 V=8.0
MOVL C00687 V=8.0
MOVL C00688 V=8.0
MOVL C00689 V=8.0
MOVL C00690 V=8.0
MOVL C00691 V=8.0
MOVL C00692 V=8.0
MOVJ C00693 VJ=0.78
MOVJ C00694 VJ=0.78
MOVJ C00695 VJ=0.78
MOVL C00696 V=8.0
MOVL C00697 V=8.0
MOVL C00698 V=8.0
MOVL C00699 V=8.0
MOVL C00700 V=8.0
MOVL C00701 V=8.0
MOVL C00702 V=8.0
MOVL C00703 V=8.0
MOVL C00704 V=8.0
MOVL C00705 V=8.0
MOVL C00706 V=8.0
MOVL C00707 V=8.0
MOVL C00708 V=8.0
MOVL C00709 V=8.0
MOVL C00710 V=8.0
MOVL C00711 V=8.0
MOVL C00712 V=8.0
MOVL C00713 V=8.0
MOVL C00714 V=8.0
MOVL C00715 V=8.0
MOVL C00716 V=8.0
MOVL C00717 V=8.0
MOVL C00718 V=8.0
MOVL C00719 V=8.0
MOVL C00720 V=8.0
MOVL C00721 V=8.0
MOVL C00722 V=8.0
MOVL C00723 V=8.0
MOVL C00724 V=8.0
MOVL C00725 V=8.0
MOVL C00726 V=8.0
MOVL C00727 V=8.0
MOVL C00728 V=8.0
MOVL C00729 V=8.0
MOVL C00730 V=8.0
MOVL C00731 V=8.0
MOVL C00732 V=8.0
MOVL C00733 V=8.0
MOVL C00734 V=8.0
MOVL C00735 V=8.0
MOVL C00736 V=8.0
MOVL C00737 V=8.0
MOVL C00738 V=8.0
MOVL C00739 V=8.0
MOVL C00740 V=8.0
MOVL C00741 V=8.0
MOVL C00742 V=8.0
MOVL C00743 V=8.0
MOVL C00744 V=8.0
MOVL C00745 V=8.0
MOVL C00746 V=8.0
MOVL C00747 V=8.0
MOVL C00748 V=8.0
MOVL C00749 V=8.0
MOVL C00750 V=8.0
MOVL C00751 V=8.0
MOVL C00752 V=8.0
MOVL C00753 V=8.0
MOVL C00754 V=8.0
MOVL C00755 V=8.0
MOVJ C00756 VJ=0.78
MOVJ C00757 VJ=0.78
MOVJ C00758 VJ=0.78
MOVL C00759 V=8.0
MOVL C00760 V=8.0
MOVL C00761 V=8.0
MOVL C00762 V=8.0
MOVL C00763 V=8.0
MOVL C00764 V=8.0
MOVL C00765 V=8.0
MOVL C00766 V=8.0
MOVL C00767 V=8.0
MOVL C00768 V=8.0
MOVL C00769 V=8.0
MOVL C00770 V=8.0
MOVL C00771 V=8.0
MOVL C00772 V=8.0
MOVL C00773 V=8.0
MOVL C00774 V=8.0
MOVL C00775 V=8.0
MOVL C00776 V=8.0
MOVL C00777 V=8.0
MOVL C00778 V=8.0
MOVL C00779 V=8.0
MOVL C00780 V=8.0
MOVL C00781 V=8.0
MOVL C00782 V=8.0
MOVL C00783 V=8.0
MOVL C00784 V=8.0
MOVL C00785 V=8.0
MOVL C00786 V=8.0
MOVL C00787 V=8.0
MOVL C00788 V=8.0
MOVL C00789 V=8.0
MOVL C00790 V=8.0
MOVL C00791 V=8.0
MOVL C00792 V=8.0
MOVL C00793 V=8.0
MOVL C00794 V=8.0
MOVL C00795 V=8.0
MOVL C00796 V=8.0
MOVL C00797 V=8.0
MOVL C00798 V=8.0
MOVL C00799 V=8.0
MOVL C00800 V=8.0
MOVL C00801 V=8.0
MOVL C00802 V=8.0
MOVL C00803 V=8.0
MOVL C00804 V=8.0
MOVL C00805 V=8.0
MOVL C00806 V=8.0
MOVL C00807 V=8.0
MOVL C00808 V=8.0
MOVL C00809 V=8.0
MOVL C00810 V=8.0
MOVL C00811 V=8.0
MOVL C00812 V=8.0
MOVL C00813 V=8.0
MOVL C00814 V=8.0
MOVL C00815 V=8.0
MOVL C00816 V=8.0
MOVL C00817 V=8.0
MOVL C00818 V=8.0
MOVJ C00819 VJ=0.78
END
