/JOB
//NAME CONTOUR2
//POS
///NPOS 3101,0,0,0,0,0
///TOOL 0
///POSTYPE PULSE
///PULSE
C00000=-41004,59868,4099,4900,-34257,16705
C00001=-41004,59868,1099,4900,-34257,16705
C00002=-41004,64596,1380,5213,-31659,16463
C00003=-41004,59868,1099,4900,-34257,16705
C00004=-41004,59868,9099,4900,-34257,16705
C00005=4252,32374,-26127,562,-29415,-2366
C00006=4343,32186,-26358,551,-29344,-2402
C00007=4343,33739,-26567,580,-28247,-2422
C00008=4359,32956,-27528,584,-27946,-2433
C00009=4763,33864,-26410,520,-28299,-2586
C00010=4570,32882,-27618,554,-27919,-2515
C00011=4034,32190,-28471,636,-27648,-2310
C00012=3712,31897,-28832,685,-27532,-2187
C00013=3222,31679,-29102,757,-27444,-1997
C00014=3600,32910,-27589,692,-27921,-2137
C00015=3727,33534,-26823,669,-28162,-2183
C00016=2992,32639,-27926,781,-27811,-1902
C00017=2771,32896,-27612,810,-27908,-1814
C00018=2611,32823,-27702,834,-27878,-1752
C00019=2321,33162,-27288,871,-28006,-1636
C00020=1916,32141,-28543,940,-27610,-1486
C00021=1267,31465,-29374,1041,-27346,-1238
C00022=2046,31833,-28920,925,-27493,-1539
C00023=2350,31967,-28753,880,-27548,-1656
C00024=2524,30689,-30319,868,-27059,-1733
C00025=3107,31030,-29898,780,-27194,-1957
C00026=3453,30788,-30193,732,-27104,-2092
C00027=4361,29964,-31201,607,-26793,-2449
C00028=4236,30833,-30135,618,-27127,-2396
C00029=4813,30504,-30536,536,-27005,-2621
C00030=5476,30376,-30691,440,-26960,-2879
C00031=4525,31244,-29628,573,-27288,-2506
C00032=4536,31709,-29058,568,-27467,-2508
C00033=5049,31283,-29579,496,-27306,-2709
C00034=5126,31934,-28778,481,-27558,-2736
C00035=5706,31533,-29268,400,-27408,-2963
C00036=6350,31674,-29092,306,-27467,-3213
C00037=7006,31993,-28697,209,-27596,-3466
C00038=7557,31789,-28945,130,-27522,-3681
C00039=7111,31210,-29659,197,-27294,-3509
C00040=6829,31521,-29278,237,-27412,-3399
C00041=6272,31263,-29598,319,-27308,-3184
C00042=6393,30897,-30047,303,-27168,-3232
C00043=6789,30596,-30415,247,-27054,-3386
C00044=8152,30909,-30025,46,-27185,-3913
C00045=8348,31306,-29535,16,-27340,-3989
C00046=8543,32462,-28112,-14,-27790,-4063
C00047=8274,32212,-28420,25,-27691,-3958
C00048=7910,32734,-27780,76,-27891,-3817
C00049=7810,32970,-27490,90,-27981,-3777
C00050=7061,32718,-27805,199,-27877,-3486
C00051=7169,32352,-28254,184,-27737,-3529
C00052=6821,32256,-28375,235,-27696,-3394
C00053=5994,31916,-28797,356,-27558,-3074
C00054=6341,32615,-27935,302,-27831,-3206
C00055=6806,33304,-27085,233,-28102,-3385
C00056=7839,33777,-26497,84,-28295,-3787
C00057=6744,33458,-26896,241,-28161,-3361
C00058=5848,32744,-27780,372,-27877,-3014
C00059=5187,32548,-28024,468,-27796,-2757
C00060=4849,31570,-29227,523,-27416,-2630
C00061=4699,32808,-27708,536,-27891,-2566
C00062=5016,34024,-26212,483,-28364,-2684
C00063=5767,34200,-25991,376,-28439,-2977
C00064=5981,34997,-25009,343,-28749,-3058
C00065=5567,34556,-25555,403,-28574,-2898
C00066=4739,34235,-25955,521,-28442,-2575
C00067=4343,33739,-26567,580,-28247,-2422
C00068=4343,32186,-26358,551,-29344,-2402
C00069=3259,32397,-26106,703,-29415,-1977
C00070=3259,33950,-26315,732,-28318,-1997
C00071=2614,34891,-25166,813,-28673,-1739
C00072=2043,33892,-26395,903,-28283,-1522
C00073=1475,32826,-27706,995,-27869,-1308
C00074=891,31760,-29015,1091,-27456,-1089
C00075=-219,31326,-29553,1256,-27280,-661
C00076=-785,31987,-28748,1327,-27527,-434
C00077=-296,32833,-27709,1245,-27855,-616
C00078=-307,34071,-26194,1229,-28327,-600
C00079=-318,35309,-24679,1213,-28800,-583
C00080=-329,36547,-23164,1197,-29272,-567
C00081=-796,37284,-22268,1249,-29547,-375
C00082=40,37775,-21657,1130,-29746,-701
C00083=1270,37914,-21473,964,-29816,-1187
C00084=1257,36797,-22842,979,-29388,-1191
C00085=864,35918,-23923,1043,-29047,-1043
C00086=896,34680,-25439,1054,-28573,-1066
C00087=1299,34887,-25182,995,-28657,-1223
C00088=1873,35947,-23878,905,-29070,-1440
C00089=2426,37007,-22572,818,-29484,-1651
C00090=3075,36182,-23578,738,-29174,-1912
C00091=3731,35248,-24718,655,-28822,-2175
C00092=4305,34671,-25423,579,-28606,-2403
C00093=4214,35909,-23903,583,-29082,-2361
C00094=4083,37112,-22427,593,-29544,-2304
C00095=3570,37842,-21536,657,-29819,-2098
C00096=4449,38275,-20995,536,-29998,-2444
C00097=5648,38368,-20867,374,-30050,-2918
C00098=5576,37278,-22208,388,-29627,-2893
C00099=5352,36306,-23406,424,-29248,-2807
C00100=5566,35346,-24584,399,-28880,-2894
C00101=5486,36574,-23074,404,-29354,-2859
C00102=5898,37404,-22050,344,-29680,-3019
C00103=5718,38583,-20602,364,-30134,-2945
C00104=4490,38444,-20787,529,-30064,-2459
C00105=3393,38189,-21111,678,-29951,-2026
C00106=3472,36951,-22630,677,-29475,-2064
C00107=4003,36225,-23517,610,-29201,-2277
C00108=4032,35124,-24868,614,-28778,-2294
C00109=3371,36059,-23727,698,-29130,-2029
C00110=2729,36994,-22586,778,-29482,-1771
C00111=2129,36803,-22826,861,-29401,-1535
C00112=1574,35741,-24133,948,-28987,-1324
C00113=1057,34974,-25077,1028,-28688,-1127
C00114=1022,36212,-23561,1018,-29161,-1103
C00115=1494,37020,-22566,945,-29476,-1283
C00116=1292,38080,-21269,960,-29880,-1195
C00117=65,37941,-21454,1125,-29810,-709
C00118=-959,37608,-21873,1266,-29669,-307
C00119=-911,36411,-23336,1278,-29213,-338
C00120=-488,35633,-24285,1232,-28921,-513
C00121=-480,34395,-25799,1249,-28449,-529
C00122=-472,33157,-27314,1266,-27977,-544
C00123=-960,32311,-28353,1347,-27649,-362
C00124=-950,31078,-29861,1364,-27179,-379
C00125=396,31207,-29695,1169,-27240,-902
C00126=1221,31990,-28731,1041,-27547,-1216
C00127=1798,33056,-27421,946,-27960,-1433
C00128=2355,34124,-26109,857,-28375,-1643
C00129=2955,34138,-26087,772,-28387,-1877
C00130=3259,33950,-26315,732,-28318,-1997
C00131=3259,32397,-26106,703,-29415,-1977
C00132=3286,31061,-27746,711,-28901,-1996
C00133=3286,32614,-27955,740,-27804,-2016
C00134=3276,32554,-28028,741,-27781,-2013
C00135=3253,32488,-28109,745,-27756,-2004
C00136=3230,32422,-28190,749,-27730,-1996
C00137=3199,32358,-28268,754,-27705,-1984
C00138=3176,32292,-28349,758,-27680,-1975
C00139=3150,32227,-28430,763,-27654,-1966
C00140=3122,32162,-28509,767,-27629,-1955
C00141=3094,32098,-28589,772,-27604,-1945
C00142=3067,32032,-28669,776,-27579,-1935
C00143=3044,31966,-28750,780,-27553,-1926
C00144=3021,31900,-28831,784,-27528,-1918
C00145=2997,31834,-28912,788,-27502,-1909
C00146=2973,31768,-28993,792,-27477,-1900
C00147=2948,31703,-29074,796,-27451,-1891
C00148=2931,31635,-29157,800,-27425,-1884
C00149=2903,31570,-29237,804,-27400,-1874
C00150=2885,31502,-29320,807,-27374,-1867
C00151=2867,31435,-29403,811,-27348,-1861
C00152=2850,31367,-29486,814,-27321,-1855
C00153=2832,31299,-29569,817,-27295,-1848
C00154=2820,31230,-29654,820,-27269,-1844
C00155=2808,31161,-29739,822,-27242,-1840
C00156=2795,31092,-29824,825,-27215,-1835
C00157=2759,31036,-29893,830,-27194,-1821
C00158=2691,31003,-29934,840,-27180,-1796
C00159=2660,30938,-30013,846,-27155,-1784
C00160=2653,30868,-30099,847,-27128,-1782
C00161=2646,30797,-30186,849,-27101,-1779
C00162=2595,30749,-30245,857,-27082,-1760
C00163=2560,30808,-30173,861,-27104,-1746
C00164=2547,30876,-30089,863,-27131,-1740
C00165=2533,30945,-30006,864,-27157,-1734
C00166=2519,31013,-29922,865,-27183,-1729
C00167=2505,31082,-29838,866,-27209,-1723
C00168=2502,31155,-29748,866,-27237,-1721
C00169=2499,31229,-29658,866,-27265,-1719
C00170=2495,31302,-29568,866,-27294,-1717
C00171=2492,31376,-29477,865,-27322,-1715
C00172=2488,31449,-29387,865,-27350,-1714
C00173=2496,31520,-29301,863,-27377,-1716
C00174=2503,31590,-29214,862,-27404,-1718
C00175=2510,31661,-29127,860,-27432,-1720
C00176=2517,31732,-29041,858,-27459,-1723
C00177=2535,31799,-28958,855,-27485,-1729
C00178=2553,31867,-28875,852,-27511,-1736
C00179=2573,31934,-28792,848,-27537,-1743
C00180=2599,32000,-28712,844,-27562,-1753
C00181=2627,32064,-28632,839,-27587,-1763
C00182=2659,32128,-28554,834,-27612,-1775
C00183=2693,32191,-28476,828,-27637,-1788
C00184=2737,32252,-28402,821,-27660,-1805
C00185=2777,32310,-28330,815,-27683,-1820
C00186=2856,32318,-28320,804,-27687,-1851
C00187=2929,32339,-28294,793,-27695,-1879
C00188=2989,32384,-28238,784,-27713,-1902
C00189=3046,32435,-28175,775,-27733,-1924
C00190=3099,32493,-28104,767,-27756,-1944
C00191=3155,32544,-28040,759,-27776,-1966
C00192=3216,32587,-27988,750,-27793,-1989
C00193=3286,32614,-27955,740,-27804,-2016
C00194=3286,31061,-27746,711,-28901,-1996
C00195=3955,30467,-28470,620,-28679,-2260
C00196=3955,32020,-28679,649,-27582,-2280
C00197=3998,32003,-28700,643,-27576,-2297
C00198=4013,31941,-28776,641,-27552,-2303
C00199=4028,31878,-28853,640,-27528,-2309
C00200=4030,31811,-28935,640,-27502,-2311
C00201=4026,31746,-29016,641,-27477,-2310
C00202=4009,31684,-29092,644,-27453,-2303
C00203=4005,31619,-29172,645,-27428,-2302
C00204=4008,31551,-29254,645,-27402,-2303
C00205=4001,31486,-29334,647,-27377,-2301
C00206=3995,31422,-29413,648,-27352,-2299
C00207=4000,31354,-29496,648,-27326,-2301
C00208=4004,31286,-29579,648,-27300,-2304
C00209=4009,31219,-29663,648,-27274,-2306
C00210=4013,31151,-29746,648,-27248,-2308
C00211=4028,31088,-29822,646,-27224,-2314
C00212=4043,31026,-29899,644,-27200,-2320
C00213=4057,30963,-29976,643,-27176,-2326
C00214=4072,30900,-30053,641,-27152,-2332
C00215=4097,30843,-30123,638,-27130,-2342
C00216=4126,30787,-30192,634,-27108,-2353
C00217=4160,30734,-30257,630,-27088,-2367
C00218=4194,30680,-30323,625,-27068,-2380
C00219=4219,30622,-30393,622,-27046,-2390
C00220=4234,30560,-30470,620,-27022,-2397
C00221=4215,30499,-30544,624,-26998,-2390
C00222=4177,30447,-30608,629,-26978,-2375
C00223=4171,30383,-30688,631,-26953,-2373
C00224=4181,30317,-30768,630,-26928,-2377
C00225=4191,30252,-30848,629,-26903,-2382
C00226=4162,30205,-30906,634,-26885,-2371
C00227=4113,30251,-30850,641,-26902,-2351
C00228=4064,30297,-30794,647,-26919,-2332
C00229=4024,30347,-30732,653,-26938,-2316
C00230=3988,30399,-30668,658,-26958,-2302
C00231=3953,30452,-30603,662,-26978,-2288
C00232=3920,30506,-30538,667,-26999,-2275
C00233=3893,30563,-30468,670,-27020,-2264
C00234=3867,30620,-30398,673,-27042,-2254
C00235=3852,30682,-30321,675,-27066,-2248
C00236=3828,30740,-30251,678,-27088,-2238
C00237=3813,30803,-30174,680,-27112,-2232
C00238=3803,30868,-30094,680,-27137,-2228
C00239=3794,30933,-30014,681,-27162,-2224
C00240=3790,31001,-29931,681,-27188,-2222
C00241=3785,31068,-29848,681,-27214,-2220
C00242=3781,31136,-29765,681,-27240,-2218
C00243=3777,31204,-29682,681,-27266,-2216
C00244=3783,31269,-29602,680,-27291,-2218
C00245=3790,31333,-29523,678,-27316,-2220
C00246=3796,31398,-29443,677,-27341,-2222
C00247=3803,31463,-29364,675,-27366,-2224
C00248=3815,31526,-29286,673,-27390,-2229
C00249=3826,31590,-29208,671,-27415,-2233
C00250=3843,31652,-29132,668,-27439,-2239
C00251=3857,31714,-29055,666,-27463,-2244
C00252=3875,31776,-28979,662,-27487,-2251
C00253=3894,31837,-28904,659,-27511,-2258
C00254=3911,31899,-28828,656,-27535,-2264
C00255=3931,31960,-28753,653,-27558,-2271
C00256=3955,32020,-28679,649,-27582,-2280
C00257=3955,30467,-28470,620,-28679,-2260
C00258=5255,30476,-28453,433,-28693,-2766
C00259=5255,32029,-28662,462,-27596,-2786
C00260=5261,32084,-28593,461,-27617,-2788
C00261=5256,32143,-28522,461,-27640,-2786
C00262=5261,32199,-28453,460,-27661,-2788
C00263=5267,32254,-28385,459,-27683,-2790
C00264=5273,32310,-28316,457,-27704,-2792
C00265=5279,32366,-28248,456,-27726,-2794
C00266=5295,32418,-28183,454,-27747,-2800
C00267=5301,32474,-28114,452,-27768,-2802
C00268=5317,32527,-28049,450,-27789,-2808
C00269=5323,32583,-27981,449,-27810,-2810
C00270=5339,32635,-27916,446,-27831,-2816
C00271=5356,32688,-27851,443,-27851,-2822
C00272=5372,32741,-27786,441,-27872,-2828
C00273=5388,32794,-27721,438,-27892,-2835
C00274=5413,32844,-27659,434,-27912,-2844
C00275=5439,32811,-27700,431,-27899,-2854
C00276=5454,32757,-27765,429,-27879,-2860
C00277=5469,32704,-27831,427,-27858,-2866
C00278=5484,32650,-27897,425,-27838,-2872
C00279=5511,32603,-27955,422,-27819,-2883
C00280=5544,32558,-28010,417,-27803,-2896
C00281=5579,32515,-28063,412,-27786,-2910
C00282=5628,32478,-28108,405,-27772,-2929
C00283=5678,32448,-28145,398,-27761,-2949
C00284=5732,32424,-28173,391,-27752,-2970
C00285=5732,32370,-28240,391,-27731,-2970
C00286=5734,32312,-28311,391,-27709,-2971
C00287=5739,32254,-28383,391,-27687,-2973
C00288=5733,32198,-28451,392,-27665,-2971
C00289=5739,32139,-28523,391,-27643,-2974
C00290=5754,32086,-28589,390,-27622,-2980
C00291=5759,32027,-28661,389,-27599,-2982
C00292=5775,31974,-28727,387,-27579,-2988
C00293=5790,31920,-28792,385,-27558,-2994
C00294=5805,31867,-28858,383,-27538,-3001
C00295=5821,31813,-28924,381,-27517,-3007
C00296=5846,31764,-28983,378,-27499,-3017
C00297=5877,31718,-29040,374,-27481,-3029
C00298=5898,31667,-29102,371,-27462,-3037
C00299=5879,31626,-29153,374,-27446,-3030
C00300=5823,31642,-29133,382,-27451,-3008
C00301=5772,31672,-29097,389,-27462,-2988
C00302=5715,31688,-29078,397,-27468,-2966
C00303=5655,31690,-29075,406,-27468,-2943
C00304=5596,31675,-29095,415,-27462,-2920
C00305=5545,31645,-29132,422,-27450,-2900
C00306=5500,31605,-29181,429,-27434,-2883
C00307=5458,30006,-29028,406,-28513,-2847
C00308=-41004,59868,4099,4900,-34257,16705
C00309=-41004,59868,1099,4900,-34257,16705
C00310=-41004,64596,1380,5213,-31659,16463
C00311=-41004,59868,1099,4900,-34257,16705
C00312=-41004,59868,9099,4900,-34257,16705
C00313=5458,30006,-29028,406,-28513,-2847
C00314=5458,31559,-29237,435,-27416,-2867
C00315=5416,31513,-29294,442,-27398,-2851
C00316=5375,31478,-29338,448,-27384,-2835
C00317=5360,31531,-29272,450,-27405,-2829
C00318=5335,31580,-29212,453,-27423,-2819
C00319=5320,31633,-29147,455,-27444,-2813
C00320=5304,31687,-29081,457,-27464,-2807
C00321=5289,31741,-29015,459,-27485,-2801
C00322=5285,31799,-28943,459,-27508,-2798
C00323=5269,31853,-28878,461,-27528,-2792
C00324=5265,31911,-28806,461,-27551,-2790
C00325=5260,31970,-28734,461,-27573,-2788
C00326=5255,32029,-28662,462,-27596,-2786
C00327=5255,30476,-28453,433,-28693,-2766
C00328=5594,29570,-29563,389,-28346,-2901
C00329=5594,31123,-29772,418,-27249,-2921
C00330=5567,31102,-29798,422,-27241,-2911
C00331=5540,31082,-29823,426,-27233,-2901
C00332=5516,31056,-29855,430,-27223,-2891
C00333=5492,31030,-29887,434,-27212,-2882
C00334=5469,31004,-29919,437,-27202,-2873
C00335=5445,30978,-29951,441,-27192,-2864
C00336=5429,30950,-29986,443,-27181,-2858
C00337=5412,30922,-30021,446,-27170,-2852
C00338=5396,30894,-30055,449,-27159,-2846
C00339=5384,30864,-30091,450,-27148,-2841
C00340=5376,30834,-30128,452,-27136,-2838
C00341=5368,30804,-30166,453,-27124,-2835
C00342=5362,30773,-30204,454,-27112,-2833
C00343=5363,30740,-30244,454,-27100,-2833
C00344=5365,30707,-30284,454,-27087,-2834
C00345=5368,30674,-30325,454,-27074,-2836
C00346=5381,30646,-30360,452,-27063,-2841
C00347=5384,30613,-30400,452,-27051,-2842
C00348=5394,30583,-30437,451,-27039,-2846
C00349=5408,30555,-30471,449,-27029,-2851
C00350=5428,30531,-30501,446,-27019,-2860
C00351=5456,30510,-30526,442,-27011,-2871
C00352=5489,30503,-30535,437,-27009,-2883
C00353=5522,30497,-30542,433,-27007,-2896
C00354=5556,30490,-30550,428,-27005,-2909
C00355=5592,30494,-30545,422,-27006,-2923
C00356=5629,30498,-30540,417,-27008,-2938
C00357=5661,30511,-30524,412,-27013,-2950
C00358=5692,30524,-30508,408,-27018,-2962
C00359=5724,30537,-30493,403,-27024,-2974
C00360=5751,30557,-30468,399,-27032,-2984
C00361=5779,30576,-30443,395,-27039,-2995
C00362=5806,30596,-30419,391,-27047,-3006
C00363=5830,30622,-30387,387,-27057,-3015
C00364=5854,30648,-30355,383,-27068,-3024
C00365=5878,30674,-30323,380,-27078,-3033
C00366=5901,30701,-30290,376,-27088,-3042
C00367=5888,30729,-30256,378,-27099,-3037
C00368=5866,30753,-30227,381,-27108,-3028
C00369=5833,30760,-30217,386,-27111,-3015
C00370=5801,30748,-30232,390,-27106,-3003
C00371=5770,30735,-30249,395,-27100,-2991
C00372=5744,30713,-30276,399,-27092,-2981
C00373=5713,30700,-30292,404,-27087,-2969
C00374=5679,30704,-30287,409,-27088,-2956
C00375=5653,30720,-30268,412,-27094,-2946
C00376=5640,30748,-30233,414,-27105,-2941
C00377=5627,30776,-30199,416,-27115,-2935
C00378=5624,30809,-30158,416,-27128,-2934
C00379=5621,30842,-30117,416,-27141,-2933
C00380=5629,30873,-30080,415,-27153,-2936
C00381=5628,30905,-30040,415,-27165,-2935
C00382=5634,30936,-30002,414,-27177,-2938
C00383=5642,30966,-29965,412,-27189,-2941
C00384=5645,30998,-29926,412,-27201,-2942
C00385=5647,31030,-29887,411,-27213,-2942
C00386=5644,31063,-29846,411,-27226,-2941
C00387=5641,31096,-29805,412,-27239,-2940
C00388=5630,31125,-29770,413,-27250,-2935
C00389=5594,31123,-29772,418,-27249,-2921
C00390=5594,29570,-29563,389,-28346,-2901
C00391=6006,29009,-30251,332,-28132,-3063
C00392=6006,30562,-30460,361,-27035,-3083
C00393=5974,30538,-30490,366,-27026,-3071
C00394=5942,30513,-30520,371,-27016,-3059
C00395=5911,30489,-30550,376,-27006,-3047
C00396=5878,30465,-30580,381,-26997,-3034
C00397=5843,30447,-30602,386,-26990,-3021
C00398=5807,30429,-30625,391,-26983,-3007
C00399=5774,30406,-30652,396,-26974,-2994
C00400=5736,30393,-30669,402,-26968,-2979
C00401=5698,30379,-30686,408,-26963,-2965
C00402=5657,30370,-30697,414,-26959,-2949
C00403=5657,30334,-30742,414,-26945,-2949
C00404=5693,30316,-30763,409,-26938,-2963
C00405=5731,30305,-30777,403,-26934,-2978
C00406=5767,30289,-30796,398,-26928,-2992
C00407=5807,30284,-30803,392,-26927,-3007
C00408=5846,30275,-30814,387,-26923,-3022
C00409=5885,30264,-30826,381,-26920,-3037
C00410=5925,30261,-30830,375,-26919,-3053
C00411=5967,30261,-30830,369,-26919,-3069
C00412=6007,30256,-30837,363,-26917,-3085
C00413=6048,30250,-30843,357,-26915,-3101
C00414=6091,30254,-30838,351,-26917,-3117
C00415=6135,30259,-30832,344,-26919,-3134
C00416=6175,30253,-30839,338,-26917,-3150
C00417=6218,30258,-30834,332,-26919,-3167
C00418=6262,30262,-30828,326,-26921,-3183
C00419=6306,30266,-30822,319,-26923,-3200
C00420=6344,30280,-30806,314,-26929,-3215
C00421=6387,30284,-30800,307,-26931,-3232
C00422=6426,30298,-30783,301,-26936,-3247
C00423=6469,30302,-30778,295,-26938,-3263
C00424=6507,30316,-30761,289,-26944,-3278
C00425=6546,30329,-30744,284,-26949,-3293
C00426=6584,30343,-30727,278,-26955,-3308
C00427=6622,30356,-30711,272,-26960,-3322
C00428=6660,30370,-30694,267,-26966,-3337
C00429=6697,30386,-30673,261,-26972,-3351
C00430=6731,30406,-30649,256,-26980,-3365
C00431=6768,30422,-30629,251,-26987,-3379
C00432=6795,30448,-30597,247,-26997,-3389
C00433=6768,30468,-30573,250,-27004,-3378
C00434=6728,30474,-30566,256,-27006,-3363
C00435=6687,30479,-30559,262,-27008,-3347
C00436=6646,30480,-30558,268,-27008,-3331
C00437=6604,30480,-30558,274,-27008,-3315
C00438=6564,30486,-30551,280,-27010,-3300
C00439=6524,30492,-30545,286,-27012,-3284
C00440=6484,30497,-30538,292,-27014,-3268
C00441=6444,30503,-30531,298,-27016,-3253
C00442=6403,30507,-30526,304,-27017,-3237
C00443=6364,30514,-30517,309,-27019,-3222
C00444=6324,30520,-30511,315,-27021,-3206
C00445=6284,30526,-30504,321,-27023,-3191
C00446=6244,30531,-30497,327,-27025,-3176
C00447=6204,30537,-30490,333,-27027,-3160
C00448=6164,30542,-30484,338,-27029,-3145
C00449=6125,30551,-30473,344,-27032,-3130
C00450=6087,30562,-30460,350,-27036,-3115
C00451=6048,30569,-30451,355,-27039,-3099
C00452=6006,30562,-30460,361,-27035,-3083
C00453=6006,29009,-30251,332,-28132,-3063
C00454=6509,28569,-30790,261,-27966,-3260
C00455=6509,30122,-30999,290,-26869,-3280
C00456=5513,29838,-31351,438,-26753,-2896
C00457=4455,29809,-31390,594,-26734,-2486
C00458=3494,30052,-31097,733,-26821,-2113
C00459=2602,30448,-30614,859,-26967,-1765
C00460=1756,30930,-30028,977,-27145,-1433
C00461=988,31098,-29826,1085,-27203,-1133
C00462=236,30483,-30582,1202,-26962,-846
C00463=-585,29834,-31380,1330,-26708,-534
C00464=-202,29293,-32040,1282,-26504,-688
C00465=761,29650,-31600,1137,-26647,-1058
C00466=647,28998,-32398,1162,-26397,-1019
C00467=-368,28711,-32754,1315,-26281,-630
C00468=-1284,29022,-32376,1445,-26393,-272
C00469=-1416,29882,-31325,1450,-26720,-211
C00470=-719,30651,-30382,1338,-27018,-473
C00471=-1202,30963,-30002,1402,-27133,-283
C00472=-1198,31945,-28802,1386,-27507,-273
C00473=-969,32744,-27823,1342,-27814,-354
C00474=-697,33508,-26886,1292,-28108,-453
C00475=-700,34489,-25686,1278,-28483,-441
C00476=-704,35471,-24485,1264,-28857,-430
C00477=-931,36217,-23574,1283,-29139,-332
C00478=-1180,36928,-22707,1306,-29407,-226
C00479=-1177,37910,-21506,1290,-29781,-217
C00480=-310,38119,-21240,1172,-29873,-559
C00481=660,38230,-21093,1042,-29929,-943
C00482=1630,38340,-20946,912,-29985,-1327
C00483=1674,37366,-22140,916,-29612,-1351
C00484=1580,36496,-23208,939,-29277,-1321
C00485=1240,35817,-24043,993,-29012,-1192
C00486=1596,36194,-23578,940,-29161,-1329
C00487=2020,37040,-22537,873,-29491,-1491
C00488=2450,37820,-21575,807,-29796,-1655
C00489=2948,37078,-22480,747,-29517,-1857
C00490=3228,37110,-22439,709,-29533,-1967
C00491=3169,38091,-21234,709,-29910,-1938
C00492=3697,38576,-20633,634,-30104,-2145
C00493=4667,38687,-20486,504,-30160,-2529
C00494=5637,38797,-20340,374,-30216,-2912
C00495=6042,38191,-21081,322,-29986,-3074
C00496=6143,37209,-22287,311,-29607,-3116
C00497=5697,36639,-22993,375,-29381,-2942
C00498=5791,35657,-24199,366,-29002,-2982
C00499=6439,35113,-24863,278,-28799,-3238
C00500=6600,34664,-25414,257,-28627,-3302
C00501=6481,34228,-25951,276,-28457,-3256
C00502=5997,33631,-26688,347,-28221,-3069
C00503=6736,33799,-26478,241,-28293,-3357
C00504=7678,34005,-26217,107,-28382,-3724
C00505=8323,34676,-25387,14,-28648,-3975
C00506=8834,35424,-24462,-58,-28944,-4175
C00507=9638,35645,-24184,-171,-29038,-4490
C00508=9867,34823,-25196,-204,-28720,-4578
C00509=9462,34056,-26144,-147,-28418,-4420
C00510=8961,33310,-27066,-75,-28123,-4225
C00511=8614,32489,-28079,-24,-27801,-4090
C00512=8560,31570,-29210,-15,-27444,-4070
C00513=8380,30864,-30080,13,-27169,-4001
C00514=7429,30525,-30500,153,-27031,-3634
C00515=6509,30122,-30999,290,-26869,-3280
C00516=6509,28569,-30790,261,-27966,-3260
C00517=6108,28181,-31269,322,-27813,-3106
C00518=6108,29734,-31478,351,-26716,-3126
C00519=7607,30359,-30704,128,-26968,-3704
C00520=8904,31075,-29818,-64,-27255,-4204
C00521=8868,32539,-28016,-61,-27823,-4189
C00522=9553,33816,-26439,-160,-28325,-4455
C00523=10137,35130,-24816,-242,-28842,-4684
C00524=9045,35922,-23848,-88,-29140,-4258
C00525=8139,34822,-25209,40,-28703,-3903
C00526=6876,34184,-26003,220,-28443,-3411
C00527=6427,35511,-24373,278,-28953,-3232
C00528=5995,36792,-22802,333,-29444,-3059
C00529=6304,38000,-21313,287,-29916,-3178
C00530=5695,39027,-20056,365,-30305,-2935
C00531=4139,38849,-20293,574,-30215,-2319
C00532=2872,38419,-20835,746,-30032,-1819
C00533=2489,38256,-21040,798,-29964,-1668
C00534=1902,37923,-21455,880,-29828,-1438
C00535=970,38486,-20775,998,-30031,-1064
C00536=-586,38308,-21012,1206,-29941,-448
C00537=-1398,37450,-22071,1327,-29603,-134
C00538=-1367,35910,-23954,1348,-29016,-164
C00539=-910,34819,-25284,1302,-28606,-355
C00540=-909,33239,-27216,1326,-28004,-372
C00541=-1435,32077,-28641,1418,-27556,-180
C00542=-1352,30586,-30464,1430,-26989,-228
C00543=-1772,29393,-31924,1510,-26531,-78
C00544=-698,28496,-33018,1367,-26197,-504
C00545=-1871,28322,-33235,1542,-26122,-52
C00546=-1852,29901,-31304,1513,-26724,-42
C00547=-1833,31480,-29374,1484,-27325,-31
C00548=-1814,33059,-27443,1456,-27926,-20
C00549=-1795,34638,-25513,1427,-28527,-10
C00550=-1776,36218,-23582,1398,-29128,1
C00551=-1756,37797,-21652,1369,-29730,12
C00552=-635,38370,-20937,1212,-29964,-427
C00553=919,38548,-20701,1004,-30054,-1043
C00554=2474,38726,-20464,796,-30144,-1659
C00555=4028,38904,-20227,588,-30235,-2274
C00556=5582,39082,-19990,380,-30325,-2890
C00557=7136,39260,-19753,172,-30415,-3505
C00558=8690,39438,-19517,-36,-30506,-4121
C00559=9652,38819,-20269,-166,-30277,-4500
C00560=9899,37239,-22216,-204,-29663,-4595
C00561=10146,35659,-24163,-242,-29049,-4689
C00562=10393,34079,-26110,-280,-28435,-4783
C00563=10640,32499,-28057,-318,-27821,-4877
C00564=10887,30919,-30003,-355,-27207,-4972
C00565=10786,29579,-31655,-341,-26685,-4932
C00566=9002,29402,-31877,-76,-26606,-4244
C00567=7218,29224,-32100,190,-26526,-3556
C00568=5433,29047,-32323,455,-26447,-2868
C00569=3649,28870,-32546,721,-26368,-2180
C00570=1865,28693,-32768,986,-26288,-1492
C00571=80,28515,-32991,1252,-26209,-805
C00572=1274,29230,-32112,1067,-26490,-1260
C00573=283,29674,-31572,1206,-26653,-872
C00574=257,30154,-30985,1203,-26836,-857
C00575=1513,30793,-30196,1013,-27091,-1340
C00576=2890,30043,-31110,821,-26813,-1879
C00577=4397,29555,-31703,604,-26636,-2465
C00578=6108,29734,-31478,351,-26716,-3126
C00579=6108,28181,-31269,322,-27813,-3106
C00580=7007,29327,-29857,185,-28262,-3450
C00581=7007,30880,-30066,214,-27165,-3470
C00582=6986,30887,-30056,217,-27168,-3462
C00583=6966,30901,-30040,219,-27173,-3454
C00584=6946,30912,-30026,222,-27177,-3446
C00585=6925,30922,-30013,225,-27181,-3438
C00586=6906,30937,-29996,228,-27187,-3430
C00587=6893,30954,-29975,230,-27193,-3425
C00588=6890,30977,-29947,230,-27202,-3424
C00589=6901,30995,-29924,229,-27209,-3428
C00590=6926,30997,-29921,225,-27210,-3438
C00591=6947,30990,-29930,222,-27208,-3446
C00592=6970,30987,-29934,218,-27206,-3455
C00593=6994,30985,-29936,215,-27206,-3465
C00594=7016,30978,-29945,212,-27203,-3473
C00595=7040,30979,-29943,208,-27204,-3483
C00596=7062,30973,-29951,205,-27202,-3491
C00597=7087,30975,-29948,201,-27203,-3501
C00598=7110,30972,-29952,198,-27202,-3510
C00599=7134,30970,-29954,195,-27201,-3519
C00600=7159,30973,-29951,191,-27202,-3528
C00601=7184,30975,-29947,187,-27204,-3538
C00602=7209,30978,-29944,184,-27205,-3548
C00603=7231,30970,-29953,181,-27202,-3556
C00604=7256,30973,-29950,177,-27203,-3566
C00605=7281,30975,-29947,173,-27204,-3576
C00606=7300,30987,-29932,170,-27209,-3583
C00607=7325,30990,-29929,167,-27210,-3593
C00608=7350,30992,-29926,163,-27211,-3603
C00609=7375,30995,-29923,159,-27212,-3612
C00610=7400,30997,-29920,156,-27214,-3622
C00611=7420,31009,-29905,153,-27218,-3629
C00612=7445,31011,-29902,149,-27219,-3639
C00613=7464,31023,-29887,146,-27224,-3647
C00614=7489,31026,-29884,143,-27225,-3656
C00615=7514,31028,-29881,139,-27226,-3666
C00616=7516,31008,-29906,139,-27218,-3667
C00617=7508,29435,-29722,111,-28308,-3644
C00618=-41004,59868,4099,4900,-34257,16705
C00619=-41004,59868,1099,4900,-34257,16705
C00620=-41004,64596,1380,5213,-31659,16463
C00621=-41004,59868,1099,4900,-34257,16705
C00622=-41004,59868,9099,4900,-34257,16705
C00623=7508,29435,-29722,111,-28308,-3644
C00624=7508,30988,-29931,140,-27211,-3664
C00625=7500,30968,-29955,141,-27203,-3661
C00626=7484,30950,-29977,144,-27196,-3655
C00627=7468,30932,-29999,146,-27189,-3648
C00628=7453,30914,-30021,148,-27182,-3642
C00629=7437,30897,-30043,151,-27175,-3636
C00630=7421,30879,-30065,153,-27168,-3630
C00631=7404,30862,-30086,156,-27161,-3624
C00632=7379,30859,-30089,159,-27160,-3614
C00633=7360,30848,-30104,162,-27155,-3607
C00634=7334,30845,-30107,166,-27154,-3597
C00635=7309,30843,-30110,170,-27153,-3587
C00636=7284,30840,-30113,173,-27152,-3577
C00637=7259,30837,-30117,177,-27151,-3568
C00638=7234,30835,-30120,181,-27150,-3558
C00639=7209,30832,-30123,184,-27148,-3548
C00640=7184,30830,-30126,188,-27147,-3539
C00641=7162,30837,-30117,191,-27150,-3530
C00642=7141,30844,-30109,194,-27153,-3522
C00643=7116,30844,-30109,198,-27152,-3512
C00644=7094,30850,-30102,201,-27154,-3504
C00645=7072,30857,-30093,204,-27157,-3495
C00646=7051,30865,-30084,207,-27160,-3487
C00647=7029,30872,-30075,210,-27163,-3478
C00648=7007,30880,-30066,214,-27165,-3470
C00649=7007,29327,-29857,185,-28262,-3450
C00650=7055,29487,-29660,177,-28325,-3468
C00651=7055,31040,-29869,206,-27228,-3488
C00652=7029,31049,-29857,210,-27231,-3478
C00653=7002,31054,-29852,214,-27233,-3468
C00654=6976,31061,-29843,217,-27235,-3458
C00655=6950,31068,-29835,221,-27238,-3447
C00656=6926,31081,-29819,225,-27243,-3438
C00657=6919,31106,-29788,225,-27252,-3435
C00658=6928,31124,-29766,224,-27259,-3439
C00659=6955,31132,-29756,220,-27263,-3449
C00660=6982,31139,-29747,216,-27265,-3459
C00661=7011,31142,-29743,212,-27267,-3471
C00662=7041,31145,-29739,208,-27268,-3482
C00663=7070,31148,-29736,203,-27270,-3494
C00664=7100,31151,-29732,199,-27271,-3505
C00665=7129,31154,-29728,195,-27272,-3516
C00666=7153,31166,-29713,191,-27277,-3526
C00667=7182,31169,-29709,187,-27279,-3537
C00668=7212,31172,-29705,183,-27280,-3548
C00669=7241,31175,-29702,178,-27281,-3560
C00670=7268,31182,-29693,174,-27284,-3570
C00671=7295,31190,-29683,170,-27288,-3581
C00672=7321,31198,-29673,166,-27291,-3591
C00673=7347,31206,-29663,163,-27294,-3601
C00674=7372,31217,-29649,159,-27299,-3610
C00675=7396,31230,-29634,155,-27304,-3620
C00676=7415,31250,-29609,153,-27312,-3627
C00677=7438,31264,-29591,149,-27317,-3636
C00678=7456,31285,-29565,146,-27326,-3643
C00679=7475,31306,-29540,144,-27334,-3650
C00680=7501,31315,-29529,140,-27337,-3660
C00681=7528,31323,-29519,136,-27341,-3671
C00682=7553,31333,-29506,132,-27345,-3680
C00683=7582,31336,-29502,128,-27346,-3692
C00684=7611,31337,-29501,124,-27347,-3703
C00685=7636,31327,-29512,120,-27343,-3713
C00686=7645,31304,-29542,119,-27334,-3716
C00687=7642,31278,-29573,119,-27324,-3715
C00688=7631,31255,-29601,121,-27315,-3711
C00689=7621,31232,-29630,123,-27306,-3707
C00690=7609,31209,-29658,124,-27297,-3702
C00691=7591,31188,-29684,127,-27289,-3695
C00692=7571,31170,-29707,130,-27282,-3688
C00693=7550,31153,-29728,133,-27275,-3679
C00694=7527,31138,-29746,137,-27269,-3671
C00695=7504,31124,-29763,140,-27264,-3662
C00696=7478,31116,-29774,144,-27260,-3652
C00697=7451,31109,-29782,148,-27257,-3641
C00698=7427,31097,-29797,151,-27252,-3632
C00699=7397,31094,-29801,156,-27251,-3621
C00700=7372,31083,-29814,159,-27247,-3611
C00701=7344,31079,-29819,164,-27245,-3600
C00702=7314,31076,-29823,168,-27243,-3588
C00703=7285,31073,-29827,172,-27242,-3577
C00704=7255,31070,-29831,177,-27241,-3566
C00705=7226,31067,-29835,181,-27239,-3554
C00706=7197,31064,-29839,185,-27238,-3543
C00707=7172,31053,-29852,189,-27233,-3533
C00708=7143,31049,-29857,193,-27232,-3522
C00709=7114,31046,-29861,197,-27230,-3511
C00710=7084,31043,-29865,202,-27229,-3499
C00711=7055,31040,-29869,206,-27228,-3488
C00712=7055,29487,-29660,177,-28325,-3468
C00713=7626,29404,-29759,94,-28297,-3689
C00714=7626,30957,-29968,123,-27200,-3709
C00715=7634,30978,-29943,122,-27208,-3713
C00716=7642,30998,-29918,120,-27216,-3716
C00717=7658,31016,-29896,118,-27223,-3722
C00718=7667,31036,-29871,117,-27230,-3725
C00719=7683,31054,-29849,114,-27238,-3731
C00720=7691,31074,-29824,113,-27245,-3734
C00721=7707,31092,-29802,111,-27252,-3740
C00722=7723,31110,-29780,108,-27260,-3747
C00723=7739,31128,-29758,106,-27267,-3753
C00724=7755,31146,-29735,103,-27274,-3759
C00725=7772,31161,-29716,101,-27280,-3766
C00726=7792,31173,-29702,98,-27285,-3773
C00727=7810,31167,-29708,95,-27283,-3780
C00728=7828,31152,-29727,93,-27277,-3787
C00729=7848,31138,-29745,90,-27271,-3795
C00730=7870,31131,-29754,87,-27269,-3804
C00731=7893,31125,-29760,83,-27267,-3812
C00732=7915,31117,-29770,80,-27264,-3821
C00733=7940,31120,-29766,76,-27265,-3831
C00734=7965,31123,-29763,73,-27266,-3840
C00735=7985,31134,-29749,70,-27271,-3848
C00736=8010,31137,-29745,66,-27272,-3858
C00737=8032,31144,-29736,63,-27275,-3867
C00738=8055,31151,-29727,60,-27278,-3875
C00739=8076,31161,-29715,56,-27282,-3883
C00740=8100,31165,-29710,53,-27284,-3893
C00741=8123,31171,-29703,49,-27286,-3902
C00742=8145,31180,-29692,46,-27290,-3910
C00743=8170,31182,-29689,43,-27291,-3920
C00744=8184,31172,-29701,41,-27287,-3925
C00745=8176,31152,-29726,42,-27279,-3922
C00746=8166,31132,-29750,43,-27271,-3918
C00747=8150,31114,-29773,46,-27264,-3912
C00748=8134,31096,-29795,48,-27257,-3906
C00749=8118,31078,-29817,50,-27250,-3900
C00750=8103,31060,-29839,53,-27243,-3894
C00751=8084,31047,-29855,56,-27238,-3886
C00752=8064,31036,-29870,59,-27233,-3879
C00753=8047,31019,-29890,61,-27227,-3872
C00754=8024,31012,-29899,64,-27224,-3864
C00755=8004,31000,-29913,67,-27219,-3856
C00756=7985,30989,-29928,70,-27215,-3848
C00757=7963,30979,-29939,73,-27211,-3840
C00758=7940,30974,-29946,77,-27209,-3831
C00759=7920,30963,-29960,80,-27204,-3823
C00760=7900,30951,-29974,83,-27199,-3816
C00761=7875,30948,-29978,86,-27198,-3806
C00762=7852,30941,-29987,90,-27195,-3797
C00763=7830,30934,-29995,93,-27192,-3788
C00764=7805,30931,-30000,97,-27191,-3779
C00765=7784,30920,-30013,100,-27186,-3771
C00766=7759,30917,-30016,103,-27185,-3761
C00767=7734,30915,-30020,107,-27184,-3751
C00768=7714,30903,-30034,110,-27179,-3744
C00769=7689,30900,-30037,114,-27178,-3734
C00770=7663,30898,-30041,118,-27177,-3724
C00771=7638,30895,-30044,121,-27176,-3714
C00772=7635,30918,-30016,122,-27185,-3713
C00773=7623,30936,-29994,123,-27192,-3708
C00774=7626,30957,-29968,123,-27200,-3709
C00775=7626,29404,-29759,94,-28297,-3689
C00776=7828,29678,-29421,63,-28404,-3767
C00777=7828,31231,-29630,92,-27307,-3787
C00778=7812,31243,-29615,95,-27312,-3781
C00779=7809,31269,-29584,95,-27322,-3780
C00780=7817,31291,-29556,94,-27330,-3783
C00781=7826,31313,-29529,92,-27339,-3786
C00782=7844,31333,-29505,90,-27347,-3793
C00783=7861,31353,-29480,87,-27355,-3800
C00784=7879,31373,-29456,85,-27363,-3807
C00785=7896,31392,-29431,82,-27370,-3813
C00786=7916,31409,-29411,79,-27377,-3821
C00787=7935,31426,-29390,76,-27384,-3828
C00788=7956,31439,-29374,73,-27389,-3837
C00789=7978,31452,-29357,70,-27394,-3845
C00790=8003,31459,-29349,66,-27397,-3855
C00791=8027,31469,-29337,63,-27401,-3864
C00792=8050,31480,-29323,59,-27405,-3873
C00793=8077,31483,-29319,56,-27407,-3883
C00794=8104,31486,-29315,51,-27408,-3894
C00795=8130,31484,-29318,48,-27408,-3904
C00796=8138,31461,-29346,47,-27399,-3907
C00797=8121,31441,-29370,49,-27391,-3900
C00798=8100,31428,-29387,52,-27386,-3892
C00799=8107,31405,-29415,51,-27377,-3895
C00800=8133,31402,-29419,48,-27376,-3905
C00801=8155,31414,-29404,44,-27381,-3913
C00802=8176,31427,-29387,41,-27386,-3922
C00803=8197,31441,-29371,38,-27391,-3930
C00804=8215,31460,-29346,35,-27399,-3937
C00805=8232,31480,-29322,33,-27407,-3943
C00806=8254,31494,-29305,30,-27412,-3952
C00807=8271,31513,-29281,27,-27420,-3958
C00808=8292,31527,-29264,24,-27425,-3967
C00809=8310,31546,-29240,21,-27433,-3973
C00810=8338,31549,-29237,17,-27434,-3984
C00811=8343,31527,-29264,17,-27426,-3986
C00812=8347,31502,-29295,16,-27416,-3988
C00813=8339,31479,-29323,17,-27407,-3985
C00814=8335,31456,-29352,18,-27398,-3983
C00815=8323,31435,-29378,20,-27390,-3979
C00816=8308,31414,-29403,22,-27382,-3973
C00817=8296,31393,-29429,24,-27373,-3968
C00818=8281,31372,-29454,26,-27365,-3963
C00819=8272,31350,-29481,27,-27357,-3959
C00820=8254,31331,-29506,30,-27349,-3952
C00821=8233,31317,-29522,33,-27344,-3944
C00822=8208,31310,-29531,37,-27341,-3934
C00823=8186,31297,-29548,40,-27335,-3926
C00824=8162,31288,-29558,44,-27332,-3917
C00825=8140,31276,-29573,47,-27327,-3908
C00826=8114,31270,-29581,51,-27324,-3898
C00827=8090,31262,-29592,54,-27321,-3889
C00828=8068,31250,-29606,57,-27316,-3880
C00829=8040,31247,-29610,61,-27315,-3869
C00830=8013,31242,-29616,65,-27313,-3859
C00831=7990,31232,-29628,69,-27309,-3850
C00832=7962,31229,-29632,73,-27308,-3839
C00833=7934,31226,-29636,77,-27306,-3828
C00834=7907,31223,-29639,81,-27305,-3818
C00835=7879,31221,-29643,85,-27304,-3807
C00836=7854,31228,-29634,89,-27306,-3797
C00837=7828,31231,-29630,92,-27307,-3787
C00838=7828,29678,-29421,63,-28404,-3767
C00839=7970,29978,-29052,42,-28522,-3822
C00840=7970,31531,-29261,71,-27425,-3842
C00841=7967,31559,-29226,71,-27436,-3840
C00842=7979,31584,-29195,69,-27445,-3845
C00843=7993,31608,-29166,67,-27455,-3850
C00844=8003,31633,-29135,66,-27465,-3854
C00845=8022,31656,-29107,63,-27473,-3862
C00846=8034,31680,-29076,61,-27483,-3866
C00847=8054,31703,-29048,58,-27492,-3874
C00848=8066,31728,-29018,56,-27502,-3879
C00849=8086,31750,-28990,53,-27510,-3886
C00850=8100,31774,-28961,51,-27520,-3892
C00851=8108,31800,-28929,50,-27530,-3895
C00852=8114,31826,-28897,49,-27540,-3897
C00853=8112,31854,-28862,49,-27551,-3896
C00854=8108,31883,-28827,50,-27562,-3895
C00855=8116,31909,-28795,49,-27572,-3898
C00856=8123,31935,-28763,48,-27582,-3900
C00857=8131,31960,-28731,46,-27592,-3903
C00858=8151,31977,-28711,43,-27599,-3911
C00859=8173,31968,-28722,40,-27596,-3920
C00860=8198,31950,-28744,37,-27589,-3929
C00861=8224,31939,-28757,33,-27585,-3940
C00862=8254,31935,-28761,29,-27584,-3951
C00863=8280,31925,-28775,25,-27580,-3961
C00864=8306,31913,-28789,21,-27575,-3971
C00865=8308,31885,-28824,21,-27564,-3972
C00866=8302,31859,-28856,22,-27554,-3970
C00867=8306,31830,-28891,21,-27543,-3971
C00868=8329,31811,-28914,18,-27536,-3980
C00869=8356,31819,-28904,14,-27539,-3991
C00870=8357,31847,-28870,14,-27550,-3991
C00871=8353,31875,-28835,14,-27561,-3990
C00872=8361,31901,-28803,13,-27571,-3993
C00873=8381,31913,-28789,10,-27576,-4000
C00874=8404,31894,-28812,7,-27569,-4009
C00875=8423,31873,-28838,4,-27561,-4017
C00876=8431,31847,-28870,3,-27551,-4020
C00877=8435,31818,-28905,3,-27539,-4021
C00878=8436,31790,-28940,3,-27529,-4022
C00879=8431,31763,-28972,3,-27518,-4020
C00880=8424,31738,-29004,4,-27508,-4017
C00881=8416,31712,-29036,6,-27498,-4014
C00882=8409,31686,-29068,7,-27488,-4012
C00883=8401,31660,-29099,8,-27478,-4009
C00884=8388,31636,-29129,10,-27469,-4004
C00885=8359,31629,-29138,14,-27465,-3992
C00886=8328,31628,-29139,19,-27465,-3980
C00887=8301,31639,-29126,22,-27469,-3970
C00888=8274,31650,-29113,26,-27473,-3959
C00889=8246,31656,-29105,30,-27475,-3948
C00890=8218,31663,-29097,35,-27478,-3937
C00891=8195,31645,-29119,38,-27471,-3929
C00892=8175,31623,-29147,41,-27462,-3921
C00893=8163,31599,-29176,43,-27452,-3916
C00894=8140,31582,-29197,46,-27446,-3907
C00895=8112,31572,-29209,50,-27442,-3897
C00896=8085,31562,-29222,54,-27437,-3886
C00897=8059,31550,-29237,58,-27432,-3876
C00898=8029,31544,-29245,62,-27430,-3865
C00899=8002,31534,-29257,66,-27426,-3854
C00900=7970,31531,-29261,71,-27425,-3842
C00901=7970,29978,-29052,42,-28522,-3822
C00902=7285,30208,-28772,141,-28606,-3555
C00903=7285,31761,-28981,170,-27509,-3575
C00904=7285,31763,-28978,170,-27509,-3575
C00905=7285,31765,-28976,170,-27510,-3575
C00906=7284,31767,-28973,170,-27511,-3575
C00907=7284,31770,-28970,170,-27512,-3575
C00908=7284,31772,-28967,170,-27513,-3575
C00909=7284,31774,-28965,170,-27514,-3575
C00910=7283,31776,-28962,170,-27514,-3575
C00911=7283,31778,-28959,170,-27515,-3575
C00912=7283,31780,-28957,170,-27516,-3575
C00913=7281,31782,-28955,170,-27517,-3574
C00914=7279,31783,-28953,170,-27517,-3573
C00915=7277,31785,-28952,171,-27518,-3572
C00916=7275,31786,-28950,171,-27518,-3572
C00917=7274,31787,-28948,171,-27519,-3571
C00918=7272,31789,-28947,172,-27519,-3570
C00919=7270,31789,-28947,172,-27519,-3569
C00920=7267,31789,-28947,172,-27519,-3568
C00921=7265,31788,-28947,173,-27519,-3567
C00922=7262,31788,-28948,173,-27519,-3567
C00923=7260,31788,-28948,173,-27519,-3566
C00924=7258,31788,-28948,174,-27519,-3565
C00925=7255,31787,-28948,174,-27518,-3564
C00926=7253,31787,-28949,174,-27518,-3563
C00927=7250,30234,-28740,146,-28615,-3542
C00928=-41004,59868,4099,4900,-34257,16705
C00929=-41004,59868,1099,4900,-34257,16705
C00930=-41004,64596,1380,5213,-31659,16463
C00931=-41004,59868,1099,4900,-34257,16705
C00932=-41004,59868,9099,4900,-34257,16705
C00933=7250,30234,-28740,146,-28615,-3542
C00934=7250,31787,-28949,175,-27518,-3562
C00935=7249,31785,-28951,175,-27518,-3561
C00936=7247,31783,-28953,175,-27517,-3561
C00937=7246,31782,-28955,175,-27516,-3560
C00938=7244,31780,-28958,176,-27516,-3560
C00939=7243,31778,-28960,176,-27515,-3559
C00940=7241,31776,-28962,176,-27514,-3558
C00941=7241,31774,-28964,176,-27513,-3558
C00942=7241,31772,-28967,176,-27513,-3558
C00943=7242,31770,-28970,176,-27512,-3559
C00944=7242,31768,-28972,176,-27511,-3559
C00945=7242,31766,-28975,176,-27510,-3559
C00946=7242,31763,-28978,176,-27509,-3559
C00947=7243,31761,-28980,176,-27508,-3559
C00948=7243,31759,-28983,176,-27507,-3559
C00949=7243,31757,-28986,176,-27507,-3559
C00950=7245,31756,-28988,176,-27506,-3560
C00951=7247,31754,-28989,175,-27506,-3561
C00952=7249,31753,-28991,175,-27505,-3561
C00953=7251,31751,-28993,175,-27505,-3562
C00954=7252,31750,-28994,174,-27504,-3563
C00955=7254,31749,-28996,174,-27504,-3563
C00956=7257,31749,-28996,174,-27504,-3564
C00957=7259,31749,-28996,174,-27504,-3565
C00958=7261,31749,-28995,173,-27504,-3566
C00959=7264,31749,-28995,173,-27504,-3567
C00960=7266,31750,-28995,172,-27504,-3568
C00961=7268,31750,-28994,172,-27504,-3569
C00962=7271,31750,-28994,172,-27504,-3570
C00963=7273,31750,-28994,171,-27504,-3571
C00964=7276,31751,-28993,171,-27504,-3572
C00965=7277,31752,-28991,171,-27505,-3572
C00966=7279,31754,-28989,171,-27506,-3573
C00967=7280,31756,-28987,170,-27506,-3574
C00968=7282,31757,-28985,170,-27507,-3574
C00969=7283,31759,-28983,170,-27508,-3575
C00970=7285,31761,-28981,170,-27509,-3575
C00971=7285,30208,-28772,141,-28606,-3555
C00972=7170,30196,-28786,157,-28600,-3511
C00973=7170,31749,-28995,186,-27503,-3531
C00974=7164,31754,-28990,187,-27505,-3528
C00975=7158,31758,-28985,188,-27506,-3526
C00976=7153,31762,-28980,189,-27508,-3524
C00977=7147,31766,-28975,190,-27510,-3522
C00978=7141,31771,-28969,191,-27511,-3519
C00979=7135,31775,-28964,191,-27513,-3517
C00980=7128,31774,-28965,192,-27512,-3514
C00981=7120,31773,-28966,193,-27512,-3512
C00982=7113,31773,-28967,195,-27512,-3509
C00983=7106,31772,-28968,196,-27511,-3506
C00984=7098,31771,-28969,197,-27511,-3503
C00985=7091,31770,-28970,198,-27511,-3500
C00986=7083,31770,-28971,199,-27510,-3497
C00987=7076,31769,-28972,200,-27510,-3494
C00988=7070,31766,-28976,201,-27509,-3492
C00989=7065,31760,-28982,202,-27507,-3490
C00990=7063,31754,-28990,202,-27504,-3489
C00991=7063,31748,-28997,202,-27502,-3489
C00992=7056,31747,-28998,203,-27502,-3487
C00993=7050,31744,-29003,204,-27500,-3484
C00994=7046,31738,-29010,204,-27498,-3483
C00995=7041,31733,-29016,205,-27496,-3481
C00996=7036,31728,-29023,206,-27494,-3479
C00997=7035,31721,-29031,206,-27491,-3478
C00998=7036,31715,-29039,206,-27489,-3479
C00999=7037,31708,-29047,206,-27486,-3479
C01000=7037,31701,-29056,206,-27483,-3479
C01001=7038,31694,-29064,206,-27481,-3480
C01002=7039,31687,-29072,206,-27478,-3480
C01003=7044,31683,-29077,205,-27477,-3482
C01004=7050,31679,-29083,204,-27475,-3484
C01005=7058,31680,-29082,203,-27475,-3487
C01006=7065,31680,-29081,202,-27476,-3490
C01007=7072,31682,-29079,201,-27476,-3493
C01008=7077,31687,-29072,200,-27478,-3495
C01009=7081,31693,-29065,200,-27481,-3496
C01010=7080,31700,-29057,200,-27483,-3496
C01011=7079,31706,-29049,200,-27486,-3496
C01012=7080,31713,-29041,200,-27488,-3496
C01013=7085,31718,-29034,199,-27490,-3498
C01014=7088,31724,-29027,198,-27493,-3499
C01015=7087,31731,-29019,199,-27495,-3499
C01016=7094,31732,-29017,198,-27496,-3501
C01017=7101,31733,-29016,196,-27496,-3504
C01018=7108,31733,-29016,195,-27496,-3507
C01019=7114,31729,-29021,195,-27495,-3509
C01020=7120,31724,-29026,194,-27493,-3511
C01021=7126,31720,-29032,193,-27492,-3514
C01022=7131,31716,-29037,192,-27490,-3516
C01023=7137,31712,-29042,191,-27488,-3518
C01024=7143,31708,-29047,190,-27487,-3520
C01025=7150,31709,-29046,189,-27487,-3523
C01026=7158,31709,-29045,188,-27488,-3526
C01027=7165,31711,-29042,187,-27488,-3529
C01028=7169,31717,-29036,187,-27490,-3531
C01029=7173,31722,-29029,186,-27493,-3532
C01030=7172,31729,-29020,186,-27495,-3532
C01031=7171,31736,-29012,186,-27498,-3531
C01032=7171,31743,-29004,186,-27501,-3531
C01033=7170,31749,-28995,186,-27503,-3531
C01034=7170,30196,-28786,157,-28600,-3511
C01035=6994,30150,-28844,183,-28581,-3442
C01036=6994,31703,-29053,212,-27484,-3462
C01037=6991,31705,-29051,212,-27485,-3462
C01038=6989,31707,-29049,213,-27485,-3461
C01039=6987,31708,-29047,213,-27486,-3460
C01040=6984,31710,-29045,213,-27486,-3459
C01041=6982,31711,-29044,214,-27487,-3458
C01042=6979,31710,-29044,214,-27487,-3457
C01043=6976,31710,-29045,215,-27486,-3455
C01044=6973,31710,-29045,215,-27486,-3454
C01045=6970,31709,-29045,216,-27486,-3453
C01046=6967,31709,-29046,216,-27486,-3452
C01047=6964,31709,-29046,216,-27486,-3451
C01048=6961,31709,-29047,217,-27486,-3450
C01049=6958,31708,-29047,217,-27486,-3449
C01050=6955,31708,-29047,218,-27485,-3447
C01051=6952,31708,-29048,218,-27485,-3446
C01052=6950,31706,-29050,218,-27484,-3445
C01053=6948,31703,-29053,219,-27484,-3445
C01054=6946,31701,-29056,219,-27483,-3444
C01055=6944,31699,-29058,219,-27482,-3443
C01056=6942,31697,-29061,220,-27481,-3443
C01057=6943,31694,-29064,220,-27480,-3443
C01058=6943,31691,-29068,220,-27479,-3443
C01059=6943,31689,-29071,220,-27478,-3443
C01060=6943,31686,-29074,219,-27477,-3443
C01061=6944,31683,-29078,219,-27476,-3443
C01062=6944,31681,-29081,219,-27475,-3443
C01063=6944,31678,-29084,219,-27474,-3443
C01064=6947,31676,-29087,219,-27473,-3444
C01065=6949,31674,-29089,219,-27472,-3445
C01066=6951,31673,-29091,218,-27472,-3446
C01067=6954,31671,-29093,218,-27471,-3447
C01068=6956,31669,-29095,218,-27470,-3448
C01069=6958,31668,-29097,217,-27470,-3449
C01070=6960,31666,-29099,217,-27469,-3450
C01071=6963,31664,-29101,217,-27469,-3451
C01072=6965,31662,-29103,216,-27468,-3451
C01073=6967,31661,-29105,216,-27467,-3452
C01074=6970,31661,-29105,216,-27467,-3454
C01075=6973,31661,-29105,215,-27468,-3455
C01076=6976,31662,-29104,215,-27468,-3456
C01077=6979,31662,-29104,214,-27468,-3457
C01078=6982,31662,-29103,214,-27468,-3458
C01079=6985,31663,-29103,214,-27468,-3459
C01080=6988,31663,-29103,213,-27468,-3460
C01081=6990,31665,-29100,213,-27469,-3461
C01082=6992,31667,-29097,213,-27470,-3462
C01083=6994,31669,-29095,212,-27471,-3463
C01084=6996,31671,-29092,212,-27472,-3463
C01085=6998,31674,-29089,212,-27473,-3464
C01086=6997,31676,-29086,212,-27474,-3464
C01087=6997,31679,-29083,212,-27475,-3464
C01088=6997,31682,-29079,212,-27476,-3464
C01089=6997,31685,-29076,212,-27477,-3464
C01090=6996,31687,-29073,212,-27478,-3464
C01091=6996,31690,-29069,212,-27479,-3463
C01092=6996,31693,-29066,212,-27480,-3463
C01093=6995,31695,-29063,212,-27481,-3463
C01094=6995,31698,-29059,212,-27482,-3463
C01095=6995,31701,-29056,212,-27483,-3463
C01096=6994,31703,-29053,212,-27484,-3462
C01097=6994,30150,-28844,183,-28581,-3442
C01098=7305,30598,-28292,136,-28757,-3562
C01099=7305,32151,-28501,165,-27660,-3582
C01100=7303,32167,-28481,166,-27666,-3582
C01101=7312,32180,-28465,164,-27671,-3585
C01102=7327,32186,-28457,162,-27674,-3591
C01103=7338,32199,-28442,161,-27679,-3595
C01104=7349,32212,-28426,159,-27684,-3599
C01105=7363,32218,-28419,157,-27686,-3605
C01106=7376,32227,-28408,155,-27690,-3610
C01107=7389,32236,-28396,153,-27693,-3615
C01108=7400,32248,-28381,151,-27698,-3619
C01109=7415,32255,-28373,149,-27701,-3625
C01110=7429,32261,-28365,147,-27703,-3630
C01111=7441,32272,-28351,145,-27708,-3635
C01112=7455,32279,-28342,143,-27711,-3640
C01113=7471,32285,-28335,141,-27713,-3646
C01114=7485,32292,-28327,139,-27716,-3652
C01115=7500,32298,-28319,137,-27718,-3658
C01116=7512,32308,-28306,135,-27722,-3662
C01117=7529,32310,-28304,133,-27723,-3669
C01118=7541,32321,-28290,131,-27728,-3674
C01119=7558,32323,-28288,128,-27728,-3680
C01120=7573,32328,-28282,126,-27730,-3686
C01121=7587,32336,-28272,124,-27734,-3692
C01122=7605,32337,-28270,122,-27734,-3698
C01123=7622,32339,-28268,119,-27735,-3705
C01124=7639,32341,-28265,117,-27736,-3712
C01125=7656,32343,-28263,114,-27737,-3718
C01126=7674,32345,-28261,112,-27738,-3725
C01127=7691,32346,-28259,109,-27739,-3732
C01128=7705,32338,-28268,107,-27736,-3737
C01129=7707,32323,-28288,107,-27729,-3738
C01130=7709,32307,-28307,107,-27723,-3739
C01131=7711,32291,-28327,106,-27717,-3740
C01132=7713,32275,-28347,106,-27711,-3740
C01133=7705,32261,-28363,107,-27706,-3737
C01134=7702,32247,-28381,108,-27700,-3736
C01135=7697,32233,-28398,109,-27695,-3734
C01136=7682,32229,-28403,111,-27693,-3729
C01137=7665,32227,-28405,113,-27692,-3722
C01138=7647,32225,-28408,116,-27691,-3715
C01139=7630,32224,-28410,118,-27690,-3708
C01140=7613,32222,-28412,121,-27690,-3702
C01141=7595,32220,-28414,123,-27689,-3695
C01142=7578,32218,-28417,126,-27688,-3688
C01143=7561,32216,-28419,128,-27687,-3681
C01144=7543,32215,-28421,131,-27686,-3675
C01145=7526,32213,-28424,133,-27685,-3668
C01146=7509,32211,-28426,136,-27685,-3661
C01147=7491,32209,-28428,138,-27684,-3655
C01148=7474,32208,-28430,141,-27683,-3648
C01149=7461,32199,-28441,143,-27680,-3643
C01150=7445,32195,-28446,145,-27678,-3637
C01151=7428,32193,-28449,148,-27677,-3630
C01152=7413,32187,-28456,150,-27675,-3624
C01153=7398,32180,-28464,152,-27672,-3618
C01154=7381,32179,-28467,154,-27671,-3612
C01155=7368,32169,-28478,156,-27667,-3607
C01156=7352,32166,-28482,159,-27666,-3600
C01157=7335,32163,-28485,161,-27665,-3594
C01158=7323,32153,-28498,163,-27661,-3589
C01159=7305,32151,-28501,165,-27660,-3582
C01160=7305,30598,-28292,136,-28757,-3562
C01161=7164,30904,-27917,156,-28874,-3507
C01162=7164,32457,-28126,185,-27777,-3527
C01163=7166,32457,-28125,184,-27777,-3528
C01164=7168,32459,-28123,184,-27778,-3528
C01165=7169,32460,-28121,184,-27778,-3529
C01166=7171,32462,-28119,184,-27779,-3529
C01167=7172,32464,-28117,183,-27780,-3530
C01168=7174,32466,-28115,183,-27780,-3531
C01169=7175,32467,-28113,183,-27781,-3531
C01170=7175,32469,-28110,183,-27782,-3531
C01171=7175,32472,-28107,183,-27783,-3531
C01172=7175,32474,-28105,183,-27784,-3531
C01173=7175,32476,-28102,183,-27785,-3531
C01174=7174,32478,-28099,183,-27785,-3531
C01175=7174,32480,-28097,183,-27786,-3531
C01176=7174,32482,-28094,183,-27787,-3531
C01177=7174,32485,-28091,183,-27788,-3530
C01178=7173,32487,-28089,183,-27789,-3530
C01179=7172,32488,-28087,184,-27789,-3530
C01180=7170,32490,-28085,184,-27790,-3529
C01181=7168,32491,-28083,184,-27790,-3528
C01182=7166,32492,-28082,184,-27791,-3527
C01183=7164,32494,-28080,185,-27791,-3527
C01184=7162,32495,-28078,185,-27792,-3526
C01185=7160,32495,-28078,185,-27792,-3525
C01186=7158,32495,-28079,185,-27792,-3524
C01187=7155,32495,-28079,186,-27792,-3523
C01188=7153,32494,-28079,186,-27791,-3522
C01189=7151,32494,-28080,186,-27791,-3521
C01190=7148,32494,-28080,187,-27791,-3521
C01191=7146,32494,-28080,187,-27791,-3520
C01192=7144,32493,-28081,188,-27791,-3519
C01193=7141,32493,-28081,188,-27791,-3518
C01194=7140,32491,-28083,188,-27790,-3517
C01195=7138,32490,-28085,188,-27790,-3517
C01196=7137,32488,-28087,189,-27789,-3516
C01197=7135,32486,-28089,189,-27788,-3516
C01198=7134,32485,-28091,189,-27788,-3515
C01199=7132,32483,-28094,189,-27787,-3514
C01200=7132,32481,-28096,189,-27786,-3514
C01201=7132,32479,-28099,189,-27785,-3514
C01202=7133,32476,-28102,189,-27784,-3514
C01203=7133,32474,-28104,189,-27784,-3515
C01204=7133,32472,-28107,189,-27783,-3515
C01205=7133,32470,-28110,189,-27782,-3515
C01206=7134,32468,-28112,189,-27781,-3515
C01207=7134,32465,-28115,189,-27780,-3515
C01208=7134,32463,-28118,189,-27779,-3515
C01209=7136,32462,-28119,189,-27779,-3516
C01210=7138,32461,-28121,188,-27778,-3517
C01211=7140,32459,-28123,188,-27778,-3517
C01212=7141,32458,-28124,188,-27777,-3518
C01213=7143,32456,-28126,188,-27777,-3519
C01214=7145,32455,-28128,187,-27776,-3519
C01215=7147,32455,-28128,187,-27776,-3520
C01216=7150,32455,-28127,187,-27776,-3521
C01217=7152,32455,-28127,186,-27776,-3522
C01218=7154,32456,-28127,186,-27777,-3523
C01219=7157,32456,-28127,186,-27777,-3524
C01220=7159,32456,-28126,185,-27777,-3525
C01221=7161,32456,-28126,185,-27777,-3526
C01222=7164,32457,-28126,185,-27777,-3527
C01223=7164,30904,-27917,156,-28874,-3507
C01224=7070,31010,-27786,169,-28915,-3470
C01225=7070,32563,-27995,198,-27818,-3490
C01226=7076,32569,-27988,197,-27820,-3492
C01227=7082,32574,-27981,196,-27822,-3494
C01228=7090,32575,-27980,195,-27822,-3498
C01229=7098,32576,-27979,194,-27823,-3501
C01230=7106,32577,-27978,193,-27823,-3504
C01231=7115,32578,-27977,191,-27823,-3507
C01232=7123,32579,-27976,190,-27824,-3511
C01233=7131,32579,-27975,189,-27824,-3514
C01234=7139,32580,-27974,188,-27825,-3517
C01235=7148,32581,-27973,187,-27825,-3520
C01236=7155,32584,-27969,186,-27826,-3523
C01237=7160,31037,-27752,156,-28926,-3505
C01238=-41004,59868,4099,4900,-34257,16705
C01239=-41004,59868,1099,4900,-34257,16705
C01240=-41004,64596,1380,5213,-31659,16463
C01241=-41004,59868,1099,4900,-34257,16705
C01242=-41004,59868,9099,4900,-34257,16705
C01243=7160,31037,-27752,156,-28926,-3505
C01244=7160,32590,-27961,185,-27829,-3525
C01245=7167,32593,-27958,184,-27830,-3528
C01246=7175,32594,-27957,183,-27830,-3531
C01247=7184,32595,-27956,181,-27831,-3534
C01248=7192,32595,-27955,180,-27831,-3537
C01249=7200,32596,-27954,179,-27831,-3541
C01250=7207,32600,-27949,178,-27833,-3543
C01251=7212,32606,-27941,177,-27835,-3545
C01252=7212,32614,-27932,177,-27838,-3545
C01253=7211,32622,-27923,177,-27841,-3545
C01254=7208,32628,-27914,178,-27844,-3544
C01255=7202,32633,-27909,179,-27846,-3541
C01256=7194,32634,-27907,180,-27846,-3538
C01257=7186,32634,-27908,181,-27846,-3535
C01258=7178,32633,-27909,182,-27845,-3532
C01259=7169,32632,-27910,183,-27845,-3528
C01260=7161,32631,-27911,185,-27844,-3525
C01261=7153,32630,-27912,186,-27844,-3522
C01262=7144,32629,-27913,187,-27844,-3519
C01263=7136,32628,-27915,188,-27843,-3516
C01264=7128,32628,-27916,189,-27843,-3512
C01265=7120,32627,-27917,190,-27842,-3509
C01266=7111,32626,-27918,192,-27842,-3506
C01267=7103,32625,-27919,193,-27842,-3503
C01268=7095,32624,-27920,194,-27841,-3499
C01269=7087,32623,-27921,195,-27841,-3496
C01270=7081,32618,-27927,196,-27839,-3494
C01271=7075,32612,-27935,197,-27837,-3492
C01272=7067,32612,-27936,198,-27836,-3489
C01273=7059,32611,-27937,199,-27836,-3486
C01274=7051,32610,-27938,200,-27835,-3482
C01275=7042,32609,-27939,202,-27835,-3479
C01276=7034,32608,-27940,203,-27835,-3476
C01277=7026,32607,-27941,204,-27834,-3473
C01278=7018,32606,-27942,205,-27834,-3469
C01279=7011,32603,-27947,206,-27832,-3467
C01280=7006,32597,-27954,207,-27830,-3465
C01281=7005,32589,-27963,207,-27827,-3465
C01282=7006,32582,-27973,207,-27824,-3465
C01283=7007,32574,-27982,207,-27821,-3465
C01284=7007,32567,-27991,207,-27818,-3466
C01285=7014,32562,-27997,206,-27816,-3468
C01286=7021,32558,-28001,205,-27815,-3471
C01287=7029,32559,-28000,204,-27816,-3474
C01288=7037,32560,-27999,203,-27816,-3477
C01289=7046,32561,-27998,201,-27816,-3480
C01290=7054,32562,-27997,200,-27817,-3484
C01291=7062,32562,-27996,199,-27817,-3487
C01292=7070,32563,-27995,198,-27818,-3490
C01293=7070,31010,-27786,169,-28915,-3470
C01294=6961,31445,-27252,183,-29082,-3426
C01295=6961,32998,-27461,212,-27985,-3446
C01296=6976,33000,-27459,210,-27986,-3452
C01297=6990,33001,-27457,208,-27986,-3458
C01298=7000,33011,-27445,206,-27990,-3462
C01299=7013,33015,-27440,204,-27992,-3467
C01300=7023,33024,-27429,203,-27995,-3471
C01301=7035,33030,-27421,201,-27998,-3475
C01302=7047,33036,-27413,199,-28000,-3480
C01303=7058,33045,-27403,198,-28004,-3484
C01304=7071,33049,-27397,196,-28006,-3489
C01305=7081,33059,-27385,195,-28010,-3493
C01306=7095,33061,-27383,192,-28010,-3499
C01307=7110,33062,-27381,190,-28011,-3504
C01308=7125,33064,-27379,188,-28012,-3510
C01309=7139,33065,-27377,186,-28012,-3516
C01310=7153,33065,-27377,184,-28012,-3521
C01311=7165,33058,-27386,182,-28010,-3526
C01312=7178,33055,-27390,181,-28009,-3531
C01313=7191,33051,-27394,179,-28008,-3536
C01314=7203,33045,-27402,177,-28005,-3541
C01315=7217,33044,-27403,175,-28005,-3546
C01316=7230,33049,-27396,173,-28007,-3551
C01317=7239,33060,-27383,172,-28011,-3555
C01318=7244,33072,-27369,171,-28016,-3557
C01319=7243,33085,-27352,171,-28021,-3556
C01320=7232,33094,-27341,173,-28024,-3552
C01321=7218,33096,-27339,175,-28025,-3546
C01322=7209,33105,-27327,176,-28029,-3543
C01323=7202,33116,-27314,177,-28033,-3540
C01324=7191,33125,-27304,179,-28036,-3536
C01325=7179,33133,-27293,180,-28039,-3531
C01326=7174,33145,-27279,181,-28044,-3529
C01327=7163,33154,-27268,182,-28047,-3525
C01328=7152,33163,-27257,184,-28050,-3521
C01329=7148,33175,-27243,185,-28055,-3519
C01330=7136,33183,-27232,186,-28058,-3514
C01331=7124,33190,-27224,188,-28061,-3510
C01332=7110,33188,-27226,190,-28060,-3504
C01333=7095,33187,-27228,192,-28059,-3498
C01334=7082,33182,-27234,194,-28057,-3493
C01335=7071,33174,-27243,196,-28054,-3489
C01336=7057,33173,-27245,198,-28053,-3483
C01337=7047,33162,-27258,199,-28049,-3480
C01338=7034,33158,-27264,201,-28048,-3475
C01339=7023,33150,-27274,202,-28044,-3470
C01340=7012,33143,-27282,204,-28042,-3466
C01341=6999,33138,-27289,206,-28039,-3461
C01342=6990,33128,-27301,207,-28036,-3457
C01343=6976,33124,-27306,209,-28034,-3452
C01344=6967,33113,-27319,211,-28030,-3449
C01345=6957,33104,-27330,212,-28026,-3445
C01346=6945,33098,-27338,214,-28024,-3440
C01347=6941,33086,-27353,214,-28019,-3438
C01348=6934,33075,-27367,216,-28014,-3436
C01349=6932,33062,-27382,216,-28009,-3435
C01350=6924,33051,-27396,217,-28005,-3432
C01351=6925,33037,-27413,217,-28000,-3433
C01352=6927,33024,-27430,217,-27995,-3433
C01353=6938,33015,-27440,215,-27991,-3438
C01354=6950,33007,-27450,214,-27988,-3442
C01355=6961,32998,-27461,212,-27985,-3446
C01356=6961,31445,-27252,183,-29082,-3426
C01357=7201,31654,-26993,148,-29165,-3519
C01358=7201,33207,-27202,177,-28068,-3539
C01359=7218,33209,-27200,174,-28069,-3546
C01360=7233,33215,-27193,172,-28071,-3552
C01361=7237,33229,-27175,172,-28077,-3554
C01362=7246,33242,-27159,170,-28082,-3557
C01363=7244,33258,-27139,171,-28088,-3556
C01364=7246,33273,-27121,170,-28094,-3557
C01365=7251,33287,-27104,169,-28099,-3559
C01366=7250,33303,-27084,170,-28106,-3558
C01367=7255,33317,-27067,169,-28111,-3560
C01368=7257,33332,-27048,168,-28117,-3561
C01369=7255,33348,-27028,169,-28123,-3560
C01370=7264,33361,-27012,167,-28128,-3564
C01371=7272,33370,-27001,166,-28132,-3567
C01372=7287,33368,-27003,164,-28131,-3573
C01373=7301,33358,-27016,162,-28127,-3578
C01374=7307,33345,-27032,161,-28122,-3581
C01375=7314,33331,-27049,160,-28117,-3583
C01376=7321,33318,-27065,159,-28112,-3586
C01377=7327,33304,-27082,159,-28107,-3588
C01378=7340,33294,-27095,157,-28103,-3593
C01379=7356,33292,-27097,154,-28102,-3600
C01380=7370,33298,-27089,152,-28105,-3605
C01381=7373,33313,-27071,152,-28110,-3606
C01382=7382,33326,-27055,151,-28116,-3610
C01383=7387,33340,-27038,150,-28121,-3612
C01384=7389,33355,-27019,150,-28127,-3612
C01385=7394,33369,-27002,149,-28133,-3614
C01386=7397,33384,-26984,148,-28138,-3615
C01387=7405,33397,-26967,147,-28143,-3619
C01388=7403,33413,-26948,147,-28150,-3618
C01389=7389,33421,-26938,149,-28153,-3612
C01390=7372,33419,-26940,152,-28152,-3606
C01391=7355,33418,-26942,154,-28151,-3599
C01392=7338,33416,-26945,157,-28150,-3592
C01393=7321,33414,-26947,159,-28149,-3586
C01394=7304,33412,-26949,162,-28148,-3579
C01395=7287,33410,-26952,164,-28148,-3573
C01396=7270,33409,-26954,166,-28147,-3566
C01397=7253,33407,-26956,169,-28146,-3559
C01398=7238,33414,-26948,171,-28148,-3554
C01399=7222,33413,-26948,173,-28148,-3547
C01400=7205,33412,-26951,176,-28147,-3540
C01401=7189,33416,-26946,178,-28149,-3535
C01402=7174,33418,-26943,180,-28149,-3528
C01403=7157,33416,-26945,183,-28149,-3522
C01404=7145,33405,-26959,184,-28144,-3517
C01405=7136,33392,-26975,186,-28139,-3514
C01406=7138,33376,-26995,185,-28133,-3514
C01407=7139,33360,-27014,185,-28127,-3515
C01408=7141,33344,-27034,185,-28121,-3516
C01409=7143,33328,-27054,185,-28114,-3517
C01410=7145,33312,-27073,185,-28108,-3517
C01411=7155,33301,-27087,183,-28104,-3521
C01412=7158,33285,-27106,183,-28098,-3523
C01413=7160,33269,-27126,183,-28092,-3523
C01414=7168,33256,-27142,181,-28087,-3526
C01415=7173,33243,-27159,181,-28081,-3529
C01416=7180,33229,-27175,180,-28076,-3531
C01417=7187,33216,-27192,179,-28071,-3534
C01418=7201,33207,-27202,177,-28068,-3539
C01419=7201,31654,-26993,148,-29165,-3519
C01420=7456,31803,-26809,111,-29225,-3619
C01421=7456,33356,-27018,140,-28128,-3639
C01422=7461,33352,-27022,139,-28127,-3640
C01423=7465,33349,-27026,139,-28125,-3642
C01424=7469,33346,-27030,138,-28124,-3644
C01425=7474,33343,-27034,137,-28123,-3645
C01426=7478,33340,-27038,137,-28122,-3647
C01427=7482,33336,-27042,136,-28121,-3649
C01428=7487,33334,-27044,136,-28120,-3651
C01429=7492,33335,-27043,135,-28120,-3653
C01430=7498,33336,-27042,134,-28120,-3655
C01431=7503,33336,-27042,133,-28121,-3657
C01432=7508,33339,-27038,133,-28122,-3659
C01433=7511,33343,-27033,132,-28123,-3660
C01434=7515,33347,-27028,132,-28125,-3661
C01435=7514,33352,-27022,132,-28127,-3661
C01436=7513,33357,-27016,132,-28129,-3661
C01437=7513,33362,-27009,132,-28131,-3661
C01438=7513,33367,-27003,132,-28133,-3661
C01439=7517,33371,-26998,131,-28134,-3662
C01440=7520,33375,-26993,131,-28136,-3664
C01441=7521,33380,-26988,131,-28138,-3664
C01442=7521,33385,-26981,131,-28140,-3664
C01443=7523,33390,-26976,130,-28142,-3665
C01444=7526,33394,-26971,130,-28143,-3666
C01445=7530,33398,-26966,129,-28145,-3667
C01446=7529,33403,-26959,129,-28147,-3667
C01447=7528,33408,-26953,129,-28149,-3667
C01448=7528,33413,-26947,130,-28151,-3666
C01449=7526,33418,-26941,130,-28152,-3666
C01450=7521,33421,-26937,130,-28154,-3664
C01451=7517,33424,-26934,131,-28155,-3662
C01452=7513,33427,-26930,132,-28156,-3661
C01453=7509,33430,-26926,132,-28157,-3659
C01454=7504,33433,-26922,133,-28158,-3657
C01455=7499,33433,-26923,134,-28158,-3655
C01456=7493,33432,-26924,134,-28158,-3653
C01457=7488,33432,-26924,135,-28158,-3651
C01458=7482,33431,-26925,136,-28157,-3649
C01459=7477,33430,-26926,137,-28157,-3646
C01460=7471,33430,-26927,138,-28157,-3644
C01461=7466,33429,-26927,138,-28156,-3642
C01462=7460,33429,-26928,139,-28156,-3640
C01463=7455,33428,-26929,140,-28156,-3638
C01464=7449,33428,-26930,141,-28156,-3636
C01465=7444,33427,-26930,142,-28155,-3634
C01466=7440,33423,-26935,142,-28154,-3632
C01467=7437,33419,-26940,143,-28152,-3631
C01468=7434,33415,-26945,143,-28151,-3630
C01469=7435,33410,-26952,143,-28149,-3630
C01470=7435,33405,-26958,143,-28147,-3630
C01471=7436,33400,-26964,143,-28145,-3631
C01472=7436,33394,-26970,143,-28143,-3631
C01473=7437,33389,-26977,143,-28141,-3631
C01474=7438,33384,-26983,143,-28139,-3631
C01475=7438,33379,-26989,142,-28137,-3632
C01476=7442,33375,-26994,142,-28135,-3633
C01477=7446,33372,-26998,141,-28134,-3635
C01478=7450,33369,-27002,141,-28133,-3636
C01479=7450,33364,-27008,141,-28131,-3636
C01480=7452,33359,-27014,141,-28129,-3637
C01481=7456,33356,-27018,140,-28128,-3639
C01482=7456,31803,-26809,111,-29225,-3619
C01483=7571,31848,-26753,94,-29243,-3663
C01484=7571,33401,-26962,123,-28146,-3683
C01485=7587,33390,-26976,121,-28142,-3689
C01486=7595,33375,-26994,120,-28136,-3693
C01487=7611,33367,-27003,118,-28134,-3699
C01488=7629,33372,-26997,115,-28136,-3706
C01489=7641,33386,-26980,113,-28141,-3711
C01490=7643,33403,-26959,113,-28148,-3711
C01491=7651,33419,-26939,112,-28154,-3714
C01492=7669,33422,-26936,109,-28155,-3722
C01493=7687,33419,-26939,107,-28154,-3729
C01494=7696,33404,-26957,106,-28149,-3732
C01495=7711,33393,-26971,103,-28144,-3738
C01496=7729,33389,-26975,101,-28143,-3745
C01497=7748,33391,-26973,98,-28144,-3752
C01498=7757,33406,-26954,97,-28150,-3756
C01499=7757,33423,-26933,97,-28157,-3756
C01500=7763,33439,-26913,96,-28163,-3758
C01501=7769,33452,-26898,95,-28168,-3760
C01502=7789,33454,-26896,92,-28169,-3768
C01503=7805,33445,-26906,90,-28166,-3774
C01504=7820,33434,-26920,88,-28161,-3780
C01505=7835,33422,-26934,86,-28157,-3786
C01506=7850,33411,-26948,84,-28153,-3792
C01507=7859,33396,-26966,82,-28147,-3795
C01508=7874,33384,-26980,80,-28143,-3801
C01509=7882,33370,-26998,79,-28137,-3805
C01510=7898,33358,-27012,77,-28133,-3811
C01511=7914,33350,-27022,75,-28130,-3817
C01512=7932,33355,-27016,72,-28132,-3824
C01513=7938,33371,-26997,71,-28138,-3826
C01514=7946,33386,-26978,70,-28144,-3830
C01515=7944,33404,-26956,70,-28151,-3829
C01516=7942,33422,-26933,70,-28158,-3828
C01517=7933,33437,-26915,72,-28163,-3824
C01518=7928,33453,-26895,72,-28170,-3822
C01519=7926,33472,-26873,73,-28177,-3821
C01520=7915,33485,-26856,74,-28182,-3817
C01521=7911,33503,-26834,75,-28189,-3816
C01522=7899,33516,-26818,76,-28194,-3811
C01523=7890,33530,-26801,78,-28199,-3807
C01524=7871,33530,-26801,80,-28199,-3800
C01525=7853,33525,-26807,83,-28197,-3793
C01526=7838,33517,-26817,85,-28194,-3787
C01527=7818,33515,-26820,88,-28193,-3779
C01528=7804,33504,-26834,90,-28188,-3774
C01529=7785,33502,-26836,93,-28187,-3766
C01530=7770,33493,-26848,95,-28184,-3761
C01531=7751,33488,-26853,97,-28182,-3753
C01532=7732,33486,-26855,100,-28181,-3746
C01533=7718,33476,-26869,102,-28177,-3740
C01534=7699,33473,-26872,105,-28176,-3733
C01535=7679,33471,-26875,108,-28175,-3725
C01536=7662,33465,-26882,110,-28172,-3719
C01537=7646,33458,-26891,113,-28169,-3712
C01538=7627,33456,-26894,115,-28168,-3705
C01539=7607,33454,-26896,118,-28167,-3697
C01540=7588,33452,-26899,121,-28166,-3690
C01541=7571,33445,-26907,123,-28164,-3683
C01542=7559,33431,-26924,125,-28158,-3678
C01543=7559,33414,-26946,125,-28151,-3679
C01544=7571,31848,-26753,94,-29243,-3663
C01545=-41004,59868,4099,4900,-34257,16705
C01546=-41004,59868,1099,4900,-34257,16705
C01547=-41004,64596,1380,5213,-31659,16463
C01548=-41004,59868,1099,4900,-34257,16705
C01549=-41004,59868,9099,4900,-34257,16705
C01550=7571,31848,-26753,94,-29243,-3663
C01551=7571,33401,-26962,123,-28146,-3683
C01552=7571,31848,-26753,94,-29243,-3663
C01553=7825,31778,-26837,58,-29219,-3762
C01554=7825,33331,-27046,87,-28122,-3782
C01555=7812,33195,-27214,89,-28069,-3778
C01556=7923,33148,-27271,74,-28051,-3821
C01557=8038,33205,-27200,57,-28074,-3866
C01558=8133,33236,-27162,43,-28087,-3903
C01559=8234,33108,-27318,29,-28039,-3942
C01560=8301,32963,-27496,20,-27983,-3968
C01561=8394,33056,-27382,6,-28020,-4004
C01562=8333,33204,-27200,15,-28077,-3981
C01563=8361,33284,-27101,11,-28108,-3991
C01564=8523,33239,-27155,-12,-28092,-4054
C01565=8698,33267,-27120,-38,-28104,-4122
C01566=8791,33374,-26988,-51,-28147,-4159
C01567=8621,33337,-27034,-27,-28131,-4093
C01568=8545,33423,-26929,-16,-28163,-4063
C01569=8418,33519,-26812,2,-28200,-4013
C01570=8554,33573,-26744,-17,-28222,-4066
C01571=8734,33592,-26720,-43,-28231,-4136
C01572=8903,33629,-26673,-67,-28247,-4202
C01573=8821,33708,-26576,-56,-28277,-4170
C01574=8656,33739,-26539,-32,-28287,-4106
C01575=8652,33836,-26420,-32,-28325,-4104
C01576=8809,33892,-26350,-54,-28348,-4165
C01577=8945,33982,-26238,-73,-28384,-4218
C01578=8936,34139,-26045,-72,-28445,-4215
C01579=8940,34300,-25847,-73,-28508,-4217
C01580=9063,34329,-25810,-90,-28520,-4264
C01581=9212,34246,-25912,-112,-28489,-4323
C01582=9380,34224,-25937,-135,-28483,-4388
C01583=9510,34290,-25855,-154,-28509,-4439
C01584=9337,34288,-25859,-129,-28507,-4371
C01585=9189,34356,-25776,-108,-28532,-4313
C01586=9204,34511,-25585,-110,-28592,-4319
C01587=9162,34661,-25400,-104,-28651,-4303
C01588=9173,34805,-25222,-106,-28707,-4307
C01589=9031,34911,-25093,-86,-28747,-4252
C01590=8989,35065,-24904,-80,-28806,-4236
C01591=9012,35220,-24712,-83,-28867,-4245
C01592=9070,35366,-24531,-91,-28924,-4267
C01593=8941,35364,-24535,-73,-28922,-4217
C01594=8930,35205,-24731,-72,-28860,-4213
C01595=8852,35065,-24905,-61,-28804,-4182
C01596=8735,34945,-25053,-44,-28757,-4136
C01597=8630,34817,-25212,-29,-28706,-4095
C01598=8609,34660,-25405,-26,-28645,-4087
C01599=8614,34497,-25606,-27,-28581,-4089
C01600=8458,34467,-25644,-5,-28568,-4028
C01601=8296,34421,-25702,18,-28549,-3965
C01602=8195,34293,-25860,33,-28498,-3926
C01603=8264,34164,-26019,23,-28449,-3953
C01604=8431,34172,-26007,-1,-28454,-4018
C01605=8508,34103,-26091,-11,-28428,-4048
C01606=8368,34020,-26195,9,-28394,-3993
C01607=8265,33951,-26281,23,-28366,-3953
C01608=8319,33855,-26398,16,-28329,-3974
C01609=8176,33774,-26498,36,-28297,-3919
C01610=8026,33706,-26583,58,-28269,-3860
C01611=7967,33571,-26751,67,-28216,-3837
C01612=7995,33415,-26941,63,-28156,-3848
C01613=7977,33260,-27133,66,-28095,-3842
C01614=7825,33331,-27046,87,-28122,-3782
C01615=7825,31778,-26837,58,-29219,-3762
C01616=8096,31620,-27030,20,-29160,-3868
C01617=8096,33173,-27239,49,-28063,-3888
C01618=8090,33166,-27247,50,-28060,-3886
C01619=8089,33158,-27257,50,-28057,-3885
C01620=8085,33150,-27267,50,-28054,-3884
C01621=8080,33143,-27276,51,-28051,-3882
C01622=8081,33134,-27287,51,-28047,-3882
C01623=8082,33126,-27298,51,-28044,-3883
C01624=8077,33118,-27306,52,-28041,-3881
C01625=8074,33111,-27316,52,-28038,-3880
C01626=8075,33102,-27327,52,-28035,-3880
C01627=8076,33093,-27338,52,-28031,-3880
C01628=8077,33084,-27349,52,-28028,-3881
C01629=8078,33075,-27359,52,-28025,-3881
C01630=8072,33068,-27368,53,-28022,-3879
C01631=8070,33060,-27378,53,-28019,-3878
C01632=8071,33052,-27389,53,-28015,-3878
C01633=8072,33043,-27400,53,-28012,-3879
C01634=8073,33034,-27410,52,-28008,-3879
C01635=8072,33025,-27421,53,-28005,-3879
C01636=8066,33018,-27429,53,-28002,-3877
C01637=8065,33010,-27440,54,-27999,-3876
C01638=8066,33001,-27451,53,-27996,-3877
C01639=8071,32994,-27459,53,-27993,-3879
C01640=8078,32989,-27466,52,-27991,-3881
C01641=8086,32983,-27473,51,-27989,-3884
C01642=8094,32981,-27476,49,-27988,-3888
C01643=8104,32982,-27475,48,-27988,-3891
C01644=8112,32984,-27471,47,-27990,-3895
C01645=8118,32991,-27463,46,-27992,-3897
C01646=8127,32994,-27460,45,-27993,-3900
C01647=8137,32995,-27458,43,-27994,-3904
C01648=8144,32999,-27453,42,-27996,-3907
C01649=8150,33006,-27445,41,-27998,-3909
C01650=8160,33007,-27443,40,-27999,-3913
C01651=8169,33008,-27442,39,-27999,-3917
C01652=8176,33014,-27434,38,-28002,-3919
C01653=8181,33021,-27425,37,-28004,-3922
C01654=8187,33028,-27417,36,-28007,-3924
C01655=8193,33035,-27408,35,-28010,-3926
C01656=8197,33043,-27399,35,-28013,-3928
C01657=8196,33052,-27388,35,-28016,-3927
C01658=8194,33060,-27378,35,-28020,-3926
C01659=8186,33066,-27371,36,-28022,-3923
C01660=8183,33073,-27361,37,-28025,-3922
C01661=8182,33082,-27351,37,-28028,-3922
C01662=8178,33089,-27342,37,-28031,-3920
C01663=8170,33095,-27335,38,-28033,-3917
C01664=8169,33104,-27324,39,-28036,-3916
C01665=8167,33113,-27313,39,-28040,-3916
C01666=8161,33119,-27305,40,-28042,-3914
C01667=8155,33125,-27298,40,-28045,-3911
C01668=8154,33134,-27287,41,-28048,-3911
C01669=8153,33143,-27276,41,-28051,-3910
C01670=8145,33148,-27269,42,-28053,-3907
C01671=8141,33156,-27260,42,-28056,-3906
C01672=8137,33163,-27251,43,-28059,-3904
C01673=8130,33168,-27245,44,-28061,-3901
C01674=8122,33174,-27238,45,-28063,-3898
C01675=8114,33177,-27234,46,-28064,-3895
C01676=8104,33176,-27235,48,-28064,-3891
C01677=8096,33173,-27239,49,-28063,-3888
C01678=8096,31620,-27030,20,-29160,-3868
C01679=9330,32812,-25554,-157,-29634,-4349
C01680=9330,34365,-25763,-128,-28537,-4369
C01681=9348,34367,-25761,-131,-28538,-4376
C01682=9363,34359,-25771,-133,-28535,-4381
C01683=9380,34361,-25769,-135,-28536,-4388
C01684=9398,34363,-25766,-138,-28537,-4395
C01685=9416,34364,-25764,-140,-28537,-4402
C01686=9433,34366,-25761,-143,-28538,-4409
C01687=9451,34369,-25758,-145,-28539,-4416
C01688=9463,34379,-25745,-147,-28544,-4421
C01689=9480,34382,-25742,-150,-28545,-4427
C01690=9493,34392,-25729,-151,-28549,-4432
C01691=9506,34402,-25717,-153,-28553,-4437
C01692=9517,34415,-25701,-155,-28558,-4442
C01693=9528,34428,-25685,-156,-28563,-4446
C01694=9532,34443,-25666,-157,-28569,-4448
C01695=9541,34457,-25649,-158,-28575,-4451
C01696=9538,34473,-25629,-158,-28581,-4450
C01697=9536,34490,-25608,-157,-28588,-4449
C01698=9531,34506,-25589,-157,-28594,-4447
C01699=9521,34519,-25573,-155,-28598,-4443
C01700=9516,34534,-25554,-155,-28604,-4441
C01701=9507,34547,-25538,-153,-28609,-4438
C01702=9495,34559,-25524,-152,-28614,-4433
C01703=9487,34572,-25507,-150,-28619,-4430
C01704=9480,34587,-25490,-149,-28625,-4427
C01705=9465,34597,-25477,-147,-28628,-4422
C01706=9451,34608,-25464,-145,-28632,-4416
C01707=9444,34622,-25447,-144,-28638,-4413
C01708=9430,34632,-25434,-142,-28642,-4408
C01709=9415,34643,-25421,-140,-28646,-4402
C01710=9401,34653,-25408,-138,-28650,-4397
C01711=9387,34663,-25396,-136,-28654,-4391
C01712=9371,34667,-25391,-134,-28655,-4385
C01713=9355,34670,-25387,-132,-28656,-4378
C01714=9340,34678,-25378,-129,-28659,-4373
C01715=9325,34684,-25370,-127,-28661,-4367
C01716=9308,34688,-25366,-125,-28662,-4360
C01717=9293,34692,-25361,-123,-28664,-4354
C01718=9275,34690,-25363,-120,-28663,-4347
C01719=9263,34680,-25376,-119,-28659,-4342
C01720=9264,34663,-25397,-119,-28652,-4343
C01721=9267,34646,-25417,-119,-28646,-4344
C01722=9269,34630,-25438,-120,-28639,-4345
C01723=9278,34616,-25455,-121,-28634,-4348
C01724=9284,34601,-25473,-122,-28628,-4351
C01725=9286,34584,-25494,-122,-28622,-4351
C01726=9288,34568,-25514,-122,-28615,-4352
C01727=9291,34551,-25535,-123,-28609,-4353
C01728=9293,34534,-25555,-123,-28602,-4354
C01729=9295,34518,-25576,-123,-28596,-4355
C01730=9298,34501,-25597,-124,-28589,-4356
C01731=9297,34485,-25616,-123,-28583,-4356
C01732=9292,34470,-25634,-123,-28577,-4354
C01733=9294,34454,-25655,-123,-28571,-4355
C01734=9287,34439,-25672,-122,-28565,-4352
C01735=9284,34424,-25691,-122,-28559,-4351
C01736=9280,34409,-25710,-121,-28554,-4349
C01737=9287,34395,-25727,-122,-28548,-4352
C01738=9301,34384,-25740,-124,-28544,-4357
C01739=9315,34374,-25753,-126,-28540,-4363
C01740=9330,34365,-25763,-128,-28537,-4369
C01741=9330,32812,-25554,-157,-29634,-4349
C01742=9669,32894,-25452,-205,-29669,-4481
C01743=9669,34447,-25661,-176,-28572,-4501
C01744=9677,34441,-25668,-177,-28570,-4504
C01745=9685,34435,-25675,-178,-28568,-4507
C01746=9693,34433,-25678,-180,-28567,-4510
C01747=9703,34434,-25676,-181,-28567,-4514
C01748=9711,34437,-25672,-182,-28568,-4517
C01749=9716,34444,-25664,-183,-28571,-4519
C01750=9725,34446,-25661,-184,-28572,-4523
C01751=9735,34447,-25660,-186,-28573,-4527
C01752=9742,34452,-25654,-187,-28575,-4529
C01753=9747,34459,-25645,-187,-28577,-4532
C01754=9753,34466,-25636,-188,-28580,-4534
C01755=9761,34469,-25632,-189,-28582,-4537
C01756=9769,34474,-25627,-190,-28583,-4540
C01757=9774,34481,-25618,-191,-28586,-4542
C01758=9780,34488,-25609,-192,-28589,-4544
C01759=9786,34495,-25601,-193,-28592,-4547
C01760=9792,34502,-25592,-194,-28595,-4549
C01761=9797,34509,-25583,-194,-28597,-4551
C01762=9803,34516,-25574,-195,-28600,-4553
C01763=9809,34523,-25566,-196,-28603,-4556
C01764=9815,34530,-25557,-197,-28606,-4558
C01765=9820,34537,-25548,-198,-28608,-4560
C01766=9826,34544,-25540,-198,-28611,-4562
C01767=9825,34553,-25529,-198,-28615,-4562
C01768=9830,34560,-25520,-199,-28618,-4564
C01769=9833,34568,-25510,-199,-28621,-4565
C01770=9832,34577,-25499,-199,-28624,-4565
C01771=9830,34586,-25488,-199,-28628,-4564
C01772=9829,34595,-25477,-199,-28631,-4564
C01773=9827,34604,-25466,-199,-28634,-4563
C01774=9820,34609,-25460,-198,-28637,-4560
C01775=9811,34611,-25457,-196,-28637,-4557
C01776=9802,34610,-25459,-195,-28637,-4553
C01777=9794,34607,-25463,-194,-28635,-4550
C01778=9788,34600,-25472,-193,-28632,-4547
C01779=9779,34598,-25474,-192,-28632,-4544
C01780=9772,34592,-25481,-191,-28629,-4541
C01781=9766,34587,-25488,-190,-28627,-4539
C01782=9757,34584,-25491,-189,-28626,-4535
C01783=9751,34577,-25499,-188,-28623,-4533
C01784=9743,34575,-25503,-187,-28622,-4530
C01785=9736,34570,-25509,-186,-28620,-4527
C01786=9730,34563,-25516,-185,-28618,-4525
C01787=9720,34562,-25518,-183,-28617,-4521
C01788=9715,34555,-25527,-183,-28614,-4519
C01789=9709,34548,-25536,-182,-28612,-4517
C01790=9703,34541,-25544,-181,-28609,-4514
C01791=9694,34540,-25545,-180,-28608,-4511
C01792=9688,34533,-25554,-179,-28606,-4508
C01793=9682,34526,-25562,-178,-28603,-4506
C01794=9676,34519,-25571,-177,-28600,-4504
C01795=9671,34512,-25580,-176,-28597,-4502
C01796=9668,34505,-25590,-176,-28594,-4500
C01797=9667,34496,-25600,-176,-28591,-4500
C01798=9661,34489,-25608,-175,-28588,-4498
C01799=9661,34481,-25619,-175,-28585,-4498
C01800=9662,34472,-25630,-175,-28581,-4498
C01801=9663,34463,-25641,-175,-28578,-4499
C01802=9665,34454,-25652,-176,-28575,-4499
C01803=9669,34447,-25661,-176,-28572,-4501
C01804=9669,32894,-25452,-205,-29669,-4481
C01805=9694,33075,-25228,-209,-29740,-4491
C01806=9694,34628,-25437,-180,-28643,-4511
C01807=9712,34630,-25435,-182,-28644,-4518
C01808=9726,34637,-25425,-184,-28647,-4523
C01809=9742,34643,-25419,-186,-28649,-4530
C01810=9756,34651,-25408,-188,-28652,-4535
C01811=9767,34664,-25392,-190,-28657,-4539
C01812=9781,34671,-25383,-192,-28660,-4545
C01813=9792,34684,-25367,-194,-28666,-4549
C01814=9795,34700,-25348,-194,-28672,-4551
C01815=9806,34713,-25332,-196,-28677,-4555
C01816=9809,34728,-25313,-196,-28683,-4556
C01817=9813,34744,-25294,-196,-28689,-4557
C01818=9815,34759,-25274,-197,-28695,-4558
C01819=9812,34776,-25254,-196,-28702,-4557
C01820=9810,34793,-25233,-196,-28708,-4556
C01821=9804,34808,-25214,-195,-28714,-4554
C01822=9795,34822,-25197,-194,-28719,-4550
C01823=9789,34837,-25179,-193,-28725,-4548
C01824=9780,34851,-25162,-192,-28730,-4545
C01825=9767,34862,-25149,-190,-28734,-4539
C01826=9752,34872,-25136,-188,-28738,-4534
C01827=9738,34883,-25123,-186,-28742,-4528
C01828=9724,34893,-25110,-184,-28746,-4523
C01829=9709,34904,-25097,-182,-28750,-4517
C01830=9694,34910,-25089,-179,-28753,-4511
C01831=9679,34918,-25080,-177,-28756,-4505
C01832=9662,34922,-25075,-175,-28757,-4499
C01833=9646,34925,-25072,-173,-28758,-4492
C01834=9628,34923,-25074,-170,-28757,-4485
C01835=9613,34931,-25064,-168,-28760,-4480
C01836=9595,34929,-25067,-165,-28759,-4473
C01837=9578,34927,-25069,-163,-28758,-4466
C01838=9560,34925,-25072,-160,-28757,-4459
C01839=9542,34923,-25074,-158,-28756,-4452
C01840=9524,34921,-25077,-155,-28755,-4445
C01841=9512,34910,-25090,-154,-28751,-4440
C01842=9495,34908,-25094,-151,-28750,-4433
C01843=9482,34897,-25106,-150,-28746,-4428
C01844=9469,34888,-25119,-148,-28742,-4423
C01845=9470,34871,-25139,-148,-28735,-4424
C01846=9481,34859,-25154,-149,-28731,-4428
C01847=9496,34850,-25165,-152,-28727,-4434
C01848=9512,34845,-25171,-154,-28725,-4440
C01849=9526,34834,-25184,-156,-28721,-4446
C01850=9543,34831,-25188,-158,-28720,-4452
C01851=9557,34820,-25201,-160,-28716,-4457
C01852=9571,34810,-25214,-162,-28712,-4463
C01853=9583,34798,-25229,-164,-28708,-4468
C01854=9593,33232,-25036,-194,-29800,-4452
C01855=-41004,59868,4099,4900,-34257,16705
C01856=-41004,59868,1099,4900,-34257,16705
C01857=-41004,64596,1380,5213,-31659,16463
C01858=-41004,59868,1099,4900,-34257,16705
C01859=-41004,59868,9099,4900,-34257,16705
C01860=9593,33232,-25036,-194,-29800,-4452
C01861=9593,34785,-25245,-165,-28703,-4472
C01862=9601,34771,-25262,-166,-28697,-4475
C01863=9610,34757,-25278,-168,-28692,-4478
C01864=9622,34745,-25293,-169,-28688,-4483
C01865=9624,34728,-25314,-170,-28681,-4484
C01866=9627,34712,-25335,-170,-28675,-4485
C01867=9629,34695,-25355,-170,-28668,-4486
C01868=9632,34678,-25376,-171,-28661,-4487
C01869=9634,34661,-25397,-171,-28655,-4488
C01870=9648,34650,-25410,-173,-28651,-4493
C01871=9663,34639,-25423,-175,-28647,-4499
C01872=9679,34636,-25427,-178,-28646,-4505
C01873=9694,34628,-25437,-180,-28643,-4511
C01874=9694,33075,-25228,-209,-29740,-4491
C01875=9532,33129,-25163,-186,-29759,-4428
C01876=9532,34682,-25372,-157,-28662,-4448
C01877=9534,34685,-25368,-157,-28663,-4449
C01878=9537,34688,-25364,-157,-28665,-4449
C01879=9537,34691,-25360,-157,-28666,-4450
C01880=9537,34695,-25356,-157,-28667,-4450
C01881=9536,34699,-25351,-157,-28669,-4449
C01882=9536,34702,-25346,-157,-28670,-4449
C01883=9535,34706,-25342,-157,-28672,-4449
C01884=9534,34709,-25338,-157,-28673,-4448
C01885=9530,34712,-25335,-156,-28674,-4447
C01886=9527,34714,-25332,-156,-28675,-4446
C01887=9524,34716,-25329,-156,-28675,-4445
C01888=9523,34720,-25325,-155,-28677,-4444
C01889=9522,34723,-25321,-155,-28678,-4444
C01890=9521,34727,-25316,-155,-28680,-4444
C01891=9518,34729,-25314,-155,-28680,-4442
C01892=9515,34732,-25311,-154,-28681,-4441
C01893=9512,34734,-25308,-154,-28682,-4440
C01894=9510,34737,-25304,-154,-28683,-4439
C01895=9510,34741,-25299,-153,-28685,-4439
C01896=9509,34744,-25295,-153,-28686,-4439
C01897=9506,34747,-25292,-153,-28687,-4438
C01898=9503,34749,-25289,-153,-28688,-4436
C01899=9500,34751,-25286,-152,-28689,-4435
C01900=9496,34753,-25285,-152,-28689,-4434
C01901=9492,34752,-25285,-151,-28689,-4432
C01902=9488,34752,-25286,-150,-28689,-4431
C01903=9484,34752,-25286,-150,-28689,-4429
C01904=9481,34751,-25287,-149,-28689,-4428
C01905=9477,34750,-25288,-149,-28688,-4426
C01906=9475,34747,-25292,-149,-28687,-4425
C01907=9472,34744,-25295,-148,-28686,-4424
C01908=9470,34741,-25299,-148,-28685,-4423
C01909=9469,34738,-25303,-148,-28683,-4423
C01910=9470,34734,-25308,-148,-28682,-4423
C01911=9470,34731,-25312,-148,-28681,-4424
C01912=9471,34727,-25317,-148,-28679,-4424
C01913=9471,34723,-25321,-148,-28678,-4424
C01914=9472,34719,-25326,-148,-28676,-4424
C01915=9472,34716,-25331,-148,-28675,-4424
C01916=9473,34712,-25335,-148,-28673,-4425
C01917=9476,34709,-25338,-149,-28672,-4426
C01918=9479,34707,-25341,-149,-28671,-4427
C01919=9482,34705,-25344,-150,-28671,-4428
C01920=9485,34702,-25347,-150,-28670,-4429
C01921=9488,34700,-25350,-150,-28669,-4431
C01922=9491,34698,-25353,-151,-28668,-4432
C01923=9495,34695,-25355,-151,-28667,-4433
C01924=9496,34692,-25359,-152,-28666,-4434
C01925=9497,34689,-25364,-152,-28664,-4434
C01926=9497,34685,-25368,-152,-28663,-4434
C01927=9500,34682,-25371,-152,-28662,-4435
C01928=9504,34680,-25374,-153,-28661,-4437
C01929=9507,34678,-25377,-153,-28660,-4438
C01930=9510,34676,-25379,-154,-28660,-4439
C01931=9514,34677,-25378,-154,-28660,-4441
C01932=9518,34677,-25378,-155,-28660,-4442
C01933=9522,34678,-25377,-155,-28660,-4444
C01934=9526,34678,-25377,-156,-28661,-4445
C01935=9530,34679,-25375,-156,-28661,-4447
C01936=9532,34682,-25372,-157,-28662,-4448
C01937=9532,33129,-25163,-186,-29759,-4428
C01938=9687,33444,-24773,-207,-29883,-4488
C01939=9687,34997,-24982,-178,-28786,-4508
C01940=9701,34999,-24980,-180,-28787,-4514
C01941=9715,35000,-24978,-182,-28788,-4520
C01942=9725,35010,-24966,-184,-28792,-4523
C01943=9733,35020,-24953,-185,-28796,-4527
C01944=9742,35031,-24940,-186,-28800,-4530
C01945=9750,35042,-24927,-187,-28804,-4533
C01946=9759,35052,-24914,-188,-28809,-4537
C01947=9768,35063,-24900,-190,-28813,-4540
C01948=9776,35074,-24887,-191,-28817,-4543
C01949=9785,35084,-24874,-192,-28821,-4547
C01950=9784,35097,-24858,-192,-28826,-4547
C01951=9782,35111,-24841,-192,-28832,-4546
C01952=9780,35125,-24825,-191,-28837,-4545
C01953=9778,35138,-24808,-191,-28842,-4544
C01954=9771,35149,-24795,-190,-28846,-4541
C01955=9765,35160,-24781,-189,-28851,-4539
C01956=9754,35169,-24770,-188,-28854,-4535
C01957=9750,35181,-24755,-187,-28859,-4533
C01958=9738,35190,-24745,-185,-28862,-4529
C01959=9727,35198,-24734,-184,-28865,-4524
C01960=9715,35205,-24726,-182,-28868,-4519
C01961=9702,35208,-24722,-180,-28869,-4514
C01962=9689,35212,-24717,-178,-28870,-4509
C01963=9677,35218,-24710,-177,-28872,-4505
C01964=9664,35219,-24708,-175,-28873,-4500
C01965=9652,35227,-24699,-173,-28876,-4495
C01966=9638,35226,-24701,-171,-28875,-4489
C01967=9624,35224,-24703,-169,-28874,-4484
C01968=9610,35223,-24705,-167,-28874,-4478
C01969=9596,35221,-24707,-165,-28873,-4473
C01970=9581,35220,-24709,-163,-28872,-4467
C01971=9567,35218,-24710,-161,-28871,-4462
C01972=9553,35217,-24712,-159,-28871,-4456
C01973=9544,35206,-24725,-158,-28867,-4453
C01974=9530,35205,-24728,-156,-28866,-4447
C01975=9519,35198,-24736,-154,-28863,-4443
C01976=9508,35192,-24743,-153,-28861,-4438
C01977=9494,35190,-24746,-151,-28860,-4433
C01978=9487,35179,-24760,-150,-28855,-4430
C01979=9489,35165,-24776,-150,-28850,-4431
C01980=9491,35152,-24793,-151,-28845,-4432
C01981=9502,35143,-24803,-152,-28842,-4436
C01982=9513,35135,-24814,-154,-28838,-4441
C01983=9527,35133,-24816,-156,-28838,-4446
C01984=9538,35125,-24826,-157,-28835,-4450
C01985=9550,35119,-24833,-159,-28833,-4455
C01986=9563,35115,-24838,-161,-28831,-4460
C01987=9576,35112,-24841,-163,-28830,-4465
C01988=9588,35105,-24850,-164,-28827,-4470
C01989=9599,35097,-24860,-166,-28824,-4474
C01990=9611,35088,-24871,-167,-28821,-4479
C01991=9622,35080,-24881,-169,-28818,-4483
C01992=9627,35067,-24896,-170,-28813,-4485
C01993=9637,35058,-24907,-171,-28810,-4489
C01994=9639,35045,-24924,-172,-28805,-4490
C01995=9648,35035,-24936,-173,-28801,-4493
C01996=9653,35023,-24951,-173,-28796,-4495
C01997=9664,35014,-24961,-175,-28793,-4499
C01998=9675,35006,-24972,-177,-28790,-4504
C01999=9687,34997,-24982,-178,-28786,-4508
C02000=9687,33444,-24773,-207,-29883,-4488
C02001=9627,33789,-24349,-199,-30017,-4465
C02002=9627,35342,-24558,-170,-28920,-4485
C02003=9642,35343,-24556,-172,-28921,-4491
C02004=9658,35345,-24554,-174,-28922,-4497
C02005=9673,35347,-24552,-176,-28922,-4503
C02006=9688,35348,-24549,-178,-28923,-4509
C02007=9704,35350,-24547,-180,-28924,-4515
C02008=9714,35360,-24535,-182,-28928,-4519
C02009=9723,35371,-24521,-183,-28933,-4523
C02010=9736,35377,-24514,-185,-28935,-4528
C02011=9740,35390,-24498,-185,-28940,-4530
C02012=9747,35402,-24483,-186,-28945,-4532
C02013=9749,35416,-24466,-187,-28950,-4533
C02014=9755,35428,-24450,-187,-28955,-4535
C02015=9753,35443,-24432,-187,-28961,-4535
C02016=9751,35458,-24414,-187,-28966,-4534
C02017=9748,35472,-24396,-186,-28972,-4533
C02018=9742,35485,-24381,-186,-28977,-4530
C02019=9730,35494,-24369,-184,-28981,-4526
C02020=9723,35506,-24354,-183,-28985,-4523
C02021=9712,35516,-24342,-181,-28989,-4519
C02022=9699,35525,-24331,-179,-28992,-4514
C02023=9687,35535,-24320,-178,-28996,-4509
C02024=9674,35542,-24311,-176,-28998,-4504
C02025=9660,35546,-24306,-174,-29000,-4498
C02026=9648,35555,-24295,-172,-29004,-4494
C02027=9633,35557,-24293,-170,-29004,-4488
C02028=9618,35555,-24295,-168,-29003,-4482
C02029=9603,35553,-24297,-166,-29002,-4476
C02030=9589,35557,-24293,-164,-29003,-4470
C02031=9575,35560,-24289,-162,-29005,-4465
C02032=9559,35558,-24291,-160,-29004,-4459
C02033=9544,35557,-24293,-158,-29003,-4453
C02034=9534,35546,-24307,-156,-28999,-4449
C02035=9519,35544,-24309,-154,-28998,-4443
C02036=9504,35543,-24311,-152,-28997,-4437
C02037=9491,35537,-24318,-150,-28995,-4432
C02038=9478,35530,-24327,-148,-28992,-4427
C02039=9468,35520,-24339,-147,-28988,-4423
C02040=9455,35515,-24345,-145,-28986,-4418
C02041=9446,35504,-24360,-144,-28981,-4414
C02042=9436,35492,-24374,-143,-28977,-4411
C02043=9427,35480,-24388,-141,-28972,-4407
C02044=9418,35469,-24403,-140,-28968,-4403
C02045=9416,35455,-24420,-140,-28962,-4403
C02046=9421,35442,-24435,-141,-28957,-4405
C02047=9434,35433,-24447,-142,-28954,-4410
C02048=9448,35429,-24451,-144,-28952,-4415
C02049=9462,35429,-24452,-146,-28952,-4421
C02050=9476,35423,-24459,-148,-28950,-4426
C02051=9491,35424,-24457,-150,-28951,-4432
C02052=9505,35422,-24459,-152,-28950,-4438
C02053=9519,35418,-24465,-154,-28949,-4443
C02054=9532,35411,-24473,-156,-28946,-4448
C02055=9545,35402,-24484,-158,-28943,-4453
C02056=9550,35389,-24500,-159,-28938,-4455
C02057=9563,35380,-24511,-160,-28934,-4460
C02058=9575,35371,-24523,-162,-28931,-4465
C02059=9587,35361,-24534,-164,-28927,-4470
C02060=9600,35352,-24545,-166,-28924,-4475
C02061=9614,35350,-24548,-168,-28923,-4480
C02062=9627,35342,-24558,-170,-28920,-4485
C02063=9627,33789,-24349,-199,-30017,-4465
C02064=9285,33921,-24188,-150,-30065,-4332
C02065=9285,35474,-24397,-121,-28968,-4352
C02066=9294,35485,-24383,-123,-28973,-4355
C02067=9303,35497,-24369,-124,-28977,-4359
C02068=9306,35509,-24354,-124,-28982,-4360
C02069=9314,35521,-24339,-125,-28987,-4363
C02070=9315,35534,-24323,-126,-28992,-4363
C02071=9321,35546,-24308,-126,-28997,-4366
C02072=9319,35560,-24291,-126,-29002,-4365
C02073=9317,35575,-24273,-126,-29008,-4364
C02074=9315,35589,-24256,-126,-29013,-4363
C02075=9304,35598,-24244,-124,-29017,-4359
C02076=9292,35607,-24233,-122,-29020,-4355
C02077=9280,35616,-24222,-121,-29023,-4350
C02078=9267,35618,-24220,-119,-29024,-4344
C02079=9254,35623,-24214,-117,-29026,-4339
C02080=9241,35629,-24207,-115,-29028,-4334
C02081=9227,35631,-24205,-113,-29029,-4329
C02082=9215,35638,-24196,-111,-29031,-4324
C02083=9200,35636,-24198,-109,-29031,-4318
C02084=9185,35635,-24200,-107,-29030,-4313
C02085=9173,35629,-24207,-106,-29027,-4308
C02086=9161,35622,-24215,-104,-29025,-4303
C02087=9146,35621,-24217,-102,-29024,-4297
C02088=9132,35619,-24219,-100,-29023,-4292
C02089=9118,35616,-24223,-98,-29022,-4286
C02090=9107,35607,-24235,-96,-29018,-4282
C02091=9093,35605,-24237,-94,-29017,-4276
C02092=9083,35596,-24249,-93,-29014,-4272
C02093=9070,35591,-24255,-91,-29012,-4267
C02094=9059,35582,-24266,-90,-29008,-4263
C02095=9048,35575,-24274,-88,-29005,-4259
C02096=9035,35570,-24281,-86,-29003,-4254
C02097=9026,35559,-24294,-85,-28999,-4250
C02098=9017,35548,-24308,-84,-28994,-4246
C02099=9004,35543,-24314,-82,-28992,-4241
C02100=8995,35532,-24328,-81,-28988,-4238
C02101=8986,35521,-24342,-79,-28983,-4234
C02102=8982,35508,-24357,-79,-28978,-4233
C02103=8986,35495,-24374,-79,-28973,-4234
C02104=8998,35488,-24382,-81,-28971,-4239
C02105=9013,35490,-24380,-83,-28972,-4245
C02106=9028,35491,-24378,-85,-28972,-4251
C02107=9041,35488,-24382,-87,-28971,-4256
C02108=9055,35484,-24386,-89,-28970,-4261
C02109=9070,35486,-24384,-91,-28971,-4267
C02110=9083,35482,-24389,-93,-28969,-4272
C02111=9096,35479,-24392,-95,-28968,-4278
C02112=9111,35478,-24393,-97,-28968,-4283
C02113=9123,35472,-24401,-99,-28966,-4288
C02114=9138,35474,-24398,-101,-28967,-4294
C02115=9150,35466,-24408,-102,-28964,-4299
C02116=9164,35464,-24411,-104,-28963,-4304
C02117=9177,35459,-24417,-106,-28961,-4309
C02118=9192,35460,-24415,-108,-28962,-4315
C02119=9204,35452,-24425,-110,-28959,-4320
C02120=9219,35453,-24423,-112,-28959,-4326
C02121=9233,35455,-24421,-114,-28960,-4331
C02122=9248,35457,-24419,-116,-28961,-4337
C02123=9263,35458,-24417,-118,-28962,-4343
C02124=9272,35469,-24404,-120,-28966,-4347
C02125=9285,35474,-24397,-121,-28968,-4352
C02126=9285,33921,-24188,-150,-30065,-4332
C02127=6417,33388,-24865,253,-29829,-3209
C02128=6417,34941,-25074,282,-28732,-3229
C02129=6410,34952,-25062,283,-28736,-3226
C02130=6399,34960,-25051,284,-28739,-3222
C02131=6387,34964,-25047,286,-28740,-3217
C02132=6375,34970,-25040,287,-28743,-3213
C02133=6365,34978,-25030,289,-28746,-3209
C02134=6354,34986,-25019,290,-28749,-3204
C02135=6343,34995,-25009,292,-28752,-3200
C02136=6330,34996,-25008,294,-28753,-3195
C02137=6319,35004,-24998,295,-28756,-3191
C02138=6306,35006,-24996,297,-28756,-3186
C02139=6296,35014,-24986,298,-28759,-3182
C02140=6284,35020,-24978,300,-28761,-3177
C02141=6270,35019,-24980,302,-28761,-3172
C02142=6257,35018,-24982,304,-28760,-3166
C02143=6246,35026,-24972,305,-28763,-3162
C02144=6232,35024,-24974,307,-28762,-3157
C02145=6218,35023,-24976,309,-28762,-3151
C02146=6204,35021,-24978,311,-28761,-3146
C02147=6190,35020,-24979,313,-28760,-3140
C02148=6176,35018,-24981,315,-28760,-3135
C02149=6163,35017,-24983,317,-28759,-3129
C02150=6149,35015,-24985,319,-28758,-3124
C02151=6139,35007,-24996,320,-28755,-3120
C02152=6126,35003,-25001,322,-28753,-3115
C02153=6117,34992,-25014,324,-28749,-3112
C02154=6109,34982,-25027,325,-28745,-3108
C02155=6110,34969,-25043,325,-28740,-3109
C02156=6111,34955,-25059,325,-28734,-3110
C02157=6113,34942,-25076,324,-28729,-3110
C02158=6114,34929,-25092,324,-28724,-3111
C02159=6115,34916,-25108,324,-28719,-3111
C02160=6119,34903,-25123,324,-28714,-3113
C02161=6127,34894,-25135,323,-28711,-3116
C02162=6129,34881,-25151,322,-28706,-3117
C02163=6130,34868,-25167,322,-28701,-3117
C02164=6141,33306,-24968,292,-29795,-3102
C02165=-41004,59868,4099,4900,-34257,16705
C02166=-41004,59868,1099,4900,-34257,16705
C02167=-41004,64596,1380,5213,-31659,16463
C02168=-41004,59868,1099,4900,-34257,16705
C02169=-41004,59868,9099,4900,-34257,16705
C02170=6141,33306,-24968,292,-29795,-3102
C02171=6141,34859,-25177,321,-28698,-3122
C02172=6152,34851,-25187,319,-28695,-3126
C02173=6163,34843,-25198,318,-28691,-3130
C02174=6177,34844,-25196,316,-28692,-3135
C02175=6190,34845,-25194,314,-28693,-3141
C02176=6204,34847,-25192,312,-28693,-3146
C02177=6218,34848,-25190,310,-28694,-3152
C02178=6229,34856,-25181,308,-28697,-3156
C02179=6241,34861,-25175,307,-28699,-3161
C02180=6254,34864,-25171,305,-28700,-3166
C02181=6264,34873,-25160,304,-28704,-3169
C02182=6277,34874,-25158,302,-28705,-3175
C02183=6288,34882,-25148,300,-28708,-3179
C02184=6300,34886,-25143,298,-28710,-3184
C02185=6313,34890,-25138,297,-28711,-3189
C02186=6323,34898,-25128,295,-28715,-3193
C02187=6337,34900,-25126,293,-28715,-3198
C02188=6351,34901,-25124,291,-28716,-3203
C02189=6364,34903,-25122,289,-28717,-3209
C02190=6378,34904,-25120,287,-28717,-3214
C02191=6392,34906,-25118,285,-28718,-3220
C02192=6406,34907,-25116,283,-28719,-3225
C02193=6416,34916,-25106,282,-28722,-3229
C02194=6418,34928,-25091,282,-28727,-3230
C02195=6417,34941,-25074,282,-28732,-3229
C02196=6417,33388,-24865,253,-29829,-3209
C02197=6358,33185,-25117,262,-29750,-3187
C02198=6358,34738,-25326,291,-28653,-3207
C02199=6343,34736,-25328,293,-28652,-3201
C02200=6330,34740,-25323,295,-28653,-3196
C02201=6317,34743,-25319,297,-28654,-3191
C02202=6302,34741,-25321,299,-28654,-3185
C02203=6287,34740,-25323,301,-28653,-3179
C02204=6272,34738,-25326,303,-28652,-3173
C02205=6258,34736,-25328,305,-28651,-3167
C02206=6244,34734,-25331,307,-28650,-3162
C02207=6234,34722,-25345,308,-28646,-3158
C02208=6225,34711,-25359,310,-28641,-3155
C02209=6215,34700,-25372,311,-28637,-3151
C02210=6209,34688,-25387,312,-28632,-3148
C02211=6210,34674,-25405,312,-28627,-3149
C02212=6212,34660,-25422,312,-28621,-3150
C02213=6213,34646,-25439,312,-28616,-3150
C02214=6214,34632,-25457,311,-28610,-3151
C02215=6221,34620,-25471,310,-28606,-3154
C02216=6227,34608,-25485,310,-28601,-3156
C02217=6238,34599,-25497,308,-28598,-3160
C02218=6249,34590,-25508,307,-28595,-3165
C02219=6261,34582,-25518,305,-28591,-3169
C02220=6276,34583,-25516,303,-28592,-3175
C02221=6291,34585,-25514,301,-28593,-3181
C02222=6305,34586,-25512,299,-28594,-3187
C02223=6320,34588,-25510,297,-28594,-3192
C02224=6330,34599,-25496,295,-28599,-3196
C02225=6345,34600,-25494,293,-28599,-3202
C02226=6360,34602,-25492,291,-28600,-3208
C02227=6375,34604,-25490,289,-28601,-3214
C02228=6389,34605,-25488,287,-28602,-3219
C02229=6404,34607,-25486,285,-28603,-3225
C02230=6419,34608,-25484,283,-28603,-3231
C02231=6434,34610,-25482,281,-28604,-3237
C02232=6449,34611,-25480,279,-28605,-3243
C02233=6464,34613,-25478,276,-28606,-3248
C02234=6479,34615,-25476,274,-28606,-3254
C02235=6493,34614,-25476,272,-28606,-3260
C02236=6505,34608,-25484,271,-28604,-3265
C02237=6520,34609,-25482,269,-28605,-3270
C02238=6535,34611,-25480,266,-28605,-3276
C02239=6550,34613,-25478,264,-28606,-3282
C02240=6560,34622,-25466,263,-28610,-3286
C02241=6560,34636,-25449,263,-28615,-3286
C02242=6553,34647,-25435,264,-28620,-3283
C02243=6547,34659,-25421,265,-28624,-3281
C02244=6537,34669,-25409,266,-28628,-3277
C02245=6526,34677,-25398,268,-28631,-3272
C02246=6514,34686,-25387,269,-28634,-3268
C02247=6503,34695,-25376,271,-28638,-3263
C02248=6491,34703,-25367,272,-28641,-3259
C02249=6477,34706,-25364,274,-28642,-3253
C02250=6464,34710,-25358,276,-28643,-3248
C02251=6452,34717,-25351,278,-28645,-3244
C02252=6438,34718,-25349,280,-28646,-3238
C02253=6426,34725,-25340,281,-28649,-3233
C02254=6411,34724,-25342,283,-28648,-3228
C02255=6399,34731,-25334,285,-28650,-3223
C02256=6385,34731,-25334,287,-28650,-3217
C02257=6372,34734,-25329,289,-28652,-3212
C02258=6358,34738,-25326,291,-28653,-3207
C02259=6358,33185,-25117,262,-29750,-3187
C02260=6343,32902,-25464,265,-29640,-3182
C02261=6343,34455,-25673,294,-28543,-3202
C02262=6329,34453,-25675,296,-28542,-3196
C02263=6315,34452,-25677,298,-28542,-3191
C02264=6306,34442,-25690,299,-28538,-3187
C02265=6297,34431,-25703,301,-28534,-3184
C02266=6288,34421,-25716,302,-28529,-3180
C02267=6279,34410,-25729,303,-28525,-3177
C02268=6277,34398,-25744,304,-28520,-3176
C02269=6270,34386,-25758,305,-28516,-3173
C02270=6271,34373,-25774,305,-28511,-3174
C02271=6265,34362,-25788,306,-28506,-3171
C02272=6263,34349,-25804,306,-28501,-3171
C02273=6254,34339,-25817,307,-28497,-3167
C02274=6255,34325,-25833,307,-28492,-3168
C02275=6257,34312,-25850,307,-28487,-3168
C02276=6258,34298,-25866,307,-28482,-3169
C02277=6259,34285,-25883,307,-28477,-3169
C02278=6261,34272,-25899,306,-28471,-3170
C02279=6272,34263,-25909,305,-28468,-3174
C02280=6286,34265,-25908,303,-28469,-3180
C02281=6300,34266,-25906,301,-28470,-3185
C02282=6314,34268,-25904,299,-28470,-3191
C02283=6328,34269,-25902,297,-28471,-3196
C02284=6342,34271,-25900,295,-28472,-3202
C02285=6352,34281,-25887,294,-28476,-3205
C02286=6366,34283,-25885,292,-28477,-3211
C02287=6380,34284,-25883,290,-28477,-3216
C02288=6394,34286,-25881,288,-28478,-3222
C02289=6406,34291,-25874,286,-28480,-3227
C02290=6417,34298,-25866,284,-28483,-3231
C02291=6431,34299,-25864,282,-28484,-3236
C02292=6445,34301,-25862,280,-28485,-3242
C02293=6457,34307,-25854,279,-28487,-3246
C02294=6468,34313,-25847,277,-28489,-3251
C02295=6483,34315,-25845,275,-28490,-3257
C02296=6495,34319,-25839,273,-28492,-3261
C02297=6506,34327,-25830,272,-28495,-3266
C02298=6520,34328,-25828,270,-28496,-3271
C02299=6533,34332,-25823,268,-28497,-3276
C02300=6543,34340,-25813,266,-28501,-3280
C02301=6554,34346,-25805,265,-28503,-3285
C02302=6558,34358,-25790,264,-28508,-3286
C02303=6557,34372,-25774,264,-28513,-3286
C02304=6552,34383,-25760,265,-28518,-3284
C02305=6541,34392,-25749,266,-28521,-3279
C02306=6530,34400,-25739,268,-28524,-3275
C02307=6518,34406,-25732,270,-28526,-3270
C02308=6506,34410,-25727,271,-28527,-3266
C02309=6495,34418,-25717,273,-28531,-3261
C02310=6482,34421,-25714,275,-28531,-3256
C02311=6471,34428,-25705,276,-28534,-3252
C02312=6457,34428,-25705,278,-28534,-3246
C02313=6445,34431,-25702,280,-28535,-3241
C02314=6432,34435,-25697,282,-28536,-3237
C02315=6420,34441,-25690,283,-28538,-3232
C02316=6407,34442,-25688,285,-28539,-3227
C02317=6394,34443,-25687,287,-28539,-3222
C02318=6382,34449,-25680,289,-28541,-3217
