/JOB
//NAME CONTOUR2
//POS
///NPOS 1576,0,0,0,0,0
///TOOL 0
///POSTYPE PULSE
///PULSE
C00000=-2822,58859,-1118,-1041,-34109,-89
C00001=-3102,58889,290,-1003,-34098,23
C00002=-3102,58889,-1110,-1003,-34098,23
C00003=-3176,58798,-1249,-995,-34042,54
C00004=-3255,58723,-1364,-985,-33996,86
C00005=-3336,58656,-1466,-976,-33956,119
C00006=-3422,58608,-1541,-965,-33926,154
C00007=-3510,58581,-1582,-954,-33910,190
C00008=-3606,58574,-1594,-941,-33905,229
C00009=-3702,58571,-1600,-929,-33903,267
C00010=-3797,58572,-1601,-916,-33904,305
C00011=-3887,58606,-1550,-903,-33924,341
C00012=-3978,58636,-1506,-891,-33942,377
C00013=-4068,58673,-1451,-879,-33965,413
C00014=-4152,58726,-1373,-867,-33997,446
C00015=-4235,58784,-1287,-855,-34032,479
C00016=-4315,58855,-1181,-843,-34074,510
C00017=-4383,58952,-1036,-833,-34133,536
C00018=-4445,59063,-868,-823,-34201,559
C00019=-4502,59182,-690,-813,-34272,581
C00020=-4541,59312,-495,-806,-34351,595
C00021=-4573,59446,-294,-800,-34432,607
C00022=-4593,59587,-82,-795,-34517,613
C00023=-4603,59734,140,-792,-34606,615
C00024=-4610,59882,363,-789,-34695,616
C00025=-4604,60032,589,-787,-34786,612
C00026=-4580,60171,800,-789,-34870,601
C00027=-4556,60311,1011,-790,-34955,589
C00028=-4528,60448,1218,-791,-35038,577
C00029=-4482,60572,1406,-796,-35113,557
C00030=-4425,60688,1582,-801,-35184,532
C00031=-4362,60800,1752,-808,-35252,506
C00032=-4288,60889,1887,-816,-35306,475
C00033=-4209,60964,2002,-825,-35352,442
C00034=-4126,61018,2086,-836,-35386,408
C00035=-4035,61042,2124,-847,-35401,371
C00036=-3946,61025,2100,-859,-35391,336
C00037=-4033,60993,2050,-848,-35371,371
C00038=-3944,60987,2043,-860,-35368,335
C00039=-3853,60981,2036,-872,-35366,299
C00040=-3826,61021,2097,-875,-35390,287
C00041=-3734,61041,2129,-886,-35403,250
C00042=-3639,61047,2141,-899,-35407,212
C00043=-3547,61029,2115,-911,-35397,175
C00044=-3456,60999,2071,-923,-35379,139
C00045=-3367,60960,2015,-936,-35357,104
C00046=-3285,60901,1927,-947,-35321,71
C00047=-3214,60806,1785,-958,-35264,44
C00048=-3144,60709,1640,-969,-35205,17
C00049=-3080,60601,1478,-979,-35140,-8
C00050=-3017,60492,1316,-989,-35075,-32
C00051=-2974,60365,1124,-997,-34998,-48
C00052=-2937,60235,927,-1003,-34918,-61
C00053=-2903,60102,727,-1010,-34837,-73
C00054=-2890,59957,508,-1014,-34749,-76
C00055=-2879,59811,288,-1018,-34660,-79
C00056=-2872,59663,64,-1021,-34570,-79
C00057=-2890,59520,-153,-1021,-34483,-70
C00058=-2918,59383,-361,-1019,-34399,-58
C00059=-2954,59253,-558,-1017,-34320,-41
C00060=-2998,59128,-748,-1013,-34243,-22
C00061=-3049,59008,-930,-1008,-34170,0
C00062=-3102,58889,-1110,-1003,-34098,23
C00063=-3102,58889,290,-1003,-34098,23
C00064=-3008,59012,477,-1013,-34173,-17
C00065=-3008,59012,-923,-1013,-34173,-17
C00066=-2880,59423,-300,-1024,-34424,-73
C00067=-2855,59880,392,-1020,-34702,-89
C00068=-2930,60322,1060,-1003,-34971,-64
C00069=-3098,60704,1634,-975,-35203,-2
C00070=-3336,60987,2057,-939,-35373,91
C00071=-3625,61096,2215,-900,-35437,206
C00072=-3916,61065,2162,-862,-35416,323
C00073=-4204,61024,2092,-825,-35389,440
C00074=-4438,60737,1655,-799,-35213,537
C00075=-4585,60340,1054,-785,-34972,601
C00076=-4645,59884,365,-784,-34696,630
C00077=-4607,59415,-340,-796,-34413,620
C00078=-4462,59011,-947,-821,-34169,567
C00079=-4230,58719,-1384,-856,-33993,477
C00080=-3951,58576,-1596,-896,-33906,367
C00081=-3886,58233,-2113,-909,-33698,345
C00082=-4109,57903,-2615,-885,-33498,438
C00083=-4356,57633,-3024,-856,-33335,540
C00084=-4486,57339,-3468,-843,-33157,596
C00085=-4224,57133,-3777,-881,-33031,494
C00086=-3958,56941,-4065,-919,-32914,389
C00087=-4010,56706,-4420,-916,-32772,413
C00088=-4275,56503,-4729,-884,-32649,522
C00089=-4378,56381,-4913,-872,-32576,564
C00090=-4111,56578,-4613,-904,-32694,455
C00091=-3845,56777,-4312,-937,-32814,346
C00092=-3824,56311,-5014,-947,-32531,344
C00093=-3890,55864,-5691,-945,-32260,375
C00094=-3990,55430,-6346,-938,-31997,420
C00095=-4103,55005,-6988,-929,-31740,471
C00096=-4214,54578,-7633,-921,-31482,520
C00097=-4156,54642,-7536,-928,-31521,496
C00098=-4059,55078,-6877,-934,-31784,452
C00099=-3946,55504,-6235,-943,-32041,402
C00100=-3834,55929,-5592,-951,-32299,352
C00101=-3704,55854,-5705,-970,-32252,301
C00102=-3587,55433,-6341,-992,-31995,260
C00103=-3461,55017,-6968,-1016,-31742,214
C00104=-3319,54611,-7582,-1041,-31493,163
C00105=-3185,54235,-8151,-1065,-31262,114
C00106=-3295,54647,-7527,-1044,-31515,153
C00107=-3435,55054,-6912,-1019,-31764,204
C00108=-3560,55471,-6283,-995,-32018,248
C00109=-3676,55892,-5647,-973,-32275,290
C00110=-3790,56294,-5041,-952,-32520,330
C00111=-3799,56769,-4323,-943,-32809,328
C00112=-3507,56706,-4416,-983,-32769,212
C00113=-3217,56596,-4580,-1024,-32701,97
C00114=-3044,56591,-4586,-1047,-32697,28
C00115=-3336,56695,-4431,-1006,-32762,144
C00116=-3629,56795,-4282,-966,-32824,260
C00117=-3639,57037,-3917,-961,-32971,261
C00118=-3389,57290,-3532,-990,-33124,158
C00119=-3191,57600,-3062,-1011,-33312,75
C00120=-3432,57877,-2646,-975,-33481,167
C00121=-3670,58160,-2221,-939,-33653,259
C00122=-3802,58514,-1688,-916,-33869,308
C00123=-3495,58535,-1652,-956,-33881,185
C00124=-3221,58696,-1405,-990,-33980,73
C00125=-3008,59012,-923,-1013,-34173,-17
C00126=-3008,59012,477,-1013,-34173,-17
C00127=-2399,59054,549,-1093,-34200,-262
C00128=-2399,59054,-851,-1093,-34200,-262
C00129=-2368,59081,-808,-1097,-34217,-275
C00130=-2374,59156,-695,-1095,-34262,-273
C00131=-2373,59235,-575,-1094,-34311,-275
C00132=-2374,59313,-457,-1092,-34359,-275
C00133=-2378,59390,-341,-1091,-34405,-275
C00134=-2341,59421,-293,-1095,-34425,-290
C00135=-2295,59438,-267,-1101,-34435,-308
C00136=-2249,59453,-243,-1106,-34444,-327
C00137=-2205,59480,-202,-1112,-34461,-345
C00138=-2190,59414,-302,-1115,-34421,-350
C00139=-2178,59342,-410,-1118,-34377,-354
C00140=-2171,59268,-522,-1120,-34331,-356
C00141=-2167,59191,-638,-1122,-34285,-357
C00142=-2168,59115,-753,-1123,-34238,-355
C00143=-2167,59038,-871,-1124,-34191,-355
C00144=-2133,59040,-866,-1129,-34192,-369
C00145=-2126,59116,-752,-1128,-34239,-372
C00146=-2127,59194,-634,-1127,-34286,-373
C00147=-2121,59270,-519,-1126,-34333,-376
C00148=-2111,59341,-410,-1126,-34376,-381
C00149=-2097,59411,-304,-1127,-34419,-388
C00150=-2080,59480,-199,-1128,-34462,-395
C00151=-2052,59540,-107,-1131,-34499,-407
C00152=-2008,59557,-81,-1136,-34509,-425
C00153=-1980,59566,-67,-1140,-34515,-437
C00154=-2023,59597,-20,-1134,-34534,-420
C00155=-2065,59571,-61,-1129,-34517,-403
C00156=-2095,59512,-151,-1126,-34481,-390
C00157=-2115,59446,-252,-1124,-34441,-381
C00158=-2132,59377,-355,-1123,-34399,-373
C00159=-2150,59380,-352,-1121,-34400,-366
C00160=-2162,59452,-243,-1118,-34444,-362
C00161=-2166,59528,-128,-1116,-34490,-361
C00162=-2201,59523,-135,-1112,-34488,-348
C00163=-2239,59502,-168,-1107,-34475,-332
C00164=-2284,59480,-203,-1101,-34461,-314
C00165=-2331,59470,-218,-1095,-34455,-294
C00166=-2377,59452,-247,-1090,-34443,-276
C00167=-2390,59521,-142,-1087,-34486,-272
C00168=-2400,59594,-32,-1084,-34530,-268
C00169=-2415,59664,74,-1081,-34573,-263
C00170=-2426,59736,183,-1079,-34617,-260
C00171=-2452,59792,267,-1074,-34651,-250
C00172=-2459,59723,163,-1074,-34609,-246
C00173=-2447,59652,55,-1077,-34565,-250
C00174=-2429,59583,-49,-1081,-34523,-256
C00175=-2420,59510,-160,-1083,-34479,-259
C00176=-2419,59439,-268,-1084,-34435,-259
C00177=-2466,59428,-284,-1078,-34428,-240
C00178=-2515,59423,-294,-1072,-34425,-220
C00179=-2561,59409,-316,-1066,-34416,-201
C00180=-2578,59360,-390,-1065,-34386,-194
C00181=-2532,59374,-368,-1070,-34395,-213
C00182=-2483,59380,-358,-1077,-34399,-232
C00183=-2435,59389,-343,-1083,-34405,-251
C00184=-2407,59360,-387,-1087,-34387,-262
C00185=-2403,59283,-503,-1089,-34340,-263
C00186=-2402,59205,-621,-1090,-34293,-262
C00187=-2406,59128,-738,-1091,-34245,-260
C00188=-2399,59054,-851,-1093,-34200,-262
C00189=-2399,59054,549,-1093,-34200,-262
C00190=-1949,59114,648,-1152,-34238,-443
C00191=-1949,59114,-752,-1152,-34238,-443
C00192=-1939,59084,-797,-1153,-34220,-447
C00193=-1925,59056,-839,-1156,-34203,-452
C00194=-1908,59032,-875,-1158,-34188,-459
C00195=-1889,59018,-896,-1161,-34180,-466
C00196=-1868,59009,-910,-1164,-34174,-474
C00197=-1846,59010,-908,-1167,-34175,-483
C00198=-1826,59015,-900,-1169,-34178,-491
C00199=-1809,59032,-874,-1171,-34188,-498
C00200=-1792,59052,-843,-1173,-34201,-505
C00201=-1777,59078,-803,-1175,-34217,-512
C00202=-1760,59103,-765,-1177,-34232,-519
C00203=-1753,59134,-718,-1177,-34251,-522
C00204=-1744,59165,-672,-1178,-34270,-526
C00205=-1740,59198,-621,-1178,-34290,-528
C00206=-1738,59233,-567,-1177,-34312,-530
C00207=-1725,59250,-541,-1179,-34322,-535
C00208=-1719,59218,-590,-1180,-34303,-537
C00209=-1715,59185,-640,-1181,-34282,-538
C00210=-1710,59152,-691,-1182,-34262,-540
C00211=-1703,59120,-739,-1184,-34243,-542
C00212=-1698,59087,-789,-1185,-34222,-544
C00213=-1693,59054,-839,-1186,-34202,-545
C00214=-1675,59035,-867,-1189,-34191,-552
C00215=-1653,59039,-861,-1192,-34193,-561
C00216=-1646,59069,-815,-1192,-34211,-564
C00217=-1661,59093,-778,-1190,-34226,-559
C00218=-1671,59124,-732,-1188,-34245,-555
C00219=-1676,59156,-683,-1187,-34265,-553
C00220=-1681,59190,-632,-1186,-34285,-552
C00221=-1687,59222,-584,-1184,-34305,-550
C00222=-1692,59255,-534,-1183,-34325,-548
C00223=-1697,59288,-484,-1182,-34345,-547
C00224=-1702,59321,-434,-1181,-34366,-545
C00225=-1706,59354,-384,-1180,-34386,-544
C00226=-1714,59385,-336,-1178,-34405,-541
C00227=-1718,59419,-286,-1177,-34426,-540
C00228=-1727,59450,-239,-1175,-34444,-537
C00229=-1736,59480,-193,-1174,-34463,-534
C00230=-1748,59506,-153,-1171,-34479,-529
C00231=-1763,59531,-116,-1169,-34494,-524
C00232=-1777,59559,-74,-1167,-34511,-518
C00233=-1796,59576,-48,-1164,-34522,-511
C00234=-1819,59577,-47,-1161,-34522,-502
C00235=-1839,59568,-62,-1158,-34516,-493
C00236=-1858,59552,-86,-1156,-34507,-486
C00237=-1876,59533,-115,-1154,-34495,-478
C00238=-1893,59508,-153,-1152,-34480,-471
C00239=-1910,59488,-183,-1151,-34467,-464
C00240=-1923,59461,-225,-1149,-34451,-458
C00241=-1934,59432,-269,-1148,-34433,-453
C00242=-1945,59404,-312,-1147,-34415,-449
C00243=-1955,59374,-358,-1146,-34397,-444
C00244=-1962,59342,-406,-1146,-34378,-441
C00245=-1969,59310,-454,-1146,-34358,-438
C00246=-1970,59274,-509,-1146,-34336,-437
C00247=-1975,59242,-558,-1146,-34316,-434
C00248=-1971,59208,-609,-1147,-34296,-436
C00249=-1966,59175,-659,-1148,-34276,-437
C00250=-1959,59143,-707,-1150,-34256,-439
C00251=-1949,59114,-752,-1152,-34238,-443
C00252=-1949,59114,648,-1152,-34238,-443
C00253=-1916,59113,648,-1156,-34238,-457
C00254=-1916,59113,-752,-1156,-34238,-457
C00255=-1922,59131,-725,-1155,-34249,-454
C00256=-1927,59149,-698,-1154,-34260,-452
C00257=-1935,59167,-672,-1153,-34270,-450
C00258=-1939,59186,-643,-1152,-34282,-448
C00259=-1939,59207,-611,-1151,-34295,-448
C00260=-1941,59227,-581,-1151,-34307,-448
C00261=-1941,59248,-548,-1150,-34320,-448
C00262=-1941,59270,-515,-1150,-34334,-449
C00263=-1938,59290,-485,-1150,-34346,-450
C00264=-1935,59310,-454,-1150,-34358,-451
C00265=-1932,59330,-424,-1150,-34370,-453
C00266=-1929,59349,-395,-1150,-34382,-455
C00267=-1923,59367,-367,-1151,-34393,-457
C00268=-1917,59385,-341,-1151,-34404,-460
C00269=-1907,59399,-318,-1152,-34413,-464
C00270=-1903,59418,-290,-1153,-34425,-466
C00271=-1894,59434,-265,-1153,-34434,-469
C00272=-1886,59450,-241,-1154,-34444,-473
C00273=-1876,59465,-218,-1155,-34453,-477
C00274=-1865,59477,-200,-1157,-34461,-482
C00275=-1855,59491,-178,-1158,-34470,-486
C00276=-1845,59506,-155,-1159,-34479,-490
C00277=-1834,59516,-140,-1160,-34485,-495
C00278=-1822,59524,-128,-1161,-34490,-500
C00279=-1810,59527,-123,-1163,-34492,-505
C00280=-1797,59523,-128,-1165,-34489,-510
C00281=-1784,59517,-137,-1167,-34486,-515
C00282=-1773,59506,-154,-1168,-34479,-519
C00283=-1770,59487,-183,-1169,-34467,-520
C00284=-1768,59467,-214,-1170,-34455,-521
C00285=-1766,59446,-244,-1170,-34442,-521
C00286=-1764,59426,-275,-1171,-34430,-522
C00287=-1761,59406,-305,-1171,-34418,-523
C00288=-1759,59386,-335,-1172,-34406,-523
C00289=-1759,59365,-368,-1172,-34392,-523
C00290=-1757,59345,-399,-1173,-34380,-524
C00291=-1757,59323,-431,-1173,-34367,-523
C00292=-1756,59302,-463,-1174,-34354,-523
C00293=-1755,59281,-495,-1174,-34341,-523
C00294=-1756,59260,-527,-1175,-34328,-523
C00295=-1759,59240,-557,-1175,-34316,-521
C00296=-1761,59220,-588,-1175,-34303,-520
C00297=-1762,59199,-620,-1175,-34291,-519
C00298=-1765,59179,-650,-1175,-34278,-518
C00299=-1769,59160,-680,-1175,-34267,-516
C00300=-1774,59141,-707,-1174,-34255,-514
C00301=-1781,59125,-732,-1173,-34245,-511
C00302=-1790,59109,-756,-1173,-34236,-507
C00303=-1798,59093,-781,-1172,-34226,-504
C00304=-1808,59081,-800,-1171,-34218,-499
C00305=-1818,59066,-822,-1170,-34209,-495
C00306=-1830,59056,-837,-1168,-34203,-490
C00307=-1843,59053,-843,-1167,-34201,-485
C00308=-1855,59049,-848,-1165,-34199,-480
C00309=-1867,59049,-849,-1163,-34199,-475
C00310=-1880,59055,-840,-1162,-34202,-470
C00311=-1890,59066,-823,-1160,-34209,-466
C00312=-1901,59079,-803,-1158,-34217,-462
C00313=-1908,59096,-778,-1157,-34227,-459
C00314=-1916,59113,-752,-1156,-34238,-457
C00315=-1916,59113,648,-1156,-34238,-457
C00316=-1578,59153,713,-1200,-34263,-593
C00317=-1578,59153,-687,-1200,-34263,-593
C00318=-1567,59119,-737,-1202,-34243,-597
C00319=-1553,59088,-784,-1204,-34224,-602
C00320=-1534,59065,-819,-1207,-34209,-609
C00321=-1513,59050,-841,-1210,-34200,-618
C00322=-1489,59044,-850,-1213,-34197,-627
C00323=-1464,59040,-856,-1217,-34194,-637
C00324=-1440,59043,-852,-1220,-34196,-647
C00325=-1416,59050,-841,-1223,-34200,-656
C00326=-1394,59061,-823,-1226,-34207,-665
C00327=-1373,59079,-795,-1228,-34218,-674
C00328=-1352,59096,-770,-1231,-34229,-683
C00329=-1333,59118,-735,-1233,-34243,-691
C00330=-1316,59141,-699,-1235,-34257,-698
C00331=-1335,59139,-703,-1232,-34255,-690
C00332=-1356,59121,-731,-1230,-34244,-682
C00333=-1378,59109,-750,-1227,-34237,-673
C00334=-1399,59093,-774,-1224,-34227,-664
C00335=-1422,59083,-790,-1222,-34221,-655
C00336=-1446,59080,-795,-1218,-34219,-645
C00337=-1471,59082,-793,-1215,-34220,-635
C00338=-1496,59087,-785,-1212,-34223,-625
C00339=-1518,59101,-765,-1209,-34231,-616
C00340=-1536,59125,-728,-1206,-34246,-609
C00341=-1547,59158,-679,-1204,-34266,-605
C00342=-1555,59192,-626,-1202,-34287,-603
C00343=-1560,59228,-572,-1201,-34309,-601
C00344=-1557,59266,-514,-1201,-34333,-603
C00345=-1556,59306,-454,-1200,-34357,-604
C00346=-1553,59344,-396,-1200,-34380,-605
C00347=-1547,59380,-341,-1200,-34402,-608
C00348=-1538,59413,-290,-1201,-34423,-612
C00349=-1527,59446,-241,-1202,-34443,-617
C00350=-1512,59475,-196,-1203,-34461,-624
C00351=-1492,59496,-163,-1205,-34474,-632
C00352=-1470,59508,-146,-1208,-34481,-641
C00353=-1447,59515,-134,-1211,-34486,-650
C00354=-1423,59513,-137,-1214,-34485,-660
C00355=-1402,59499,-159,-1217,-34476,-668
C00356=-1388,59467,-206,-1220,-34457,-673
C00357=-1369,59444,-241,-1222,-34443,-681
C00358=-1360,59459,-217,-1223,-34452,-684
C00359=-1370,59493,-167,-1221,-34473,-681
C00360=-1386,59523,-121,-1219,-34491,-675
C00361=-1404,59549,-82,-1216,-34507,-668
C00362=-1427,59559,-67,-1213,-34513,-659
C00363=-1451,59564,-59,-1210,-34516,-649
C00364=-1474,59553,-77,-1207,-34509,-640
C00365=-1497,59546,-88,-1204,-34505,-631
C00366=-1518,59531,-111,-1201,-34495,-622
C00367=-1537,59509,-146,-1199,-34482,-614
C00368=-1551,59479,-192,-1198,-34463,-608
C00369=-1562,59446,-241,-1197,-34443,-603
C00370=-1573,59414,-290,-1196,-34423,-598
C00371=-1579,59378,-345,-1196,-34401,-595
C00372=-1582,59340,-403,-1196,-34378,-594
C00373=-1588,59304,-457,-1196,-34356,-591
C00374=-1589,59264,-518,-1197,-34331,-590
C00375=-1587,59226,-576,-1197,-34308,-590
C00376=-1585,59188,-634,-1198,-34285,-590
C00377=-1578,59153,-687,-1200,-34263,-593
C00378=-1578,59153,713,-1200,-34263,-593
C00379=-1297,59177,756,-1236,-34279,-706
C00380=-1297,59177,-644,-1236,-34279,-706
C00381=-1292,59118,-734,-1238,-34243,-707
C00382=-1284,59061,-821,-1240,-34208,-709
C00383=-1264,59014,-892,-1244,-34179,-717
C00384=-1235,58971,-957,-1248,-34153,-728
C00385=-1200,58951,-986,-1253,-34140,-742
C00386=-1164,58936,-1009,-1258,-34131,-756
C00387=-1126,58926,-1024,-1263,-34125,-771
C00388=-1089,58932,-1014,-1268,-34129,-786
C00389=-1052,58942,-997,-1273,-34135,-801
C00390=-1018,58964,-964,-1277,-34149,-815
C00391=-988,59004,-903,-1280,-34173,-828
C00392=-965,59050,-832,-1282,-34202,-838
C00393=-945,59099,-757,-1284,-34232,-846
C00394=-941,59134,-705,-1284,-34253,-849
C00395=-967,59091,-770,-1281,-34227,-838
C00396=-994,59048,-837,-1279,-34200,-826
C00397=-1022,59010,-895,-1276,-34177,-814
C00398=-1056,58988,-928,-1271,-34163,-800
C00399=-1093,58975,-948,-1267,-34155,-785
C00400=-1131,58971,-955,-1262,-34153,-770
C00401=-1168,58986,-933,-1257,-34162,-755
C00402=-1203,59004,-906,-1252,-34173,-741
C00403=-1234,59037,-857,-1247,-34193,-729
C00404=-1258,59085,-784,-1243,-34222,-720
C00405=-1268,59141,-700,-1241,-34257,-717
C00406=-1270,59201,-607,-1240,-34294,-717
C00407=-1265,59258,-522,-1239,-34329,-720
C00408=-1255,59314,-437,-1240,-34363,-725
C00409=-1242,59368,-354,-1240,-34396,-731
C00410=-1224,59418,-277,-1242,-34427,-738
C00411=-1199,59463,-208,-1244,-34455,-749
C00412=-1171,59501,-150,-1248,-34479,-761
C00413=-1134,59513,-132,-1252,-34486,-776
C00414=-1098,59499,-153,-1257,-34477,-790
C00415=-1070,59460,-211,-1262,-34454,-801
C00416=-1060,59404,-296,-1264,-34419,-804
C00417=-1081,59355,-371,-1262,-34389,-795
C00418=-1116,59338,-397,-1258,-34379,-781
C00419=-1154,59332,-407,-1253,-34375,-766
C00420=-1190,59330,-410,-1248,-34374,-751
C00421=-1225,59325,-418,-1243,-34370,-737
C00422=-1203,59290,-472,-1247,-34349,-745
C00423=-1165,59292,-469,-1252,-34350,-761
C00424=-1126,59294,-465,-1257,-34351,-776
C00425=-1091,59312,-436,-1261,-34363,-791
C00426=-1057,59334,-403,-1265,-34376,-805
C00427=-1036,59380,-332,-1267,-34405,-813
C00428=-1036,59439,-242,-1266,-34441,-815
C00429=-1053,59491,-164,-1263,-34473,-808
C00430=-1082,59526,-111,-1259,-34494,-797
C00431=-1116,59549,-77,-1254,-34508,-784
C00432=-1155,59552,-74,-1249,-34510,-768
C00433=-1190,59533,-103,-1244,-34498,-754
C00434=-1220,59498,-156,-1241,-34476,-741
C00435=-1245,59453,-225,-1239,-34449,-731
C00436=-1263,59402,-302,-1237,-34417,-723
C00437=-1278,59350,-382,-1236,-34385,-716
C00438=-1289,59295,-466,-1235,-34351,-711
C00439=-1298,59238,-552,-1235,-34317,-706
C00440=-1297,59177,-644,-1236,-34279,-706
C00441=-1297,59177,756,-1236,-34279,-706
C00442=-726,59313,971,-1309,-34365,-937
C00443=-726,59313,-429,-1309,-34365,-937
C00444=-659,59300,-447,-1318,-34357,-964
C00445=-613,59253,-518,-1325,-34328,-982
C00446=-601,59152,-671,-1329,-34266,-985
C00447=-593,59050,-826,-1331,-34203,-987
C00448=-597,58944,-987,-1333,-34138,-984
C00449=-563,58917,-1027,-1338,-34122,-997
C00450=-564,59021,-870,-1336,-34185,-998
C00451=-570,59124,-713,-1333,-34249,-997
C00452=-582,59225,-560,-1330,-34311,-994
C00453=-571,59306,-436,-1330,-34361,-1000
C00454=-506,59320,-414,-1338,-34370,-1026
C00455=-447,59359,-354,-1345,-34394,-1050
C00456=-411,59316,-419,-1351,-34368,-1064
C00457=-394,59218,-566,-1355,-34308,-1069
C00458=-377,59121,-714,-1359,-34248,-1075
C00459=-365,59021,-867,-1362,-34186,-1078
C00460=-361,58916,-1026,-1364,-34121,-1078
C00461=-328,58875,-1089,-1370,-34096,-1091
C00462=-329,58978,-932,-1368,-34160,-1092
C00463=-332,59083,-772,-1365,-34224,-1092
C00464=-326,59187,-613,-1364,-34289,-1096
C00465=-301,59279,-473,-1366,-34345,-1108
C00466=-251,59343,-375,-1371,-34385,-1128
C00467=-194,59294,-448,-1380,-34355,-1151
C00468=-159,59210,-575,-1386,-34304,-1164
C00469=-136,59116,-717,-1391,-34246,-1171
C00470=-122,59018,-867,-1394,-34185,-1176
C00471=-113,58916,-1022,-1397,-34122,-1178
C00472=-99,58819,-1170,-1401,-34062,-1182
C00473=-77,58889,-1063,-1402,-34105,-1192
C00474=-90,58988,-912,-1399,-34167,-1188
C00475=-102,59088,-759,-1395,-34229,-1185
C00476=-122,59184,-614,-1391,-34288,-1178
C00477=-147,59276,-474,-1386,-34345,-1169
C00478=-194,59352,-360,-1379,-34391,-1152
C00479=-255,59383,-314,-1370,-34410,-1128
C00480=-306,59323,-406,-1364,-34373,-1106
C00481=-338,59236,-539,-1362,-34319,-1092
C00482=-365,59217,-568,-1359,-34307,-1081
C00483=-382,59314,-420,-1355,-34367,-1076
C00484=-396,59413,-270,-1351,-34428,-1071
C00485=-420,59507,-128,-1346,-34485,-1063
C00486=-441,59601,15,-1342,-34544,-1056
C00487=-464,59695,157,-1337,-34601,-1048
C00488=-476,59621,45,-1337,-34556,-1042
C00489=-455,59526,-100,-1341,-34497,-1049
C00490=-433,59432,-243,-1346,-34439,-1057
C00491=-464,59374,-331,-1343,-34404,-1044
C00492=-526,59351,-367,-1335,-34389,-1018
C00493=-593,59354,-363,-1326,-34391,-991
C00494=-604,59455,-210,-1323,-34453,-988
C00495=-619,59554,-60,-1319,-34514,-984
C00496=-625,59657,97,-1317,-34577,-983
C00497=-656,59721,193,-1311,-34616,-971
C00498=-657,59619,39,-1313,-34554,-969
C00499=-643,59521,-111,-1317,-34493,-973
C00500=-629,59422,-261,-1320,-34432,-978
C00501=-637,59340,-386,-1321,-34382,-973
C00502=-705,59348,-375,-1311,-34386,-946
C00503=-726,59313,-429,-1309,-34365,-937
C00504=-726,59313,971,-1309,-34365,-937
C00505=-59,59338,1021,-1397,-34383,-1206
C00506=-59,59338,-379,-1397,-34383,-1206
C00507=-54,59319,-407,-1398,-34371,-1207
C00508=-52,59299,-437,-1398,-34359,-1208
C00509=-49,59280,-467,-1399,-34347,-1209
C00510=-47,59260,-497,-1400,-34335,-1209
C00511=-44,59240,-527,-1400,-34323,-1210
C00512=-42,59221,-557,-1401,-34311,-1211
C00513=-40,59201,-587,-1402,-34298,-1211
C00514=-37,59181,-617,-1402,-34286,-1212
C00515=-33,59162,-645,-1403,-34275,-1213
C00516=-27,59145,-672,-1404,-34264,-1216
C00517=-25,59125,-702,-1405,-34252,-1216
C00518=-23,59105,-732,-1406,-34239,-1217
C00519=-20,59086,-762,-1406,-34227,-1218
C00520=-20,59065,-794,-1407,-34214,-1217
C00521=-16,59046,-823,-1408,-34203,-1219
C00522=-13,59026,-852,-1408,-34191,-1220
C00523=-9,59008,-880,-1409,-34179,-1221
C00524=-6,58988,-910,-1410,-34167,-1222
C00525=-3,58969,-940,-1411,-34155,-1223
C00526=-1,58949,-970,-1411,-34143,-1223
C00527=1,58929,-1000,-1412,-34131,-1224
C00528=3,58909,-1031,-1413,-34118,-1224
C00529=3,58888,-1063,-1413,-34105,-1224
C00530=14,58878,-1078,-1415,-34099,-1228
C00531=27,58873,-1085,-1416,-34096,-1233
C00532=37,58884,-1068,-1418,-34103,-1238
C00533=40,58904,-1038,-1417,-34115,-1239
C00534=40,58924,-1007,-1417,-34128,-1239
C00535=34,58942,-980,-1416,-34139,-1237
C00536=30,58961,-951,-1415,-34150,-1236
C00537=26,58979,-923,-1414,-34162,-1235
C00538=24,58999,-893,-1414,-34174,-1234
C00539=19,59017,-865,-1413,-34185,-1232
C00540=16,59037,-836,-1412,-34197,-1231
C00541=14,59057,-805,-1411,-34210,-1231
C00542=11,59076,-775,-1411,-34222,-1230
C00543=9,59096,-745,-1410,-34234,-1230
C00544=7,59116,-715,-1409,-34246,-1229
C00545=4,59136,-685,-1409,-34258,-1228
C00546=2,59155,-656,-1408,-34270,-1227
C00547=0,59175,-625,-1407,-34283,-1227
C00548=-5,59193,-598,-1406,-34294,-1225
C00549=-10,59212,-569,-1405,-34305,-1224
C00550=-13,59231,-540,-1405,-34317,-1223
C00551=-15,59251,-510,-1404,-34330,-1222
C00552=-17,59271,-480,-1403,-34342,-1221
C00553=-20,59291,-450,-1403,-34354,-1221
C00554=-23,59310,-421,-1402,-34366,-1220
C00555=-27,59328,-392,-1401,-34377,-1218
C00556=-30,59348,-362,-1400,-34390,-1218
C00557=-32,59368,-333,-1400,-34402,-1217
C00558=-37,59386,-305,-1399,-34413,-1215
C00559=-42,59404,-277,-1398,-34424,-1213
C00560=-47,59422,-250,-1397,-34435,-1211
C00561=-60,59426,-244,-1395,-34438,-1206
C00562=-69,59414,-264,-1394,-34430,-1203
C00563=-71,59394,-294,-1394,-34417,-1202
C00564=-66,59375,-321,-1395,-34406,-1203
C00565=-62,59357,-349,-1396,-34395,-1205
C00566=-59,59338,-379,-1397,-34383,-1206
C00567=-59,59338,1021,-1397,-34383,-1206
C00568=64,59334,1018,-1413,-34381,-1255
C00569=64,59334,-382,-1413,-34381,-1255
C00570=59,59271,-478,-1413,-34342,-1252
C00571=73,59215,-563,-1416,-34308,-1257
C00572=99,59170,-631,-1421,-34280,-1267
C00573=135,59147,-665,-1426,-34266,-1281
C00574=175,59137,-681,-1431,-34260,-1297
C00575=214,59126,-696,-1436,-34253,-1312
C00576=256,59124,-699,-1442,-34252,-1329
C00577=294,59109,-720,-1447,-34243,-1344
C00578=331,59091,-747,-1453,-34232,-1359
C00579=364,59058,-797,-1457,-34212,-1372
C00580=383,59005,-878,-1461,-34179,-1379
C00581=380,58942,-974,-1462,-34140,-1376
C00582=360,58890,-1053,-1460,-34108,-1367
C00583=331,58848,-1118,-1457,-34081,-1355
C00584=297,58818,-1164,-1453,-34063,-1341
C00585=262,58794,-1201,-1449,-34048,-1327
C00586=221,58793,-1204,-1443,-34047,-1310
C00587=187,58820,-1162,-1438,-34064,-1297
C00588=165,58870,-1088,-1435,-34094,-1289
C00589=149,58925,-1004,-1432,-34129,-1283
C00590=140,58984,-914,-1429,-34165,-1280
C00591=126,58949,-968,-1428,-34143,-1274
C00592=133,58888,-1060,-1430,-34106,-1276
C00593=146,58831,-1147,-1433,-34070,-1280
C00594=171,58784,-1219,-1437,-34041,-1290
C00595=205,58753,-1265,-1442,-34023,-1303
C00596=245,58746,-1275,-1447,-34018,-1319
C00597=283,58756,-1259,-1452,-34024,-1335
C00598=319,58778,-1225,-1457,-34038,-1349
C00599=352,58811,-1175,-1460,-34058,-1363
C00600=379,58854,-1108,-1463,-34086,-1375
C00601=401,58905,-1030,-1465,-34117,-1384
C00602=412,58963,-942,-1466,-34153,-1389
C00603=410,59026,-846,-1464,-34192,-1389
C00604=390,59079,-765,-1461,-34225,-1382
C00605=358,59115,-711,-1456,-34247,-1370
C00606=323,59142,-670,-1451,-34264,-1356
C00607=285,59155,-651,-1445,-34272,-1341
C00608=245,59166,-635,-1440,-34278,-1325
C00609=205,59172,-626,-1434,-34282,-1309
C00610=164,59179,-617,-1429,-34286,-1293
C00611=128,59201,-583,-1424,-34299,-1279
C00612=98,59240,-525,-1419,-34323,-1267
C00613=91,59300,-433,-1417,-34361,-1266
C00614=110,59353,-352,-1419,-34393,-1274
C00615=142,59389,-298,-1422,-34415,-1287
C00616=179,59404,-273,-1427,-34425,-1302
C00617=220,59398,-282,-1432,-34421,-1319
C00618=256,59376,-315,-1437,-34408,-1333
C00619=285,59333,-379,-1442,-34382,-1344
C00620=312,59287,-449,-1446,-34353,-1354
C00621=317,59332,-380,-1446,-34381,-1357
C00622=298,59386,-299,-1443,-34414,-1350
C00623=266,59422,-244,-1438,-34437,-1338
C00624=231,59447,-207,-1433,-34452,-1324
C00625=191,59457,-192,-1428,-34458,-1308
C00626=152,59451,-202,-1422,-34454,-1292
C00627=117,59425,-243,-1418,-34438,-1278
C00628=86,59384,-306,-1415,-34412,-1265
C00629=64,59334,-382,-1413,-34381,-1255
C00630=64,59334,1018,-1413,-34381,-1255
C00631=-44,59549,1343,-1395,-34514,-1215
C00632=-44,59549,-57,-1395,-34514,-1215
C00633=-42,59550,-56,-1395,-34514,-1215
C00634=-41,59551,-53,-1395,-34515,-1216
C00635=-40,59553,-51,-1395,-34516,-1216
C00636=-40,59555,-47,-1395,-34517,-1216
C00637=-40,59557,-44,-1395,-34519,-1217
C00638=-40,59560,-40,-1395,-34520,-1217
C00639=-39,59562,-37,-1395,-34522,-1217
C00640=-38,59564,-34,-1395,-34523,-1217
C00641=-37,59565,-32,-1396,-34524,-1218
C00642=-37,59568,-28,-1396,-34525,-1218
C00643=-37,59570,-25,-1395,-34527,-1218
C00644=-37,59572,-21,-1395,-34528,-1218
C00645=-37,59575,-17,-1395,-34530,-1218
C00646=-37,59577,-14,-1395,-34531,-1218
C00647=-38,59579,-11,-1395,-34532,-1218
C00648=-39,59581,-8,-1395,-34533,-1217
C00649=-40,59583,-6,-1395,-34534,-1217
C00650=-41,59584,-3,-1395,-34535,-1216
C00651=-42,59586,0,-1395,-34536,-1216
C00652=-43,59588,2,-1394,-34538,-1216
C00653=-44,59590,5,-1394,-34539,-1215
C00654=-45,59590,6,-1394,-34539,-1215
C00655=-47,59591,6,-1394,-34539,-1214
C00656=-48,59591,7,-1394,-34539,-1213
C00657=-50,59591,7,-1393,-34539,-1213
C00658=-52,59591,7,-1393,-34539,-1212
C00659=-53,59591,7,-1393,-34539,-1212
C00660=-55,59591,7,-1393,-34539,-1211
C00661=-56,59591,7,-1393,-34539,-1210
C00662=-58,59591,7,-1392,-34539,-1210
C00663=-59,59590,5,-1392,-34538,-1209
C00664=-60,59588,2,-1392,-34537,-1209
C00665=-61,59586,0,-1392,-34536,-1208
C00666=-62,59585,-3,-1392,-34535,-1208
C00667=-63,59583,-5,-1392,-34534,-1207
C00668=-64,59581,-8,-1392,-34533,-1207
C00669=-66,59580,-10,-1392,-34532,-1206
C00670=-66,59578,-14,-1392,-34531,-1206
C00671=-66,59575,-17,-1392,-34530,-1206
C00672=-66,59573,-21,-1392,-34528,-1206
C00673=-66,59570,-25,-1392,-34527,-1206
C00674=-66,59568,-28,-1392,-34525,-1206
C00675=-65,59566,-31,-1392,-34524,-1206
C00676=-64,59564,-34,-1392,-34523,-1207
C00677=-63,59563,-36,-1392,-34522,-1207
C00678=-62,59563,-37,-1392,-34522,-1208
C00679=-60,59562,-38,-1393,-34521,-1208
C00680=-59,59560,-40,-1393,-34520,-1209
C00681=-58,59558,-43,-1393,-34519,-1209
C00682=-57,59556,-46,-1393,-34518,-1210
C00683=-56,59555,-48,-1393,-34517,-1210
C00684=-55,59553,-51,-1393,-34516,-1210
C00685=-54,59551,-54,-1394,-34515,-1211
C00686=-53,59550,-56,-1394,-34514,-1211
C00687=-51,59550,-56,-1394,-34514,-1212
C00688=-50,59549,-56,-1394,-34514,-1212
C00689=-48,59549,-56,-1394,-34514,-1213
C00690=-47,59549,-56,-1395,-34514,-1214
C00691=-45,59549,-56,-1395,-34514,-1214
C00692=-44,59549,-57,-1395,-34514,-1215
C00693=-44,59549,1343,-1395,-34514,-1215
C00694=532,59560,1371,-1470,-34523,-1446
C00695=532,59560,-29,-1470,-34523,-1446
C00696=553,59547,-48,-1473,-34516,-1455
C00697=562,59578,-1,-1474,-34535,-1459
C00698=579,59603,37,-1476,-34550,-1466
C00699=599,59620,63,-1478,-34561,-1474
C00700=619,59634,86,-1481,-34570,-1483
C00701=640,59645,103,-1483,-34577,-1491
C00702=662,59656,120,-1486,-34584,-1500
C00703=685,59659,125,-1489,-34586,-1509
C00704=707,59650,111,-1492,-34580,-1518
C00705=727,59633,86,-1495,-34569,-1526
C00706=738,59601,38,-1497,-34550,-1530
C00707=743,59566,-15,-1498,-34528,-1531
C00708=740,59530,-71,-1498,-34506,-1529
C00709=737,59494,-126,-1499,-34483,-1528
C00710=731,59460,-178,-1498,-34462,-1525
C00711=723,59427,-228,-1498,-34442,-1521
C00712=712,59396,-276,-1497,-34422,-1517
C00713=700,59366,-322,-1496,-34404,-1511
C00714=689,59335,-369,-1495,-34385,-1506
C00715=676,59306,-413,-1494,-34367,-1501
C00716=664,59276,-459,-1493,-34348,-1495
C00717=654,59245,-507,-1492,-34329,-1491
C00718=644,59214,-555,-1491,-34309,-1486
C00719=632,59184,-601,-1490,-34291,-1481
C00720=623,59152,-650,-1490,-34271,-1477
C00721=613,59121,-697,-1489,-34251,-1472
C00722=604,59088,-747,-1489,-34231,-1468
C00723=605,59058,-794,-1489,-34212,-1468
C00724=627,59052,-802,-1492,-34209,-1477
C00725=637,59083,-754,-1493,-34228,-1482
C00726=647,59112,-710,-1494,-34246,-1486
C00727=653,59146,-658,-1494,-34268,-1489
C00728=664,59177,-611,-1495,-34287,-1494
C00729=675,59208,-564,-1496,-34306,-1499
C00730=685,59239,-516,-1496,-34325,-1503
C00731=697,59269,-470,-1497,-34344,-1508
C00732=711,59297,-427,-1499,-34361,-1515
C00733=721,59328,-379,-1500,-34381,-1519
C00734=735,59357,-335,-1501,-34399,-1525
C00735=746,59388,-288,-1502,-34418,-1530
C00736=752,59422,-236,-1502,-34439,-1533
C00737=760,59455,-186,-1502,-34459,-1536
C00738=767,59488,-135,-1503,-34480,-1540
C00739=771,59523,-81,-1503,-34502,-1542
C00740=772,59561,-23,-1502,-34525,-1543
C00741=770,59598,33,-1501,-34548,-1543
C00742=765,59633,86,-1500,-34570,-1541
C00743=754,59664,134,-1498,-34589,-1537
C00744=737,59685,165,-1495,-34602,-1531
C00745=716,59698,186,-1492,-34610,-1522
C00746=692,59704,194,-1489,-34613,-1513
C00747=668,59705,195,-1486,-34614,-1503
C00748=647,59694,178,-1483,-34607,-1495
C00749=625,59683,161,-1480,-34600,-1486
C00750=604,59672,143,-1478,-34593,-1477
C00751=583,59661,126,-1475,-34586,-1468
C00752=562,59646,102,-1473,-34577,-1460
C00753=546,59622,66,-1471,-34562,-1453
C00754=530,59595,25,-1470,-34545,-1446
C00755=532,59560,-29,-1470,-34523,-1446
C00756=532,59560,1371,-1470,-34523,-1446
C00757=-388,60093,2165,-1340,-34848,-1084
C00758=-388,60093,765,-1340,-34848,-1084
C00759=-363,60107,786,-1343,-34856,-1094
C00760=-343,60136,831,-1345,-34874,-1103
C00761=-329,60172,886,-1346,-34897,-1109
C00762=-321,60212,947,-1347,-34921,-1113
C00763=-317,60256,1013,-1347,-34948,-1115
C00764=-314,60299,1080,-1346,-34975,-1117
C00765=-313,60345,1149,-1345,-35003,-1118
C00766=-315,60389,1216,-1344,-35030,-1118
C00767=-323,60429,1278,-1343,-35055,-1115
C00768=-329,60471,1341,-1341,-35081,-1113
C00769=-337,60511,1402,-1339,-35106,-1110
C00770=-344,60552,1464,-1338,-35131,-1108
C00771=-353,60592,1525,-1336,-35155,-1105
C00772=-364,60631,1583,-1334,-35179,-1101
C00773=-377,60666,1637,-1331,-35201,-1097
C00774=-398,60692,1676,-1328,-35217,-1089
C00775=-398,60650,1612,-1329,-35191,-1088
C00776=-388,60610,1552,-1331,-35167,-1091
C00777=-377,60572,1494,-1333,-35143,-1095
C00778=-369,60532,1433,-1335,-35118,-1098
C00779=-361,60491,1371,-1337,-35093,-1101
C00780=-354,60450,1309,-1338,-35068,-1103
C00781=-347,60409,1246,-1340,-35043,-1105
C00782=-342,60367,1182,-1341,-35017,-1106
C00783=-343,60325,1118,-1342,-34991,-1106
C00784=-343,60279,1049,-1343,-34963,-1105
C00785=-348,60237,984,-1343,-34936,-1102
C00786=-355,60196,922,-1343,-34911,-1099
C00787=-368,60159,866,-1342,-34888,-1093
C00788=-392,60139,834,-1339,-34875,-1083
C00789=-420,60136,830,-1335,-34874,-1072
C00790=-445,60153,854,-1332,-34884,-1062
C00791=-468,60176,889,-1328,-34898,-1053
C00792=-491,60200,925,-1325,-34912,-1044
C00793=-512,60230,971,-1322,-34931,-1036
C00794=-530,60265,1023,-1319,-34952,-1029
C00795=-541,60303,1081,-1316,-34976,-1026
C00796=-551,60343,1141,-1314,-35000,-1022
C00797=-558,60383,1203,-1313,-35025,-1020
C00798=-563,60426,1267,-1311,-35051,-1018
C00799=-568,60468,1331,-1310,-35077,-1017
C00800=-572,60511,1396,-1309,-35104,-1016
C00801=-571,60556,1465,-1308,-35132,-1017
C00802=-588,60584,1507,-1305,-35148,-1011
C00803=-607,60558,1467,-1303,-35132,-1003
C00804=-603,60517,1405,-1305,-35107,-1004
C00805=-599,60474,1340,-1306,-35081,-1005
C00806=-593,60433,1277,-1307,-35055,-1007
C00807=-587,60391,1213,-1309,-35030,-1008
C00808=-583,60348,1149,-1310,-35003,-1009
C00809=-575,60307,1087,-1312,-34978,-1012
C00810=-565,60268,1027,-1314,-34954,-1015
C00811=-549,60233,974,-1317,-34932,-1021
C00812=-534,60196,918,-1319,-34910,-1027
C00813=-513,60165,872,-1322,-34891,-1035
C00814=-491,60141,835,-1326,-34876,-1043
C00815=-467,60119,802,-1329,-34863,-1053
C00816=-443,60100,775,-1333,-34852,-1062
C00817=-417,60095,767,-1336,-34848,-1072
C00818=-388,60093,765,-1340,-34848,-1084
C00819=-388,60093,2165,-1340,-34848,-1084
C00820=-649,60152,2249,-1305,-34882,-980
C00821=-649,60152,849,-1305,-34882,-980
C00822=-636,60189,905,-1306,-34905,-986
C00823=-628,60228,965,-1306,-34929,-989
C00824=-626,60272,1032,-1306,-34956,-991
C00825=-628,60315,1098,-1305,-34983,-991
C00826=-633,60356,1160,-1303,-35008,-989
C00827=-640,60397,1222,-1302,-35033,-987
C00828=-650,60436,1280,-1300,-35057,-984
C00829=-660,60474,1339,-1298,-35081,-980
C00830=-675,60510,1393,-1295,-35102,-975
C00831=-689,60546,1448,-1293,-35125,-969
C00832=-709,60579,1497,-1290,-35145,-962
C00833=-726,60613,1549,-1287,-35166,-955
C00834=-750,60635,1581,-1283,-35179,-946
C00835=-745,60593,1518,-1285,-35153,-948
C00836=-724,60563,1472,-1288,-35135,-955
C00837=-708,60528,1419,-1291,-35113,-961
C00838=-694,60492,1364,-1293,-35091,-967
C00839=-682,60454,1308,-1295,-35068,-971
C00840=-671,60416,1250,-1297,-35045,-975
C00841=-661,60377,1192,-1299,-35021,-978
C00842=-657,60336,1128,-1301,-34995,-979
C00843=-652,60294,1065,-1302,-34969,-981
C00844=-655,60251,999,-1302,-34943,-979
C00845=-661,60210,937,-1302,-34918,-976
C00846=-678,60176,885,-1301,-34897,-969
C00847=-702,60161,862,-1298,-34887,-959
C00848=-729,60163,864,-1294,-34888,-948
C00849=-755,60173,879,-1291,-34895,-938
C00850=-777,60199,917,-1287,-34910,-929
C00851=-796,60229,963,-1284,-34928,-922
C00852=-810,60265,1018,-1282,-34951,-917
C00853=-823,60302,1073,-1279,-34973,-912
C00854=-831,60342,1134,-1278,-34998,-909
C00855=-835,60384,1197,-1276,-35023,-908
C00856=-832,60427,1263,-1276,-35050,-910
C00857=-826,60468,1325,-1276,-35075,-913
C00858=-812,60503,1379,-1277,-35097,-919
C00859=-792,60532,1423,-1280,-35115,-928
C00860=-767,60537,1431,-1283,-35118,-938
C00861=-749,60533,1426,-1285,-35116,-945
C00862=-760,60571,1484,-1283,-35139,-941
C00863=-786,60583,1502,-1280,-35147,-931
C00864=-810,60570,1480,-1277,-35138,-921
C00865=-832,60542,1438,-1274,-35121,-912
C00866=-847,60508,1385,-1273,-35100,-905
C00867=-858,60470,1328,-1272,-35076,-900
C00868=-864,60429,1265,-1272,-35051,-897
C00869=-867,60386,1200,-1272,-35024,-895
C00870=-864,60343,1135,-1273,-34998,-896
C00871=-855,60304,1075,-1275,-34974,-899
C00872=-847,60264,1015,-1277,-34950,-902
C00873=-829,60230,963,-1280,-34929,-908
C00874=-815,60194,909,-1282,-34907,-914
C00875=-797,60162,862,-1285,-34887,-921
C00876=-775,60137,823,-1289,-34872,-929
C00877=-750,60122,802,-1292,-34863,-939
C00878=-723,60113,788,-1296,-34857,-950
C00879=-696,60115,792,-1299,-34859,-961
C00880=-671,60130,815,-1302,-34868,-971
C00881=-649,60152,849,-1305,-34882,-980
C00882=-649,60152,2249,-1305,-34882,-980
C00883=-849,60185,2295,-1278,-34901,-900
C00884=-849,60185,895,-1278,-34901,-900
C00885=-864,60259,1007,-1275,-34946,-895
C00886=-884,60329,1113,-1271,-34989,-888
C00887=-909,60396,1215,-1267,-35031,-879
C00888=-937,60460,1311,-1262,-35069,-868
C00889=-968,60524,1407,-1257,-35109,-857
C00890=-1001,60584,1498,-1251,-35145,-844
C00891=-1024,60653,1602,-1247,-35187,-836
C00892=-1053,60628,1564,-1244,-35172,-824
C00893=-1041,60553,1450,-1247,-35126,-828
C00894=-1035,60475,1331,-1249,-35078,-829
C00895=-1033,60397,1213,-1250,-35030,-829
C00896=-1048,60323,1101,-1250,-34985,-822
C00897=-1090,60304,1071,-1244,-34973,-804
C00898=-1126,60356,1149,-1239,-35004,-791
C00899=-1144,60428,1258,-1235,-35048,-785
C00900=-1156,60503,1371,-1232,-35094,-781
C00901=-1165,60580,1488,-1230,-35141,-778
C00902=-1163,60662,1613,-1229,-35192,-780
C00903=-1186,60719,1699,-1225,-35227,-772
C00904=-1198,60649,1592,-1224,-35184,-766
C00905=-1194,60569,1471,-1226,-35135,-766
C00906=-1187,60491,1353,-1229,-35087,-768
C00907=-1173,60417,1241,-1232,-35042,-773
C00908=-1154,60346,1134,-1235,-34998,-780
C00909=-1124,60284,1039,-1240,-34960,-791
C00910=-1077,60258,1001,-1247,-34944,-809
C00911=-1035,60292,1054,-1252,-34966,-826
C00912=-1015,60362,1160,-1253,-35009,-835
C00913=-1009,60437,1275,-1253,-35055,-839
C00914=-1015,60516,1394,-1251,-35103,-838
C00915=-982,60472,1328,-1256,-35077,-850
C00916=-950,60409,1233,-1261,-35038,-863
C00917=-923,60342,1133,-1266,-34997,-872
C00918=-899,60274,1030,-1270,-34956,-881
C00919=-882,60202,921,-1274,-34912,-887
C00920=-874,60125,803,-1276,-34864,-889
C00921=-879,60045,682,-1277,-34815,-886
C00922=-899,59976,576,-1275,-34772,-877
C00923=-923,59909,474,-1273,-34731,-866
C00924=-958,59853,388,-1269,-34696,-851
C00925=-1000,59811,324,-1265,-34670,-834
C00926=-1049,59822,340,-1258,-34677,-815
C00927=-1091,59864,402,-1252,-34702,-798
C00928=-1125,59926,495,-1246,-34740,-785
C00929=-1158,59989,591,-1241,-34778,-773
C00930=-1183,60056,692,-1236,-34820,-764
C00931=-1204,60112,777,-1233,-34854,-756
C00932=-1190,60038,665,-1236,-34809,-761
C00933=-1167,59970,561,-1240,-34767,-769
C00934=-1138,59904,463,-1245,-34727,-780
C00935=-1104,59844,372,-1250,-34690,-792
C00936=-1065,59795,298,-1256,-34660,-808
C00937=-1017,59775,268,-1263,-34648,-827
C00938=-968,59789,290,-1269,-34656,-847
C00939=-926,59832,356,-1274,-34683,-864
C00940=-893,59892,449,-1277,-34720,-878
C00941=-869,59958,550,-1279,-34761,-889
C00942=-852,60030,659,-1280,-34805,-897
C00943=-843,60107,777,-1280,-34853,-901
C00944=-849,60185,895,-1278,-34901,-900
C00945=-849,60185,2295,-1278,-34901,-900
C00946=-1594,60221,2334,-1180,-34918,-601
C00947=-1594,60221,934,-1180,-34918,-601
C00948=-1590,60262,996,-1180,-34943,-603
C00949=-1597,60301,1055,-1178,-34967,-601
C00950=-1605,60339,1114,-1176,-34991,-598
C00951=-1614,60377,1170,-1175,-35014,-595
C00952=-1620,60417,1230,-1173,-35038,-593
C00953=-1629,60455,1288,-1171,-35061,-590
C00954=-1639,60492,1344,-1169,-35084,-586
C00955=-1649,60529,1400,-1167,-35107,-583
C00956=-1666,60562,1450,-1165,-35127,-576
C00957=-1682,60596,1501,-1162,-35148,-570
C00958=-1702,60625,1545,-1159,-35165,-563
C00959=-1724,60644,1574,-1156,-35177,-554
C00960=-1752,60646,1575,-1152,-35178,-543
C00961=-1777,60635,1558,-1149,-35171,-533
C00962=-1800,60619,1534,-1146,-35161,-523
C00963=-1821,60592,1492,-1144,-35144,-514
C00964=-1836,60559,1442,-1142,-35124,-508
C00965=-1847,60523,1387,-1142,-35102,-503
C00966=-1864,60501,1353,-1140,-35088,-496
C00967=-1870,60540,1412,-1138,-35112,-494
C00968=-1877,60579,1471,-1137,-35136,-491
C00969=-1885,60618,1530,-1135,-35159,-489
C00970=-1900,60646,1573,-1133,-35177,-483
C00971=-1916,60621,1534,-1131,-35161,-476
C00972=-1912,60581,1473,-1132,-35136,-478
C00973=-1902,60543,1417,-1134,-35114,-481
C00974=-1892,60506,1360,-1136,-35091,-484
C00975=-1885,60467,1302,-1138,-35067,-487
C00976=-1880,60427,1240,-1139,-35042,-488
C00977=-1876,60386,1179,-1140,-35018,-490
C00978=-1871,60346,1118,-1141,-34993,-491
C00979=-1866,60306,1057,-1143,-34968,-492
C00980=-1865,60264,993,-1144,-34943,-492
C00981=-1861,60223,931,-1145,-34918,-493
C00982=-1849,60186,876,-1147,-34895,-498
C00983=-1826,60188,880,-1150,-34897,-507
C00984=-1823,60230,943,-1150,-34922,-509
C00985=-1827,60270,1004,-1148,-34947,-507
C00986=-1832,60311,1065,-1147,-34972,-506
C00987=-1834,60353,1129,-1146,-34997,-506
C00988=-1836,60395,1193,-1145,-35023,-506
C00989=-1838,60437,1256,-1144,-35049,-505
C00990=-1830,60475,1315,-1145,-35072,-509
C00991=-1821,60513,1372,-1145,-35096,-513
C00992=-1810,60549,1427,-1146,-35118,-518
C00993=-1790,60579,1473,-1148,-35136,-527
C00994=-1766,60593,1495,-1151,-35145,-536
C00995=-1740,60600,1506,-1154,-35149,-547
C00996=-1717,60583,1480,-1158,-35139,-556
C00997=-1697,60553,1436,-1161,-35121,-564
C00998=-1680,60520,1386,-1163,-35101,-570
C00999=-1666,60485,1333,-1166,-35080,-575
C01000=-1657,60448,1277,-1168,-35057,-578
C01001=-1648,60410,1219,-1170,-35034,-581
C01002=-1641,60371,1160,-1171,-35010,-584
C01003=-1636,60330,1099,-1172,-34985,-585
C01004=-1632,60290,1038,-1174,-34960,-586
C01005=-1631,60247,973,-1174,-34934,-586
C01006=-1619,60212,919,-1177,-34912,-590
C01007=-1594,60221,934,-1180,-34918,-601
C01008=-1594,60221,2334,-1180,-34918,-601
C01009=-1940,60245,2364,-1134,-34931,-462
C01010=-1940,60245,964,-1134,-34931,-462
C01011=-1952,60270,1001,-1132,-34946,-457
C01012=-1960,60296,1040,-1131,-34962,-454
C01013=-1966,60323,1082,-1129,-34979,-452
C01014=-1973,60351,1123,-1128,-34995,-450
C01015=-1979,60379,1165,-1127,-35012,-448
C01016=-1986,60405,1206,-1125,-35029,-445
C01017=-1991,60434,1248,-1124,-35046,-444
C01018=-1998,60460,1289,-1123,-35062,-441
C01019=-2000,60490,1334,-1122,-35080,-441
C01020=-2005,60519,1377,-1121,-35098,-439
C01021=-2010,60547,1420,-1120,-35115,-438
C01022=-2015,60575,1463,-1119,-35132,-436
C01023=-2021,60603,1504,-1117,-35149,-434
C01024=-2029,60629,1544,-1116,-35165,-431
C01025=-2046,60634,1551,-1114,-35168,-424
C01026=-2062,60642,1562,-1112,-35173,-418
C01027=-2076,60665,1597,-1109,-35187,-413
C01028=-2090,60687,1630,-1107,-35200,-407
C01029=-2109,60692,1638,-1105,-35203,-400
C01030=-2129,60694,1639,-1102,-35204,-392
C01031=-2146,60684,1625,-1100,-35198,-385
C01032=-2162,60669,1601,-1098,-35188,-378
C01033=-2176,60649,1571,-1097,-35176,-372
C01034=-2190,60628,1538,-1095,-35163,-366
C01035=-2201,60603,1501,-1094,-35148,-361
C01036=-2210,60578,1462,-1093,-35133,-358
C01037=-2218,60552,1423,-1092,-35117,-354
C01038=-2224,60524,1381,-1092,-35100,-351
C01039=-2230,60497,1339,-1092,-35083,-348
C01040=-2233,60467,1294,-1092,-35065,-347
C01041=-2236,60437,1249,-1092,-35046,-345
C01042=-2234,60408,1204,-1093,-35028,-346
C01043=-2231,60378,1160,-1094,-35010,-347
C01044=-2227,60350,1116,-1095,-34993,-348
C01045=-2220,60322,1075,-1096,-34976,-350
C01046=-2210,60297,1037,-1098,-34961,-354
C01047=-2198,60276,1005,-1100,-34948,-359
C01048=-2181,60262,984,-1102,-34939,-365
C01049=-2164,60250,966,-1105,-34932,-372
C01050=-2148,60235,944,-1107,-34923,-378
C01051=-2129,60229,936,-1109,-34920,-385
C01052=-2110,60232,941,-1112,-34922,-393
C01053=-2091,60234,943,-1114,-34923,-401
C01054=-2074,60246,962,-1116,-34931,-408
C01055=-2059,60265,991,-1118,-34942,-414
C01056=-2046,60287,1025,-1119,-34956,-420
C01057=-2038,60313,1065,-1120,-34972,-423
C01058=-2032,60341,1107,-1120,-34989,-426
C01059=-2026,60369,1149,-1121,-35006,-429
C01060=-2026,60400,1197,-1120,-35025,-429
C01061=-2013,60392,1185,-1122,-35020,-434
C01062=-2008,60364,1142,-1123,-35003,-436
C01063=-2000,60337,1102,-1125,-34987,-439
C01064=-1993,60310,1061,-1126,-34970,-441
C01065=-1988,60282,1019,-1127,-34953,-443
C01066=-1984,60254,975,-1128,-34936,-444
C01067=-1977,60226,934,-1129,-34919,-447
C01068=-1961,60211,912,-1132,-34910,-453
C01069=-1943,60217,921,-1134,-34914,-460
C01070=-1940,60245,964,-1134,-34931,-462
C01071=-1940,60245,2364,-1134,-34931,-462
C01072=-2087,60285,2421,-1114,-34954,-403
C01073=-2087,60285,1021,-1114,-34954,-403
C01074=-2096,60275,1006,-1113,-34948,-400
C01075=-2105,60269,997,-1112,-34945,-396
C01076=-2116,60266,992,-1111,-34942,-391
C01077=-2127,60267,992,-1109,-34943,-387
C01078=-2138,60271,999,-1108,-34946,-383
C01079=-2148,60276,1006,-1106,-34948,-379
C01080=-2158,60282,1015,-1105,-34952,-375
C01081=-2167,60292,1030,-1104,-34958,-371
C01082=-2175,60303,1046,-1102,-34964,-368
C01083=-2184,60313,1061,-1101,-34971,-364
C01084=-2190,60327,1083,-1100,-34979,-362
C01085=-2196,60342,1105,-1099,-34988,-360
C01086=-2200,60357,1128,-1098,-34998,-359
C01087=-2204,60372,1151,-1097,-35007,-357
C01088=-2206,60390,1177,-1097,-35017,-357
C01089=-2207,60407,1203,-1096,-35028,-357
C01090=-2208,60424,1229,-1096,-35038,-356
C01091=-2210,60440,1254,-1095,-35048,-356
C01092=-2207,60457,1279,-1096,-35058,-357
C01093=-2204,60473,1303,-1096,-35068,-359
C01094=-2201,60489,1328,-1096,-35078,-360
C01095=-2198,60505,1352,-1096,-35088,-361
C01096=-2195,60521,1377,-1096,-35098,-363
C01097=-2190,60535,1398,-1097,-35107,-365
C01098=-2187,60552,1423,-1097,-35117,-366
C01099=-2182,60567,1446,-1097,-35126,-369
C01100=-2173,60576,1460,-1098,-35132,-372
C01101=-2170,60592,1484,-1098,-35141,-374
C01102=-2165,60606,1506,-1099,-35150,-376
C01103=-2157,60619,1526,-1099,-35158,-379
C01104=-2148,60629,1540,-1100,-35164,-383
C01105=-2139,60636,1552,-1102,-35169,-387
C01106=-2129,60641,1560,-1103,-35172,-391
C01107=-2119,60647,1570,-1104,-35176,-395
C01108=-2109,60651,1575,-1105,-35178,-399
C01109=-2099,60642,1562,-1107,-35173,-403
C01110=-2091,60630,1545,-1108,-35166,-406
C01111=-2082,60620,1529,-1109,-35159,-409
C01112=-2074,60610,1514,-1111,-35153,-413
C01113=-2065,60599,1498,-1112,-35147,-416
C01114=-2057,60589,1482,-1113,-35140,-419
C01115=-2052,60574,1459,-1114,-35131,-421
C01116=-2049,60557,1435,-1115,-35121,-422
C01117=-2047,60541,1410,-1115,-35111,-423
C01118=-2047,60523,1383,-1115,-35100,-422
C01119=-2047,60508,1360,-1116,-35091,-422
C01120=-2048,60490,1333,-1116,-35080,-422
C01121=-2049,60475,1310,-1116,-35071,-421
C01122=-2049,60458,1284,-1116,-35060,-421
C01123=-2051,60441,1259,-1116,-35050,-420
C01124=-2052,60424,1232,-1116,-35039,-419
C01125=-2052,60406,1205,-1117,-35028,-419
C01126=-2052,60388,1177,-1117,-35017,-418
C01127=-2055,60372,1153,-1117,-35007,-417
C01128=-2058,60355,1127,-1117,-34997,-416
C01129=-2061,60339,1104,-1117,-34988,-414
C01130=-2065,60324,1080,-1116,-34978,-413
C01131=-2072,60310,1059,-1116,-34970,-410
C01132=-2078,60297,1039,-1115,-34961,-407
C01133=-2087,60285,1021,-1114,-34954,-403
C01134=-2087,60285,2421,-1114,-34954,-403
C01135=-2324,60283,2414,-1083,-34952,-308
C01136=-2324,60283,1014,-1083,-34952,-308
C01137=-2307,60338,1097,-1084,-34985,-315
C01138=-2309,60393,1180,-1083,-35019,-315
C01139=-2332,60432,1238,-1080,-35042,-307
C01140=-2338,60370,1144,-1080,-35004,-303
C01141=-2347,60309,1052,-1080,-34967,-299
C01142=-2374,60265,984,-1077,-34940,-287
C01143=-2409,60238,943,-1073,-34923,-273
C01144=-2449,60241,946,-1067,-34925,-257
C01145=-2480,60280,1006,-1063,-34949,-245
C01146=-2505,60331,1082,-1058,-34980,-236
C01147=-2523,60386,1165,-1055,-35013,-229
C01148=-2532,60446,1255,-1053,-35049,-226
C01149=-2539,60507,1348,-1051,-35087,-224
C01150=-2545,60568,1440,-1049,-35124,-222
C01151=-2547,60632,1538,-1048,-35163,-223
C01152=-2548,60697,1635,-1047,-35203,-223
C01153=-2542,60759,1729,-1047,-35241,-226
C01154=-2533,60819,1821,-1047,-35278,-231
C01155=-2520,60877,1908,-1048,-35313,-237
C01156=-2504,60932,1992,-1049,-35347,-244
C01157=-2481,60982,2069,-1051,-35378,-254
C01158=-2454,61030,2141,-1054,-35407,-265
C01159=-2419,61055,2181,-1058,-35423,-280
C01160=-2379,61053,2178,-1063,-35422,-296
C01161=-2341,61038,2157,-1069,-35413,-311
C01162=-2321,60989,2083,-1072,-35383,-318
C01163=-2308,60931,1996,-1075,-35348,-323
C01164=-2300,60871,1905,-1077,-35311,-325
C01165=-2293,60810,1812,-1079,-35274,-327
C01166=-2288,60748,1718,-1080,-35236,-328
C01167=-2257,60763,1742,-1084,-35245,-341
C01168=-2261,60822,1831,-1083,-35281,-340
C01169=-2268,60883,1924,-1081,-35319,-338
C01170=-2280,60941,2011,-1078,-35354,-334
C01171=-2289,61001,2101,-1076,-35391,-331
C01172=-2301,61059,2190,-1073,-35426,-327
C01173=-2334,61088,2232,-1069,-35443,-314
C01174=-2372,61102,2253,-1063,-35452,-299
C01175=-2414,61105,2256,-1058,-35453,-282
C01176=-2452,61091,2234,-1053,-35444,-267
C01177=-2483,61051,2173,-1050,-35420,-254
C01178=-2508,61002,2099,-1047,-35390,-243
C01179=-2525,60947,2015,-1046,-35356,-235
C01180=-2544,60895,1935,-1044,-35324,-227
C01181=-2556,60836,1846,-1044,-35288,-222
C01182=-2565,60776,1755,-1043,-35251,-217
C01183=-2572,60714,1660,-1044,-35213,-214
C01184=-2570,60649,1563,-1045,-35174,-213
C01185=-2569,60585,1466,-1046,-35134,-213
C01186=-2565,60522,1371,-1048,-35096,-214
C01187=-2558,60461,1278,-1049,-35059,-216
C01188=-2551,60400,1185,-1051,-35021,-218
C01189=-2539,60342,1098,-1054,-34986,-222
C01190=-2519,60288,1017,-1057,-34953,-229
C01191=-2493,60241,946,-1062,-34925,-239
C01192=-2460,60208,896,-1066,-34905,-252
C01193=-2421,60193,875,-1072,-34896,-268
C01194=-2383,60207,897,-1077,-34905,-283
C01195=-2348,60234,939,-1081,-34922,-297
C01196=-2324,60283,1014,-1083,-34952,-308
C01197=-2324,60283,2414,-1083,-34952,-308
C01198=-3360,60236,2322,-948,-34917,110
C01199=-3360,60236,922,-948,-34917,110
C01200=-3365,60269,971,-947,-34936,111
C01201=-3371,60301,1019,-945,-34956,113
C01202=-3382,60329,1061,-944,-34973,117
C01203=-3389,60360,1108,-942,-34992,120
C01204=-3397,60391,1154,-941,-35010,122
C01205=-3404,60421,1200,-939,-35029,125
C01206=-3416,60447,1239,-937,-35045,130
C01207=-3438,60453,1247,-934,-35048,138
C01208=-3456,60435,1219,-932,-35037,145
C01209=-3468,60408,1178,-931,-35020,151
C01210=-3479,60379,1135,-930,-35003,156
C01211=-3492,60353,1095,-929,-34987,161
C01212=-3501,60323,1050,-928,-34969,165
C01213=-3507,60291,1002,-928,-34949,168
C01214=-3510,60258,951,-928,-34929,170
C01215=-3516,60226,902,-928,-34909,172
C01216=-3520,60192,852,-928,-34889,174
C01217=-3523,60159,801,-928,-34868,176
C01218=-3529,60127,753,-927,-34849,179
C01219=-3532,60093,702,-927,-34829,181
C01220=-3536,60060,651,-928,-34808,182
C01221=-3536,60024,597,-928,-34787,183
C01222=-3537,59989,544,-928,-34765,184
C01223=-3538,59953,490,-929,-34743,185
C01224=-3535,59920,440,-930,-34723,184
C01225=-3531,59887,391,-931,-34703,182
C01226=-3523,59857,345,-932,-34685,180
C01227=-3513,59827,301,-934,-34667,176
C01228=-3507,59796,253,-935,-34648,174
C01229=-3499,59765,207,-937,-34629,171
C01230=-3492,59734,160,-938,-34611,169
C01231=-3482,59705,116,-940,-34593,165
C01232=-3472,59676,72,-942,-34575,162
C01233=-3462,59647,29,-944,-34558,158
C01234=-3448,59620,-12,-946,-34541,153
C01235=-3435,59592,-53,-948,-34525,147
C01236=-3418,59572,-83,-951,-34512,141
C01237=-3399,59558,-105,-953,-34504,133
C01238=-3378,59559,-102,-956,-34505,125
C01239=-3363,59584,-64,-958,-34520,119
C01240=-3352,59612,-22,-959,-34537,114
C01241=-3341,59640,21,-960,-34554,109
C01242=-3334,59671,68,-960,-34573,106
C01243=-3326,59702,114,-961,-34592,103
C01244=-3323,59736,165,-961,-34612,101
C01245=-3320,59769,216,-960,-34633,99
C01246=-3319,59805,270,-960,-34654,98
C01247=-3318,59840,324,-960,-34676,98
C01248=-3319,59875,376,-959,-34697,98
C01249=-3319,59910,429,-958,-34718,97
C01250=-3319,59945,482,-958,-34740,96
C01251=-3323,59978,531,-957,-34759,98
C01252=-3325,60011,582,-956,-34780,98
C01253=-3330,60044,631,-955,-34800,100
C01254=-3334,60076,680,-954,-34819,101
C01255=-3339,60109,729,-953,-34839,103
C01256=-3343,60142,779,-952,-34859,104
C01257=-3348,60173,826,-950,-34878,106
C01258=-3356,60204,873,-949,-34897,108
C01259=-3360,60236,922,-948,-34917,110
C01260=-3360,60236,2322,-948,-34917,110
C01261=-4080,60202,2256,-854,-34892,399
C01262=-4080,60202,856,-854,-34892,399
C01263=-4086,60232,900,-853,-34910,402
C01264=-4092,60262,946,-851,-34928,403
C01265=-4096,60293,992,-850,-34947,405
C01266=-4104,60322,1036,-849,-34964,408
C01267=-4121,60338,1060,-846,-34974,414
C01268=-4134,60361,1095,-844,-34988,419
C01269=-4142,60391,1139,-843,-35006,422
C01270=-4149,60420,1183,-842,-35023,424
C01271=-4153,60450,1229,-840,-35042,426
C01272=-4168,60470,1259,-838,-35054,432
C01273=-4187,60481,1274,-836,-35060,439
C01274=-4202,60459,1241,-834,-35047,445
C01275=-4212,60432,1200,-833,-35030,450
C01276=-4221,60404,1158,-832,-35013,454
C01277=-4225,60373,1110,-832,-34994,456
C01278=-4232,60344,1066,-832,-34977,459
C01279=-4236,60312,1018,-832,-34957,461
C01280=-4241,60281,972,-832,-34939,463
C01281=-4245,60250,924,-831,-34920,465
C01282=-4250,60219,878,-831,-34901,468
C01283=-4254,60187,830,-831,-34882,470
C01284=-4258,60155,782,-831,-34862,472
C01285=-4259,60121,731,-832,-34842,472
C01286=-4259,60088,679,-832,-34821,473
C01287=-4263,60056,631,-832,-34802,475
C01288=-4263,60022,580,-832,-34781,475
C01289=-4267,59990,531,-832,-34762,477
C01290=-4263,59958,484,-833,-34743,476
C01291=-4260,59926,436,-834,-34724,475
C01292=-4259,59894,387,-835,-34704,475
C01293=-4254,59863,341,-836,-34686,473
C01294=-4249,59833,295,-837,-34667,472
C01295=-4241,59804,252,-839,-34650,469
C01296=-4232,59776,209,-840,-34632,466
C01297=-4223,59747,167,-842,-34615,462
C01298=-4210,59721,128,-844,-34600,458
C01299=-4194,59702,99,-846,-34588,451
C01300=-4176,59689,80,-849,-34580,444
C01301=-4157,59679,65,-852,-34574,437
C01302=-4140,59663,40,-854,-34564,430
C01303=-4120,59657,33,-857,-34561,422
C01304=-4101,59668,50,-859,-34568,414
C01305=-4084,59686,76,-861,-34579,407
C01306=-4070,59707,109,-863,-34592,401
C01307=-4063,59737,154,-863,-34610,398
C01308=-4060,59769,202,-863,-34629,397
C01309=-4054,59799,247,-863,-34647,394
C01310=-4043,59825,288,-864,-34664,389
C01311=-4042,59859,339,-864,-34684,388
C01312=-4042,59893,390,-864,-34705,388
C01313=-4043,59926,439,-863,-34724,388
C01314=-4048,59956,485,-862,-34743,390
C01315=-4050,59989,534,-861,-34762,390
C01316=-4049,60019,580,-861,-34781,389
C01317=-4057,60048,624,-859,-34799,392
C01318=-4056,60082,675,-859,-34819,391
C01319=-4063,60111,719,-857,-34837,394
C01320=-4067,60143,766,-856,-34856,395
C01321=-4074,60172,810,-855,-34874,397
C01322=-4080,60202,856,-854,-34892,399
C01323=-4080,60202,2256,-854,-34892,399
C01324=-3906,59315,920,-890,-34354,340
C01325=-3906,59315,-480,-890,-34354,340
C01326=-3922,59307,-492,-888,-34350,347
C01327=-3930,59284,-527,-888,-34336,350
C01328=-3931,59256,-569,-888,-34319,351
C01329=-3926,59231,-607,-889,-34303,349
C01330=-3919,59207,-643,-890,-34289,347
C01331=-3909,59185,-676,-892,-34276,343
C01332=-3901,59161,-712,-893,-34261,340
C01333=-3893,59138,-747,-895,-34247,337
C01334=-3883,59116,-780,-896,-34234,333
C01335=-3871,59097,-809,-898,-34222,329
C01336=-3858,59079,-836,-900,-34211,324
C01337=-3845,59061,-862,-902,-34201,319
C01338=-3831,59046,-885,-904,-34191,313
C01339=-3815,59037,-899,-906,-34186,307
C01340=-3799,59028,-912,-909,-34180,301
C01341=-3782,59025,-916,-911,-34179,294
C01342=-3764,59024,-917,-913,-34178,286
C01343=-3745,59023,-919,-916,-34178,279
C01344=-3729,59030,-907,-918,-34182,273
C01345=-3713,59038,-896,-920,-34187,266
C01346=-3698,59048,-880,-922,-34193,260
C01347=-3683,59059,-864,-924,-34199,254
C01348=-3668,59072,-843,-925,-34208,247
C01349=-3653,59085,-823,-927,-34216,241
C01350=-3639,59102,-798,-929,-34226,236
C01351=-3626,59121,-768,-930,-34238,230
C01352=-3615,59142,-737,-931,-34250,225
C01353=-3602,59161,-707,-933,-34262,220
C01354=-3588,59181,-678,-934,-34274,214
C01355=-3577,59202,-646,-935,-34287,210
C01356=-3569,59225,-611,-936,-34301,206
C01357=-3563,59249,-574,-936,-34316,203
C01358=-3571,59271,-541,-935,-34329,206
C01359=-3587,59264,-552,-933,-34324,213
C01360=-3601,59247,-577,-932,-34314,218
C01361=-3612,59227,-609,-930,-34302,223
C01362=-3623,59206,-640,-929,-34289,228
C01363=-3637,59187,-670,-928,-34277,233
C01364=-3650,59167,-699,-926,-34265,239
C01365=-3661,59146,-731,-925,-34253,244
C01366=-3674,59127,-760,-924,-34241,249
C01367=-3688,59111,-784,-922,-34231,255
C01368=-3703,59097,-806,-920,-34223,261
C01369=-3718,59087,-822,-918,-34216,268
C01370=-3735,59081,-831,-916,-34213,274
C01371=-3752,59077,-836,-914,-34211,281
C01372=-3770,59078,-835,-912,-34211,288
C01373=-3787,59083,-828,-909,-34214,295
C01374=-3803,59090,-818,-907,-34218,302
C01375=-3817,59105,-795,-905,-34227,307
C01376=-3832,59119,-774,-903,-34236,313
C01377=-3845,59137,-748,-901,-34246,318
C01378=-3854,59158,-716,-899,-34260,321
C01379=-3864,59180,-683,-898,-34273,325
C01380=-3871,59204,-646,-896,-34287,328
C01381=-3882,59226,-613,-895,-34301,331
C01382=-3889,59250,-577,-893,-34315,334
C01383=-3888,59279,-534,-893,-34333,333
C01384=-3890,59306,-494,-892,-34349,334
C01385=-3906,59315,-480,-890,-34354,340
C01386=-3906,59315,920,-890,-34354,340
C01387=-3812,58269,-658,-919,-33720,315
C01388=-3812,58269,-2058,-919,-33720,315
C01389=-3783,58242,-2099,-923,-33703,304
C01390=-3753,58204,-2155,-927,-33680,292
C01391=-3723,58164,-2215,-932,-33656,281
C01392=-3695,58125,-2274,-936,-33632,270
C01393=-3667,58082,-2339,-941,-33606,259
C01394=-3637,58043,-2397,-945,-33583,248
C01395=-3607,58007,-2452,-950,-33560,236
C01396=-3575,57975,-2499,-955,-33541,224
C01397=-3545,57937,-2556,-959,-33518,212
C01398=-3513,57906,-2603,-964,-33499,200
C01399=-3482,57871,-2655,-968,-33478,188
C01400=-3451,57836,-2707,-973,-33457,176
C01401=-3420,57802,-2759,-978,-33436,164
C01402=-3390,57764,-2815,-982,-33413,152
C01403=-3360,57727,-2872,-987,-33390,140
C01404=-3330,57689,-2928,-992,-33367,129
C01405=-3300,57652,-2985,-996,-33344,117
C01406=-3270,57614,-3041,-1001,-33321,106
C01407=-3239,57577,-3097,-1005,-33298,94
C01408=-3251,57529,-3169,-1005,-33270,99
C01409=-3277,57487,-3234,-1002,-33244,110
C01410=-3307,57446,-3295,-998,-33219,123
C01411=-3337,57411,-3349,-995,-33198,135
C01412=-3367,57371,-3410,-992,-33173,148
C01413=-3397,57335,-3464,-988,-33152,160
C01414=-3428,57298,-3521,-985,-33129,173
C01415=-3460,57266,-3568,-981,-33110,186
C01416=-3493,57235,-3616,-977,-33091,200
C01417=-3526,57207,-3659,-973,-33074,213
C01418=-3558,57174,-3709,-969,-33054,226
C01419=-3590,57142,-3757,-965,-33035,240
C01420=-3623,57113,-3802,-962,-33017,253
C01421=-3654,57076,-3859,-958,-32995,266
C01422=-3684,57035,-3920,-955,-32970,279
C01423=-3716,57001,-3972,-951,-32949,292
C01424=-3744,56959,-4035,-948,-32924,304
C01425=-3775,56922,-4092,-944,-32902,316
C01426=-3795,56929,-4082,-941,-32906,325
C01427=-3798,56989,-3990,-940,-32943,325
C01428=-3798,57052,-3896,-939,-32981,324
C01429=-3794,57113,-3803,-939,-33018,322
C01430=-3795,57175,-3710,-938,-33055,322
C01431=-3797,57237,-3617,-936,-33093,321
C01432=-3795,57300,-3521,-936,-33131,320
C01433=-3797,57362,-3428,-934,-33169,320
C01434=-3796,57424,-3333,-934,-33207,319
C01435=-3799,57485,-3242,-932,-33244,319
C01436=-3802,57546,-3150,-931,-33281,320
C01437=-3802,57605,-3061,-930,-33316,319
C01438=-3803,57664,-2972,-929,-33352,319
C01439=-3808,57723,-2882,-928,-33388,320
C01440=-3808,57785,-2788,-926,-33426,319
C01441=-3808,57848,-2694,-926,-33464,318
C01442=-3809,57910,-2600,-924,-33502,318
C01443=-3810,57971,-2507,-923,-33539,318
C01444=-3809,58031,-2417,-923,-33575,317
C01445=-3810,58089,-2329,-922,-33611,317
C01446=-3810,58145,-2245,-921,-33645,316
C01447=-3810,58207,-2151,-920,-33682,315
C01448=-3812,58269,-2058,-919,-33720,315
C01449=-3812,58269,-658,-919,-33720,315
C01450=-3861,58197,-767,-913,-33676,336
C01451=-3861,58197,-2167,-913,-33676,336
C01452=-3846,58157,-2228,-916,-33652,330
C01453=-3842,58095,-2321,-917,-33614,329
C01454=-3843,58030,-2420,-918,-33574,331
C01455=-3842,57966,-2516,-919,-33536,331
C01456=-3841,57902,-2612,-920,-33497,331
C01457=-3840,57839,-2708,-921,-33459,331
C01458=-3836,57776,-2802,-923,-33421,331
C01459=-3835,57713,-2898,-924,-33382,331
C01460=-3833,57650,-2994,-925,-33344,331
C01461=-3832,57586,-3090,-926,-33305,331
C01462=-3830,57522,-3186,-928,-33266,331
C01463=-3829,57459,-3282,-929,-33228,332
C01464=-3828,57395,-3378,-930,-33189,332
C01465=-3828,57331,-3475,-931,-33150,333
C01466=-3828,57267,-3572,-932,-33111,333
C01467=-3824,57204,-3666,-933,-33073,333
C01468=-3825,57139,-3764,-934,-33034,334
C01469=-3827,57074,-3863,-935,-32994,335
C01470=-3828,57012,-3956,-936,-32957,337
C01471=-3827,56949,-4052,-937,-32918,337
C01472=-3833,56893,-4136,-937,-32884,340
C01473=-3867,56923,-4091,-932,-32902,353
C01474=-3901,56950,-4050,-927,-32919,367
C01475=-3933,56985,-3998,-922,-32941,379
C01476=-3968,57010,-3960,-917,-32956,393
C01477=-4002,57039,-3918,-912,-32973,406
C01478=-4037,57062,-3883,-907,-32988,420
C01479=-4073,57084,-3850,-902,-33001,434
C01480=-4108,57111,-3810,-897,-33017,447
C01481=-4145,57129,-3782,-892,-33029,462
C01482=-4179,57156,-3742,-887,-33045,475
C01483=-4214,57181,-3704,-882,-33060,489
C01484=-4248,57209,-3663,-877,-33077,503
C01485=-4283,57233,-3627,-872,-33092,516
C01486=-4318,57260,-3586,-867,-33109,530
C01487=-4353,57286,-3548,-862,-33124,543
C01488=-4386,57317,-3502,-857,-33143,556
C01489=-4419,57348,-3455,-852,-33162,569
C01490=-4451,57383,-3403,-847,-33183,582
C01491=-4477,57419,-3347,-843,-33205,591
C01492=-4445,57461,-3284,-847,-33231,578
C01493=-4415,57502,-3223,-850,-33255,566
C01494=-4387,57542,-3161,-853,-33280,554
C01495=-4355,57581,-3103,-857,-33303,541
C01496=-4325,57618,-3046,-860,-33325,528
C01497=-4293,57657,-2988,-864,-33349,515
C01498=-4259,57689,-2938,-868,-33368,501
C01499=-4226,57722,-2889,-872,-33388,488
C01500=-4194,57758,-2834,-876,-33410,474
C01501=-4161,57793,-2780,-879,-33431,461
C01502=-4129,57832,-2722,-883,-33455,447
C01503=-4097,57868,-2667,-887,-33477,434
C01504=-4066,57909,-2604,-890,-33501,421
C01505=-4033,57945,-2550,-894,-33523,408
C01506=-4003,57985,-2490,-898,-33547,395
C01507=-3971,58023,-2431,-901,-33571,382
C01508=-3944,58067,-2364,-904,-33597,370
C01509=-3916,58109,-2302,-907,-33622,359
C01510=-3886,58148,-2241,-911,-33647,346
C01511=-3861,58197,-2167,-913,-33676,336
C01512=-3861,58197,-767,-913,-33676,336
C01513=621,58698,58,-1498,-33990,-1470
C01514=621,58698,-1342,-1498,-33990,-1470
C01515=624,58696,-1346,-1498,-33988,-1471
C01516=627,58693,-1349,-1499,-33986,-1472
C01517=630,58691,-1352,-1499,-33985,-1473
C01518=633,58691,-1352,-1500,-33985,-1474
C01519=637,58690,-1354,-1500,-33985,-1476
C01520=639,58687,-1359,-1500,-33982,-1477
C01521=643,58686,-1359,-1501,-33982,-1478
C01522=645,58689,-1356,-1501,-33984,-1479
C01523=648,58690,-1354,-1502,-33985,-1480
C01524=651,58693,-1349,-1502,-33986,-1481
C01525=654,58697,-1344,-1502,-33989,-1483
C01526=656,58700,-1338,-1502,-33991,-1484
C01527=659,58702,-1335,-1503,-33992,-1485
C01528=662,58705,-1331,-1503,-33994,-1486
C01529=664,58708,-1326,-1503,-33996,-1487
C01530=667,58710,-1323,-1504,-33997,-1488
C01531=670,58713,-1319,-1504,-33999,-1489
C01532=672,58716,-1313,-1504,-34001,-1490
C01533=673,58721,-1306,-1504,-34004,-1491
C01534=676,58725,-1300,-1505,-34006,-1492
C01535=678,58729,-1295,-1505,-34009,-1493
C01536=680,58732,-1289,-1505,-34011,-1494
C01537=683,58736,-1283,-1505,-34013,-1495
C01538=684,58740,-1277,-1505,-34016,-1495
C01539=684,58746,-1268,-1505,-34019,-1496
C01540=682,58750,-1262,-1505,-34022,-1495
C01541=681,58754,-1255,-1505,-34025,-1495
C01542=678,58756,-1253,-1504,-34025,-1493
C01543=676,58759,-1249,-1504,-34027,-1492
C01544=672,58759,-1248,-1504,-34027,-1491
C01545=669,58759,-1248,-1503,-34027,-1490
C01546=665,58759,-1248,-1503,-34028,-1488
C01547=662,58761,-1245,-1502,-34029,-1487
C01548=660,58764,-1241,-1502,-34030,-1486
C01549=657,58766,-1238,-1501,-34032,-1485
C01550=656,58771,-1231,-1501,-34035,-1484
C01551=654,58775,-1224,-1501,-34037,-1484
C01552=651,58779,-1218,-1500,-34040,-1483
C01553=649,58781,-1215,-1500,-34041,-1482
C01554=645,58781,-1215,-1500,-34041,-1480
C01555=643,58777,-1221,-1499,-34039,-1479
C01556=640,58774,-1226,-1499,-34036,-1478
C01557=638,58770,-1232,-1499,-34034,-1477
C01558=635,58766,-1238,-1499,-34032,-1476
C01559=633,58763,-1243,-1498,-34030,-1475
C01560=630,58759,-1249,-1498,-34027,-1474
C01561=628,58755,-1254,-1498,-34025,-1473
C01562=626,58751,-1261,-1498,-34022,-1472
C01563=625,58747,-1268,-1497,-34020,-1472
C01564=622,58743,-1273,-1497,-34017,-1471
C01565=620,58740,-1279,-1497,-34015,-1470
C01566=617,58736,-1284,-1497,-34013,-1468
C01567=615,58732,-1291,-1497,-34010,-1468
C01568=615,58726,-1299,-1497,-34007,-1468
C01569=617,58722,-1305,-1497,-34004,-1468
C01570=618,58717,-1313,-1497,-34001,-1468
C01571=618,58712,-1321,-1497,-33998,-1468
C01572=618,58707,-1328,-1497,-33995,-1469
C01573=620,58703,-1335,-1498,-33992,-1469
C01574=621,58698,-1342,-1498,-33990,-1470
C01575=621,58698,58,-1498,-33990,-1470
//INST
///DATE 2026/04/22 17:20
///ATTR SC,RW
///GROUP1 RB1
NOP
MOVJ C00000 VJ=0.78
MOVJ C00001 VJ=0.78
MOVJ C00002 VJ=0.78
MOVL C00003 V=8.0
MOVL C00004 V=8.0
MOVL C00005 V=8.0
MOVL C00006 V=8.0
MOVL C00007 V=8.0
MOVL C00008 V=8.0
MOVL C00009 V=8.0
MOVL C00010 V=8.0
MOVL C00011 V=8.0
MOVL C00012 V=8.0
MOVL C00013 V=8.0
MOVL C00014 V=8.0
MOVL C00015 V=8.0
MOVL C00016 V=8.0
MOVL C00017 V=8.0
MOVL C00018 V=8.0
MOVL C00019 V=8.0
MOVL C00020 V=8.0
MOVL C00021 V=8.0
MOVL C00022 V=8.0
MOVL C00023 V=8.0
MOVL C00024 V=8.0
MOVL C00025 V=8.0
MOVL C00026 V=8.0
MOVL C00027 V=8.0
MOVL C00028 V=8.0
MOVL C00029 V=8.0
MOVL C00030 V=8.0
MOVL C00031 V=8.0
MOVL C00032 V=8.0
MOVL C00033 V=8.0
MOVL C00034 V=8.0
MOVL C00035 V=8.0
MOVL C00036 V=8.0
MOVL C00037 V=8.0
MOVL C00038 V=8.0
MOVL C00039 V=8.0
MOVL C00040 V=8.0
MOVL C00041 V=8.0
MOVL C00042 V=8.0
MOVL C00043 V=8.0
MOVL C00044 V=8.0
MOVL C00045 V=8.0
MOVL C00046 V=8.0
MOVL C00047 V=8.0
MOVL C00048 V=8.0
MOVL C00049 V=8.0
MOVL C00050 V=8.0
MOVL C00051 V=8.0
MOVL C00052 V=8.0
MOVL C00053 V=8.0
MOVL C00054 V=8.0
MOVL C00055 V=8.0
MOVL C00056 V=8.0
MOVL C00057 V=8.0
MOVL C00058 V=8.0
MOVL C00059 V=8.0
MOVL C00060 V=8.0
MOVL C00061 V=8.0
MOVL C00062 V=8.0
MOVJ C00063 VJ=0.78
MOVJ C00064 VJ=0.78
MOVJ C00065 VJ=0.78
MOVL C00066 V=8.0
MOVL C00067 V=8.0
MOVL C00068 V=8.0
MOVL C00069 V=8.0
MOVL C00070 V=8.0
MOVL C00071 V=8.0
MOVL C00072 V=8.0
MOVL C00073 V=8.0
MOVL C00074 V=8.0
MOVL C00075 V=8.0
MOVL C00076 V=8.0
MOVL C00077 V=8.0
MOVL C00078 V=8.0
MOVL C00079 V=8.0
MOVL C00080 V=8.0
MOVL C00081 V=8.0
MOVL C00082 V=8.0
MOVL C00083 V=8.0
MOVL C00084 V=8.0
MOVL C00085 V=8.0
MOVL C00086 V=8.0
MOVL C00087 V=8.0
MOVL C00088 V=8.0
MOVL C00089 V=8.0
MOVL C00090 V=8.0
MOVL C00091 V=8.0
MOVL C00092 V=8.0
MOVL C00093 V=8.0
MOVL C00094 V=8.0
MOVL C00095 V=8.0
MOVL C00096 V=8.0
MOVL C00097 V=8.0
MOVL C00098 V=8.0
MOVL C00099 V=8.0
MOVL C00100 V=8.0
MOVL C00101 V=8.0
MOVL C00102 V=8.0
MOVL C00103 V=8.0
MOVL C00104 V=8.0
MOVL C00105 V=8.0
MOVL C00106 V=8.0
MOVL C00107 V=8.0
MOVL C00108 V=8.0
MOVL C00109 V=8.0
MOVL C00110 V=8.0
MOVL C00111 V=8.0
MOVL C00112 V=8.0
MOVL C00113 V=8.0
MOVL C00114 V=8.0
MOVL C00115 V=8.0
MOVL C00116 V=8.0
MOVL C00117 V=8.0
MOVL C00118 V=8.0
MOVL C00119 V=8.0
MOVL C00120 V=8.0
MOVL C00121 V=8.0
MOVL C00122 V=8.0
MOVL C00123 V=8.0
MOVL C00124 V=8.0
MOVL C00125 V=8.0
MOVJ C00126 VJ=0.78
MOVJ C00127 VJ=0.78
MOVJ C00128 VJ=0.78
MOVL C00129 V=8.0
MOVL C00130 V=8.0
MOVL C00131 V=8.0
MOVL C00132 V=8.0
MOVL C00133 V=8.0
MOVL C00134 V=8.0
MOVL C00135 V=8.0
MOVL C00136 V=8.0
MOVL C00137 V=8.0
MOVL C00138 V=8.0
MOVL C00139 V=8.0
MOVL C00140 V=8.0
MOVL C00141 V=8.0
MOVL C00142 V=8.0
MOVL C00143 V=8.0
MOVL C00144 V=8.0
MOVL C00145 V=8.0
MOVL C00146 V=8.0
MOVL C00147 V=8.0
MOVL C00148 V=8.0
MOVL C00149 V=8.0
MOVL C00150 V=8.0
MOVL C00151 V=8.0
MOVL C00152 V=8.0
MOVL C00153 V=8.0
MOVL C00154 V=8.0
MOVL C00155 V=8.0
MOVL C00156 V=8.0
MOVL C00157 V=8.0
MOVL C00158 V=8.0
MOVL C00159 V=8.0
MOVL C00160 V=8.0
MOVL C00161 V=8.0
MOVL C00162 V=8.0
MOVL C00163 V=8.0
MOVL C00164 V=8.0
MOVL C00165 V=8.0
MOVL C00166 V=8.0
MOVL C00167 V=8.0
MOVL C00168 V=8.0
MOVL C00169 V=8.0
MOVL C00170 V=8.0
MOVL C00171 V=8.0
MOVL C00172 V=8.0
MOVL C00173 V=8.0
MOVL C00174 V=8.0
MOVL C00175 V=8.0
MOVL C00176 V=8.0
MOVL C00177 V=8.0
MOVL C00178 V=8.0
MOVL C00179 V=8.0
MOVL C00180 V=8.0
MOVL C00181 V=8.0
MOVL C00182 V=8.0
MOVL C00183 V=8.0
MOVL C00184 V=8.0
MOVL C00185 V=8.0
MOVL C00186 V=8.0
MOVL C00187 V=8.0
MOVL C00188 V=8.0
MOVJ C00189 VJ=0.78
MOVJ C00190 VJ=0.78
MOVJ C00191 VJ=0.78
MOVL C00192 V=8.0
MOVL C00193 V=8.0
MOVL C00194 V=8.0
MOVL C00195 V=8.0
MOVL C00196 V=8.0
MOVL C00197 V=8.0
MOVL C00198 V=8.0
MOVL C00199 V=8.0
MOVL C00200 V=8.0
MOVL C00201 V=8.0
MOVL C00202 V=8.0
MOVL C00203 V=8.0
MOVL C00204 V=8.0
MOVL C00205 V=8.0
MOVL C00206 V=8.0
MOVL C00207 V=8.0
MOVL C00208 V=8.0
MOVL C00209 V=8.0
MOVL C00210 V=8.0
MOVL C00211 V=8.0
MOVL C00212 V=8.0
MOVL C00213 V=8.0
MOVL C00214 V=8.0
MOVL C00215 V=8.0
MOVL C00216 V=8.0
MOVL C00217 V=8.0
MOVL C00218 V=8.0
MOVL C00219 V=8.0
MOVL C00220 V=8.0
MOVL C00221 V=8.0
MOVL C00222 V=8.0
MOVL C00223 V=8.0
MOVL C00224 V=8.0
MOVL C00225 V=8.0
MOVL C00226 V=8.0
MOVL C00227 V=8.0
MOVL C00228 V=8.0
MOVL C00229 V=8.0
MOVL C00230 V=8.0
MOVL C00231 V=8.0
MOVL C00232 V=8.0
MOVL C00233 V=8.0
MOVL C00234 V=8.0
MOVL C00235 V=8.0
MOVL C00236 V=8.0
MOVL C00237 V=8.0
MOVL C00238 V=8.0
MOVL C00239 V=8.0
MOVL C00240 V=8.0
MOVL C00241 V=8.0
MOVL C00242 V=8.0
MOVL C00243 V=8.0
MOVL C00244 V=8.0
MOVL C00245 V=8.0
MOVL C00246 V=8.0
MOVL C00247 V=8.0
MOVL C00248 V=8.0
MOVL C00249 V=8.0
MOVL C00250 V=8.0
MOVL C00251 V=8.0
MOVJ C00252 VJ=0.78
MOVJ C00253 VJ=0.78
MOVJ C00254 VJ=0.78
MOVL C00255 V=8.0
MOVL C00256 V=8.0
MOVL C00257 V=8.0
MOVL C00258 V=8.0
MOVL C00259 V=8.0
MOVL C00260 V=8.0
MOVL C00261 V=8.0
MOVL C00262 V=8.0
MOVL C00263 V=8.0
MOVL C00264 V=8.0
MOVL C00265 V=8.0
MOVL C00266 V=8.0
MOVL C00267 V=8.0
MOVL C00268 V=8.0
MOVL C00269 V=8.0
MOVL C00270 V=8.0
MOVL C00271 V=8.0
MOVL C00272 V=8.0
MOVL C00273 V=8.0
MOVL C00274 V=8.0
MOVL C00275 V=8.0
MOVL C00276 V=8.0
MOVL C00277 V=8.0
MOVL C00278 V=8.0
MOVL C00279 V=8.0
MOVL C00280 V=8.0
MOVL C00281 V=8.0
MOVL C00282 V=8.0
MOVL C00283 V=8.0
MOVL C00284 V=8.0
MOVL C00285 V=8.0
MOVL C00286 V=8.0
MOVL C00287 V=8.0
MOVL C00288 V=8.0
MOVL C00289 V=8.0
MOVL C00290 V=8.0
MOVL C00291 V=8.0
MOVL C00292 V=8.0
MOVL C00293 V=8.0
MOVL C00294 V=8.0
MOVL C00295 V=8.0
MOVL C00296 V=8.0
MOVL C00297 V=8.0
MOVL C00298 V=8.0
MOVL C00299 V=8.0
MOVL C00300 V=8.0
MOVL C00301 V=8.0
MOVL C00302 V=8.0
MOVL C00303 V=8.0
MOVL C00304 V=8.0
MOVL C00305 V=8.0
MOVL C00306 V=8.0
MOVL C00307 V=8.0
MOVL C00308 V=8.0
MOVL C00309 V=8.0
MOVL C00310 V=8.0
MOVL C00311 V=8.0
MOVL C00312 V=8.0
MOVL C00313 V=8.0
MOVL C00314 V=8.0
MOVJ C00315 VJ=0.78
MOVJ C00316 VJ=0.78
MOVJ C00317 VJ=0.78
MOVL C00318 V=8.0
MOVL C00319 V=8.0
MOVL C00320 V=8.0
MOVL C00321 V=8.0
MOVL C00322 V=8.0
MOVL C00323 V=8.0
MOVL C00324 V=8.0
MOVL C00325 V=8.0
MOVL C00326 V=8.0
MOVL C00327 V=8.0
MOVL C00328 V=8.0
MOVL C00329 V=8.0
MOVL C00330 V=8.0
MOVL C00331 V=8.0
MOVL C00332 V=8.0
MOVL C00333 V=8.0
MOVL C00334 V=8.0
MOVL C00335 V=8.0
MOVL C00336 V=8.0
MOVL C00337 V=8.0
MOVL C00338 V=8.0
MOVL C00339 V=8.0
MOVL C00340 V=8.0
MOVL C00341 V=8.0
MOVL C00342 V=8.0
MOVL C00343 V=8.0
MOVL C00344 V=8.0
MOVL C00345 V=8.0
MOVL C00346 V=8.0
MOVL C00347 V=8.0
MOVL C00348 V=8.0
MOVL C00349 V=8.0
MOVL C00350 V=8.0
MOVL C00351 V=8.0
MOVL C00352 V=8.0
MOVL C00353 V=8.0
MOVL C00354 V=8.0
MOVL C00355 V=8.0
MOVL C00356 V=8.0
MOVL C00357 V=8.0
MOVL C00358 V=8.0
MOVL C00359 V=8.0
MOVL C00360 V=8.0
MOVL C00361 V=8.0
MOVL C00362 V=8.0
MOVL C00363 V=8.0
MOVL C00364 V=8.0
MOVL C00365 V=8.0
MOVL C00366 V=8.0
MOVL C00367 V=8.0
MOVL C00368 V=8.0
MOVL C00369 V=8.0
MOVL C00370 V=8.0
MOVL C00371 V=8.0
MOVL C00372 V=8.0
MOVL C00373 V=8.0
MOVL C00374 V=8.0
MOVL C00375 V=8.0
MOVL C00376 V=8.0
MOVL C00377 V=8.0
MOVJ C00378 VJ=0.78
MOVJ C00379 VJ=0.78
MOVJ C00380 VJ=0.78
MOVL C00381 V=8.0
MOVL C00382 V=8.0
MOVL C00383 V=8.0
MOVL C00384 V=8.0
MOVL C00385 V=8.0
MOVL C00386 V=8.0
MOVL C00387 V=8.0
MOVL C00388 V=8.0
MOVL C00389 V=8.0
MOVL C00390 V=8.0
MOVL C00391 V=8.0
MOVL C00392 V=8.0
MOVL C00393 V=8.0
MOVL C00394 V=8.0
MOVL C00395 V=8.0
MOVL C00396 V=8.0
MOVL C00397 V=8.0
MOVL C00398 V=8.0
MOVL C00399 V=8.0
MOVL C00400 V=8.0
MOVL C00401 V=8.0
MOVL C00402 V=8.0
MOVL C00403 V=8.0
MOVL C00404 V=8.0
MOVL C00405 V=8.0
MOVL C00406 V=8.0
MOVL C00407 V=8.0
MOVL C00408 V=8.0
MOVL C00409 V=8.0
MOVL C00410 V=8.0
MOVL C00411 V=8.0
MOVL C00412 V=8.0
MOVL C00413 V=8.0
MOVL C00414 V=8.0
MOVL C00415 V=8.0
MOVL C00416 V=8.0
MOVL C00417 V=8.0
MOVL C00418 V=8.0
MOVL C00419 V=8.0
MOVL C00420 V=8.0
MOVL C00421 V=8.0
MOVL C00422 V=8.0
MOVL C00423 V=8.0
MOVL C00424 V=8.0
MOVL C00425 V=8.0
MOVL C00426 V=8.0
MOVL C00427 V=8.0
MOVL C00428 V=8.0
MOVL C00429 V=8.0
MOVL C00430 V=8.0
MOVL C00431 V=8.0
MOVL C00432 V=8.0
MOVL C00433 V=8.0
MOVL C00434 V=8.0
MOVL C00435 V=8.0
MOVL C00436 V=8.0
MOVL C00437 V=8.0
MOVL C00438 V=8.0
MOVL C00439 V=8.0
MOVL C00440 V=8.0
MOVJ C00441 VJ=0.78
MOVJ C00442 VJ=0.78
MOVJ C00443 VJ=0.78
MOVL C00444 V=8.0
MOVL C00445 V=8.0
MOVL C00446 V=8.0
MOVL C00447 V=8.0
MOVL C00448 V=8.0
MOVL C00449 V=8.0
MOVL C00450 V=8.0
MOVL C00451 V=8.0
MOVL C00452 V=8.0
MOVL C00453 V=8.0
MOVL C00454 V=8.0
MOVL C00455 V=8.0
MOVL C00456 V=8.0
MOVL C00457 V=8.0
MOVL C00458 V=8.0
MOVL C00459 V=8.0
MOVL C00460 V=8.0
MOVL C00461 V=8.0
MOVL C00462 V=8.0
MOVL C00463 V=8.0
MOVL C00464 V=8.0
MOVL C00465 V=8.0
MOVL C00466 V=8.0
MOVL C00467 V=8.0
MOVL C00468 V=8.0
MOVL C00469 V=8.0
MOVL C00470 V=8.0
MOVL C00471 V=8.0
MOVL C00472 V=8.0
MOVL C00473 V=8.0
MOVL C00474 V=8.0
MOVL C00475 V=8.0
MOVL C00476 V=8.0
MOVL C00477 V=8.0
MOVL C00478 V=8.0
MOVL C00479 V=8.0
MOVL C00480 V=8.0
MOVL C00481 V=8.0
MOVL C00482 V=8.0
MOVL C00483 V=8.0
MOVL C00484 V=8.0
MOVL C00485 V=8.0
MOVL C00486 V=8.0
MOVL C00487 V=8.0
MOVL C00488 V=8.0
MOVL C00489 V=8.0
MOVL C00490 V=8.0
MOVL C00491 V=8.0
MOVL C00492 V=8.0
MOVL C00493 V=8.0
MOVL C00494 V=8.0
MOVL C00495 V=8.0
MOVL C00496 V=8.0
MOVL C00497 V=8.0
MOVL C00498 V=8.0
MOVL C00499 V=8.0
MOVL C00500 V=8.0
MOVL C00501 V=8.0
MOVL C00502 V=8.0
MOVL C00503 V=8.0
MOVJ C00504 VJ=0.78
MOVJ C00505 VJ=0.78
MOVJ C00506 VJ=0.78
MOVL C00507 V=8.0
MOVL C00508 V=8.0
MOVL C00509 V=8.0
MOVL C00510 V=8.0
MOVL C00511 V=8.0
MOVL C00512 V=8.0
MOVL C00513 V=8.0
MOVL C00514 V=8.0
MOVL C00515 V=8.0
MOVL C00516 V=8.0
MOVL C00517 V=8.0
MOVL C00518 V=8.0
MOVL C00519 V=8.0
MOVL C00520 V=8.0
MOVL C00521 V=8.0
MOVL C00522 V=8.0
MOVL C00523 V=8.0
MOVL C00524 V=8.0
MOVL C00525 V=8.0
MOVL C00526 V=8.0
MOVL C00527 V=8.0
MOVL C00528 V=8.0
MOVL C00529 V=8.0
MOVL C00530 V=8.0
MOVL C00531 V=8.0
MOVL C00532 V=8.0
MOVL C00533 V=8.0
MOVL C00534 V=8.0
MOVL C00535 V=8.0
MOVL C00536 V=8.0
MOVL C00537 V=8.0
MOVL C00538 V=8.0
MOVL C00539 V=8.0
MOVL C00540 V=8.0
MOVL C00541 V=8.0
MOVL C00542 V=8.0
MOVL C00543 V=8.0
MOVL C00544 V=8.0
MOVL C00545 V=8.0
MOVL C00546 V=8.0
MOVL C00547 V=8.0
MOVL C00548 V=8.0
MOVL C00549 V=8.0
MOVL C00550 V=8.0
MOVL C00551 V=8.0
MOVL C00552 V=8.0
MOVL C00553 V=8.0
MOVL C00554 V=8.0
MOVL C00555 V=8.0
MOVL C00556 V=8.0
MOVL C00557 V=8.0
MOVL C00558 V=8.0
MOVL C00559 V=8.0
MOVL C00560 V=8.0
MOVL C00561 V=8.0
MOVL C00562 V=8.0
MOVL C00563 V=8.0
MOVL C00564 V=8.0
MOVL C00565 V=8.0
MOVL C00566 V=8.0
MOVJ C00567 VJ=0.78
MOVJ C00568 VJ=0.78
MOVJ C00569 VJ=0.78
MOVL C00570 V=8.0
MOVL C00571 V=8.0
MOVL C00572 V=8.0
MOVL C00573 V=8.0
MOVL C00574 V=8.0
MOVL C00575 V=8.0
MOVL C00576 V=8.0
MOVL C00577 V=8.0
MOVL C00578 V=8.0
MOVL C00579 V=8.0
MOVL C00580 V=8.0
MOVL C00581 V=8.0
MOVL C00582 V=8.0
MOVL C00583 V=8.0
MOVL C00584 V=8.0
MOVL C00585 V=8.0
MOVL C00586 V=8.0
MOVL C00587 V=8.0
MOVL C00588 V=8.0
MOVL C00589 V=8.0
MOVL C00590 V=8.0
MOVL C00591 V=8.0
MOVL C00592 V=8.0
MOVL C00593 V=8.0
MOVL C00594 V=8.0
MOVL C00595 V=8.0
MOVL C00596 V=8.0
MOVL C00597 V=8.0
MOVL C00598 V=8.0
MOVL C00599 V=8.0
MOVL C00600 V=8.0
MOVL C00601 V=8.0
MOVL C00602 V=8.0
MOVL C00603 V=8.0
MOVL C00604 V=8.0
MOVL C00605 V=8.0
MOVL C00606 V=8.0
MOVL C00607 V=8.0
MOVL C00608 V=8.0
MOVL C00609 V=8.0
MOVL C00610 V=8.0
MOVL C00611 V=8.0
MOVL C00612 V=8.0
MOVL C00613 V=8.0
MOVL C00614 V=8.0
MOVL C00615 V=8.0
MOVL C00616 V=8.0
MOVL C00617 V=8.0
MOVL C00618 V=8.0
MOVL C00619 V=8.0
MOVL C00620 V=8.0
MOVL C00621 V=8.0
MOVL C00622 V=8.0
MOVL C00623 V=8.0
MOVL C00624 V=8.0
MOVL C00625 V=8.0
MOVL C00626 V=8.0
MOVL C00627 V=8.0
MOVL C00628 V=8.0
MOVL C00629 V=8.0
MOVJ C00630 VJ=0.78
MOVJ C00631 VJ=0.78
MOVJ C00632 VJ=0.78
MOVL C00633 V=8.0
MOVL C00634 V=8.0
MOVL C00635 V=8.0
MOVL C00636 V=8.0
MOVL C00637 V=8.0
MOVL C00638 V=8.0
MOVL C00639 V=8.0
MOVL C00640 V=8.0
MOVL C00641 V=8.0
MOVL C00642 V=8.0
MOVL C00643 V=8.0
MOVL C00644 V=8.0
MOVL C00645 V=8.0
MOVL C00646 V=8.0
MOVL C00647 V=8.0
MOVL C00648 V=8.0
MOVL C00649 V=8.0
MOVL C00650 V=8.0
MOVL C00651 V=8.0
MOVL C00652 V=8.0
MOVL C00653 V=8.0
MOVL C00654 V=8.0
MOVL C00655 V=8.0
MOVL C00656 V=8.0
MOVL C00657 V=8.0
MOVL C00658 V=8.0
MOVL C00659 V=8.0
MOVL C00660 V=8.0
MOVL C00661 V=8.0
MOVL C00662 V=8.0
MOVL C00663 V=8.0
MOVL C00664 V=8.0
MOVL C00665 V=8.0
MOVL C00666 V=8.0
MOVL C00667 V=8.0
MOVL C00668 V=8.0
MOVL C00669 V=8.0
MOVL C00670 V=8.0
MOVL C00671 V=8.0
MOVL C00672 V=8.0
MOVL C00673 V=8.0
MOVL C00674 V=8.0
MOVL C00675 V=8.0
MOVL C00676 V=8.0
MOVL C00677 V=8.0
MOVL C00678 V=8.0
MOVL C00679 V=8.0
MOVL C00680 V=8.0
MOVL C00681 V=8.0
MOVL C00682 V=8.0
MOVL C00683 V=8.0
MOVL C00684 V=8.0
MOVL C00685 V=8.0
MOVL C00686 V=8.0
MOVL C00687 V=8.0
MOVL C00688 V=8.0
MOVL C00689 V=8.0
MOVL C00690 V=8.0
MOVL C00691 V=8.0
MOVL C00692 V=8.0
MOVJ C00693 VJ=0.78
MOVJ C00694 VJ=0.78
MOVJ C00695 VJ=0.78
MOVL C00696 V=8.0
MOVL C00697 V=8.0
MOVL C00698 V=8.0
MOVL C00699 V=8.0
MOVL C00700 V=8.0
MOVL C00701 V=8.0
MOVL C00702 V=8.0
MOVL C00703 V=8.0
MOVL C00704 V=8.0
MOVL C00705 V=8.0
MOVL C00706 V=8.0
MOVL C00707 V=8.0
MOVL C00708 V=8.0
MOVL C00709 V=8.0
MOVL C00710 V=8.0
MOVL C00711 V=8.0
MOVL C00712 V=8.0
MOVL C00713 V=8.0
MOVL C00714 V=8.0
MOVL C00715 V=8.0
MOVL C00716 V=8.0
MOVL C00717 V=8.0
MOVL C00718 V=8.0
MOVL C00719 V=8.0
MOVL C00720 V=8.0
MOVL C00721 V=8.0
MOVL C00722 V=8.0
MOVL C00723 V=8.0
MOVL C00724 V=8.0
MOVL C00725 V=8.0
MOVL C00726 V=8.0
MOVL C00727 V=8.0
MOVL C00728 V=8.0
MOVL C00729 V=8.0
MOVL C00730 V=8.0
MOVL C00731 V=8.0
MOVL C00732 V=8.0
MOVL C00733 V=8.0
MOVL C00734 V=8.0
MOVL C00735 V=8.0
MOVL C00736 V=8.0
MOVL C00737 V=8.0
MOVL C00738 V=8.0
MOVL C00739 V=8.0
MOVL C00740 V=8.0
MOVL C00741 V=8.0
MOVL C00742 V=8.0
MOVL C00743 V=8.0
MOVL C00744 V=8.0
MOVL C00745 V=8.0
MOVL C00746 V=8.0
MOVL C00747 V=8.0
MOVL C00748 V=8.0
MOVL C00749 V=8.0
MOVL C00750 V=8.0
MOVL C00751 V=8.0
MOVL C00752 V=8.0
MOVL C00753 V=8.0
MOVL C00754 V=8.0
MOVL C00755 V=8.0
MOVJ C00756 VJ=0.78
MOVJ C00757 VJ=0.78
MOVJ C00758 VJ=0.78
MOVL C00759 V=8.0
MOVL C00760 V=8.0
MOVL C00761 V=8.0
MOVL C00762 V=8.0
MOVL C00763 V=8.0
MOVL C00764 V=8.0
MOVL C00765 V=8.0
MOVL C00766 V=8.0
MOVL C00767 V=8.0
MOVL C00768 V=8.0
MOVL C00769 V=8.0
MOVL C00770 V=8.0
MOVL C00771 V=8.0
MOVL C00772 V=8.0
MOVL C00773 V=8.0
MOVL C00774 V=8.0
MOVL C00775 V=8.0
MOVL C00776 V=8.0
MOVL C00777 V=8.0
MOVL C00778 V=8.0
MOVL C00779 V=8.0
MOVL C00780 V=8.0
MOVL C00781 V=8.0
MOVL C00782 V=8.0
MOVL C00783 V=8.0
MOVL C00784 V=8.0
MOVL C00785 V=8.0
MOVL C00786 V=8.0
MOVL C00787 V=8.0
MOVL C00788 V=8.0
MOVL C00789 V=8.0
MOVL C00790 V=8.0
MOVL C00791 V=8.0
MOVL C00792 V=8.0
MOVL C00793 V=8.0
MOVL C00794 V=8.0
MOVL C00795 V=8.0
MOVL C00796 V=8.0
MOVL C00797 V=8.0
MOVL C00798 V=8.0
MOVL C00799 V=8.0
MOVL C00800 V=8.0
MOVL C00801 V=8.0
MOVL C00802 V=8.0
MOVL C00803 V=8.0
MOVL C00804 V=8.0
MOVL C00805 V=8.0
MOVL C00806 V=8.0
MOVL C00807 V=8.0
MOVL C00808 V=8.0
MOVL C00809 V=8.0
MOVL C00810 V=8.0
MOVL C00811 V=8.0
MOVL C00812 V=8.0
MOVL C00813 V=8.0
MOVL C00814 V=8.0
MOVL C00815 V=8.0
MOVL C00816 V=8.0
MOVL C00817 V=8.0
MOVL C00818 V=8.0
MOVJ C00819 VJ=0.78
MOVJ C00820 VJ=0.78
MOVJ C00821 VJ=0.78
MOVL C00822 V=8.0
MOVL C00823 V=8.0
MOVL C00824 V=8.0
MOVL C00825 V=8.0
MOVL C00826 V=8.0
MOVL C00827 V=8.0
MOVL C00828 V=8.0
MOVL C00829 V=8.0
MOVL C00830 V=8.0
MOVL C00831 V=8.0
MOVL C00832 V=8.0
MOVL C00833 V=8.0
MOVL C00834 V=8.0
MOVL C00835 V=8.0
MOVL C00836 V=8.0
MOVL C00837 V=8.0
MOVL C00838 V=8.0
MOVL C00839 V=8.0
MOVL C00840 V=8.0
MOVL C00841 V=8.0
MOVL C00842 V=8.0
MOVL C00843 V=8.0
MOVL C00844 V=8.0
MOVL C00845 V=8.0
MOVL C00846 V=8.0
MOVL C00847 V=8.0
MOVL C00848 V=8.0
MOVL C00849 V=8.0
MOVL C00850 V=8.0
MOVL C00851 V=8.0
MOVL C00852 V=8.0
MOVL C00853 V=8.0
MOVL C00854 V=8.0
MOVL C00855 V=8.0
MOVL C00856 V=8.0
MOVL C00857 V=8.0
MOVL C00858 V=8.0
MOVL C00859 V=8.0
MOVL C00860 V=8.0
MOVL C00861 V=8.0
MOVL C00862 V=8.0
MOVL C00863 V=8.0
MOVL C00864 V=8.0
MOVL C00865 V=8.0
MOVL C00866 V=8.0
MOVL C00867 V=8.0
MOVL C00868 V=8.0
MOVL C00869 V=8.0
MOVL C00870 V=8.0
MOVL C00871 V=8.0
MOVL C00872 V=8.0
MOVL C00873 V=8.0
MOVL C00874 V=8.0
MOVL C00875 V=8.0
MOVL C00876 V=8.0
MOVL C00877 V=8.0
MOVL C00878 V=8.0
MOVL C00879 V=8.0
MOVL C00880 V=8.0
MOVL C00881 V=8.0
MOVJ C00882 VJ=0.78
MOVJ C00883 VJ=0.78
MOVJ C00884 VJ=0.78
MOVL C00885 V=8.0
MOVL C00886 V=8.0
MOVL C00887 V=8.0
MOVL C00888 V=8.0
MOVL C00889 V=8.0
MOVL C00890 V=8.0
MOVL C00891 V=8.0
MOVL C00892 V=8.0
MOVL C00893 V=8.0
MOVL C00894 V=8.0
MOVL C00895 V=8.0
MOVL C00896 V=8.0
MOVL C00897 V=8.0
MOVL C00898 V=8.0
MOVL C00899 V=8.0
MOVL C00900 V=8.0
MOVL C00901 V=8.0
MOVL C00902 V=8.0
MOVL C00903 V=8.0
MOVL C00904 V=8.0
MOVL C00905 V=8.0
MOVL C00906 V=8.0
MOVL C00907 V=8.0
MOVL C00908 V=8.0
MOVL C00909 V=8.0
MOVL C00910 V=8.0
MOVL C00911 V=8.0
MOVL C00912 V=8.0
MOVL C00913 V=8.0
MOVL C00914 V=8.0
MOVL C00915 V=8.0
MOVL C00916 V=8.0
MOVL C00917 V=8.0
MOVL C00918 V=8.0
MOVL C00919 V=8.0
MOVL C00920 V=8.0
MOVL C00921 V=8.0
MOVL C00922 V=8.0
MOVL C00923 V=8.0
MOVL C00924 V=8.0
MOVL C00925 V=8.0
MOVL C00926 V=8.0
MOVL C00927 V=8.0
MOVL C00928 V=8.0
MOVL C00929 V=8.0
MOVL C00930 V=8.0
MOVL C00931 V=8.0
MOVL C00932 V=8.0
MOVL C00933 V=8.0
MOVL C00934 V=8.0
MOVL C00935 V=8.0
MOVL C00936 V=8.0
MOVL C00937 V=8.0
MOVL C00938 V=8.0
MOVL C00939 V=8.0
MOVL C00940 V=8.0
MOVL C00941 V=8.0
MOVL C00942 V=8.0
MOVL C00943 V=8.0
MOVL C00944 V=8.0
MOVJ C00945 VJ=0.78
MOVJ C00946 VJ=0.78
MOVJ C00947 VJ=0.78
MOVL C00948 V=8.0
MOVL C00949 V=8.0
MOVL C00950 V=8.0
MOVL C00951 V=8.0
MOVL C00952 V=8.0
MOVL C00953 V=8.0
MOVL C00954 V=8.0
MOVL C00955 V=8.0
MOVL C00956 V=8.0
MOVL C00957 V=8.0
MOVL C00958 V=8.0
MOVL C00959 V=8.0
MOVL C00960 V=8.0
MOVL C00961 V=8.0
MOVL C00962 V=8.0
MOVL C00963 V=8.0
MOVL C00964 V=8.0
MOVL C00965 V=8.0
MOVL C00966 V=8.0
MOVL C00967 V=8.0
MOVL C00968 V=8.0
MOVL C00969 V=8.0
MOVL C00970 V=8.0
MOVL C00971 V=8.0
MOVL C00972 V=8.0
MOVL C00973 V=8.0
MOVL C00974 V=8.0
MOVL C00975 V=8.0
MOVL C00976 V=8.0
MOVL C00977 V=8.0
MOVL C00978 V=8.0
MOVL C00979 V=8.0
MOVL C00980 V=8.0
MOVL C00981 V=8.0
MOVL C00982 V=8.0
MOVL C00983 V=8.0
MOVL C00984 V=8.0
MOVL C00985 V=8.0
MOVL C00986 V=8.0
MOVL C00987 V=8.0
MOVL C00988 V=8.0
MOVL C00989 V=8.0
MOVL C00990 V=8.0
MOVL C00991 V=8.0
MOVL C00992 V=8.0
MOVL C00993 V=8.0
MOVL C00994 V=8.0
MOVL C00995 V=8.0
MOVL C00996 V=8.0
MOVL C00997 V=8.0
MOVL C00998 V=8.0
MOVL C00999 V=8.0
MOVL C01000 V=8.0
MOVL C01001 V=8.0
MOVL C01002 V=8.0
MOVL C01003 V=8.0
MOVL C01004 V=8.0
MOVL C01005 V=8.0
MOVL C01006 V=8.0
MOVL C01007 V=8.0
MOVJ C01008 VJ=0.78
MOVJ C01009 VJ=0.78
MOVJ C01010 VJ=0.78
MOVL C01011 V=8.0
MOVL C01012 V=8.0
MOVL C01013 V=8.0
MOVL C01014 V=8.0
MOVL C01015 V=8.0
MOVL C01016 V=8.0
MOVL C01017 V=8.0
MOVL C01018 V=8.0
MOVL C01019 V=8.0
MOVL C01020 V=8.0
MOVL C01021 V=8.0
MOVL C01022 V=8.0
MOVL C01023 V=8.0
MOVL C01024 V=8.0
MOVL C01025 V=8.0
MOVL C01026 V=8.0
MOVL C01027 V=8.0
MOVL C01028 V=8.0
MOVL C01029 V=8.0
MOVL C01030 V=8.0
MOVL C01031 V=8.0
MOVL C01032 V=8.0
MOVL C01033 V=8.0
MOVL C01034 V=8.0
MOVL C01035 V=8.0
MOVL C01036 V=8.0
MOVL C01037 V=8.0
MOVL C01038 V=8.0
MOVL C01039 V=8.0
MOVL C01040 V=8.0
MOVL C01041 V=8.0
MOVL C01042 V=8.0
MOVL C01043 V=8.0
MOVL C01044 V=8.0
MOVL C01045 V=8.0
MOVL C01046 V=8.0
MOVL C01047 V=8.0
MOVL C01048 V=8.0
MOVL C01049 V=8.0
MOVL C01050 V=8.0
MOVL C01051 V=8.0
MOVL C01052 V=8.0
MOVL C01053 V=8.0
MOVL C01054 V=8.0
MOVL C01055 V=8.0
MOVL C01056 V=8.0
MOVL C01057 V=8.0
MOVL C01058 V=8.0
MOVL C01059 V=8.0
MOVL C01060 V=8.0
MOVL C01061 V=8.0
MOVL C01062 V=8.0
MOVL C01063 V=8.0
MOVL C01064 V=8.0
MOVL C01065 V=8.0
MOVL C01066 V=8.0
MOVL C01067 V=8.0
MOVL C01068 V=8.0
MOVL C01069 V=8.0
MOVL C01070 V=8.0
MOVJ C01071 VJ=0.78
MOVJ C01072 VJ=0.78
MOVJ C01073 VJ=0.78
MOVL C01074 V=8.0
MOVL C01075 V=8.0
MOVL C01076 V=8.0
MOVL C01077 V=8.0
MOVL C01078 V=8.0
MOVL C01079 V=8.0
MOVL C01080 V=8.0
MOVL C01081 V=8.0
MOVL C01082 V=8.0
MOVL C01083 V=8.0
MOVL C01084 V=8.0
MOVL C01085 V=8.0
MOVL C01086 V=8.0
MOVL C01087 V=8.0
MOVL C01088 V=8.0
MOVL C01089 V=8.0
MOVL C01090 V=8.0
MOVL C01091 V=8.0
MOVL C01092 V=8.0
MOVL C01093 V=8.0
MOVL C01094 V=8.0
MOVL C01095 V=8.0
MOVL C01096 V=8.0
MOVL C01097 V=8.0
MOVL C01098 V=8.0
MOVL C01099 V=8.0
MOVL C01100 V=8.0
MOVL C01101 V=8.0
MOVL C01102 V=8.0
MOVL C01103 V=8.0
MOVL C01104 V=8.0
MOVL C01105 V=8.0
MOVL C01106 V=8.0
MOVL C01107 V=8.0
MOVL C01108 V=8.0
MOVL C01109 V=8.0
MOVL C01110 V=8.0
MOVL C01111 V=8.0
MOVL C01112 V=8.0
MOVL C01113 V=8.0
MOVL C01114 V=8.0
MOVL C01115 V=8.0
MOVL C01116 V=8.0
MOVL C01117 V=8.0
MOVL C01118 V=8.0
MOVL C01119 V=8.0
MOVL C01120 V=8.0
MOVL C01121 V=8.0
MOVL C01122 V=8.0
MOVL C01123 V=8.0
MOVL C01124 V=8.0
MOVL C01125 V=8.0
MOVL C01126 V=8.0
MOVL C01127 V=8.0
MOVL C01128 V=8.0
MOVL C01129 V=8.0
MOVL C01130 V=8.0
MOVL C01131 V=8.0
MOVL C01132 V=8.0
MOVL C01133 V=8.0
MOVJ C01134 VJ=0.78
MOVJ C01135 VJ=0.78
MOVJ C01136 VJ=0.78
MOVL C01137 V=8.0
MOVL C01138 V=8.0
MOVL C01139 V=8.0
MOVL C01140 V=8.0
MOVL C01141 V=8.0
MOVL C01142 V=8.0
MOVL C01143 V=8.0
MOVL C01144 V=8.0
MOVL C01145 V=8.0
MOVL C01146 V=8.0
MOVL C01147 V=8.0
MOVL C01148 V=8.0
MOVL C01149 V=8.0
MOVL C01150 V=8.0
MOVL C01151 V=8.0
MOVL C01152 V=8.0
MOVL C01153 V=8.0
MOVL C01154 V=8.0
MOVL C01155 V=8.0
MOVL C01156 V=8.0
MOVL C01157 V=8.0
MOVL C01158 V=8.0
MOVL C01159 V=8.0
MOVL C01160 V=8.0
MOVL C01161 V=8.0
MOVL C01162 V=8.0
MOVL C01163 V=8.0
MOVL C01164 V=8.0
MOVL C01165 V=8.0
MOVL C01166 V=8.0
MOVL C01167 V=8.0
MOVL C01168 V=8.0
MOVL C01169 V=8.0
MOVL C01170 V=8.0
MOVL C01171 V=8.0
MOVL C01172 V=8.0
MOVL C01173 V=8.0
MOVL C01174 V=8.0
MOVL C01175 V=8.0
MOVL C01176 V=8.0
MOVL C01177 V=8.0
MOVL C01178 V=8.0
MOVL C01179 V=8.0
MOVL C01180 V=8.0
MOVL C01181 V=8.0
MOVL C01182 V=8.0
MOVL C01183 V=8.0
MOVL C01184 V=8.0
MOVL C01185 V=8.0
MOVL C01186 V=8.0
MOVL C01187 V=8.0
MOVL C01188 V=8.0
MOVL C01189 V=8.0
MOVL C01190 V=8.0
MOVL C01191 V=8.0
MOVL C01192 V=8.0
MOVL C01193 V=8.0
MOVL C01194 V=8.0
MOVL C01195 V=8.0
MOVL C01196 V=8.0
MOVJ C01197 VJ=0.78
MOVJ C01198 VJ=0.78
MOVJ C01199 VJ=0.78
MOVL C01200 V=8.0
MOVL C01201 V=8.0
MOVL C01202 V=8.0
MOVL C01203 V=8.0
MOVL C01204 V=8.0
MOVL C01205 V=8.0
MOVL C01206 V=8.0
MOVL C01207 V=8.0
MOVL C01208 V=8.0
MOVL C01209 V=8.0
MOVL C01210 V=8.0
MOVL C01211 V=8.0
MOVL C01212 V=8.0
MOVL C01213 V=8.0
MOVL C01214 V=8.0
MOVL C01215 V=8.0
MOVL C01216 V=8.0
MOVL C01217 V=8.0
MOVL C01218 V=8.0
MOVL C01219 V=8.0
MOVL C01220 V=8.0
MOVL C01221 V=8.0
MOVL C01222 V=8.0
MOVL C01223 V=8.0
MOVL C01224 V=8.0
MOVL C01225 V=8.0
MOVL C01226 V=8.0
MOVL C01227 V=8.0
MOVL C01228 V=8.0
MOVL C01229 V=8.0
MOVL C01230 V=8.0
MOVL C01231 V=8.0
MOVL C01232 V=8.0
MOVL C01233 V=8.0
MOVL C01234 V=8.0
MOVL C01235 V=8.0
MOVL C01236 V=8.0
MOVL C01237 V=8.0
MOVL C01238 V=8.0
MOVL C01239 V=8.0
MOVL C01240 V=8.0
MOVL C01241 V=8.0
MOVL C01242 V=8.0
MOVL C01243 V=8.0
MOVL C01244 V=8.0
MOVL C01245 V=8.0
MOVL C01246 V=8.0
MOVL C01247 V=8.0
MOVL C01248 V=8.0
MOVL C01249 V=8.0
MOVL C01250 V=8.0
MOVL C01251 V=8.0
MOVL C01252 V=8.0
MOVL C01253 V=8.0
MOVL C01254 V=8.0
MOVL C01255 V=8.0
MOVL C01256 V=8.0
MOVL C01257 V=8.0
MOVL C01258 V=8.0
MOVL C01259 V=8.0
MOVJ C01260 VJ=0.78
MOVJ C01261 VJ=0.78
MOVJ C01262 VJ=0.78
MOVL C01263 V=8.0
MOVL C01264 V=8.0
MOVL C01265 V=8.0
MOVL C01266 V=8.0
MOVL C01267 V=8.0
MOVL C01268 V=8.0
MOVL C01269 V=8.0
MOVL C01270 V=8.0
MOVL C01271 V=8.0
MOVL C01272 V=8.0
MOVL C01273 V=8.0
MOVL C01274 V=8.0
MOVL C01275 V=8.0
MOVL C01276 V=8.0
MOVL C01277 V=8.0
MOVL C01278 V=8.0
MOVL C01279 V=8.0
MOVL C01280 V=8.0
MOVL C01281 V=8.0
MOVL C01282 V=8.0
MOVL C01283 V=8.0
MOVL C01284 V=8.0
MOVL C01285 V=8.0
MOVL C01286 V=8.0
MOVL C01287 V=8.0
MOVL C01288 V=8.0
MOVL C01289 V=8.0
MOVL C01290 V=8.0
MOVL C01291 V=8.0
MOVL C01292 V=8.0
MOVL C01293 V=8.0
MOVL C01294 V=8.0
MOVL C01295 V=8.0
MOVL C01296 V=8.0
MOVL C01297 V=8.0
MOVL C01298 V=8.0
MOVL C01299 V=8.0
MOVL C01300 V=8.0
MOVL C01301 V=8.0
MOVL C01302 V=8.0
MOVL C01303 V=8.0
MOVL C01304 V=8.0
MOVL C01305 V=8.0
MOVL C01306 V=8.0
MOVL C01307 V=8.0
MOVL C01308 V=8.0
MOVL C01309 V=8.0
MOVL C01310 V=8.0
MOVL C01311 V=8.0
MOVL C01312 V=8.0
MOVL C01313 V=8.0
MOVL C01314 V=8.0
MOVL C01315 V=8.0
MOVL C01316 V=8.0
MOVL C01317 V=8.0
MOVL C01318 V=8.0
MOVL C01319 V=8.0
MOVL C01320 V=8.0
MOVL C01321 V=8.0
MOVL C01322 V=8.0
MOVJ C01323 VJ=0.78
MOVJ C01324 VJ=0.78
MOVJ C01325 VJ=0.78
MOVL C01326 V=8.0
MOVL C01327 V=8.0
MOVL C01328 V=8.0
MOVL C01329 V=8.0
MOVL C01330 V=8.0
MOVL C01331 V=8.0
MOVL C01332 V=8.0
MOVL C01333 V=8.0
MOVL C01334 V=8.0
MOVL C01335 V=8.0
MOVL C01336 V=8.0
MOVL C01337 V=8.0
MOVL C01338 V=8.0
MOVL C01339 V=8.0
MOVL C01340 V=8.0
MOVL C01341 V=8.0
MOVL C01342 V=8.0
MOVL C01343 V=8.0
MOVL C01344 V=8.0
MOVL C01345 V=8.0
MOVL C01346 V=8.0
MOVL C01347 V=8.0
MOVL C01348 V=8.0
MOVL C01349 V=8.0
MOVL C01350 V=8.0
MOVL C01351 V=8.0
MOVL C01352 V=8.0
MOVL C01353 V=8.0
MOVL C01354 V=8.0
MOVL C01355 V=8.0
MOVL C01356 V=8.0
MOVL C01357 V=8.0
MOVL C01358 V=8.0
MOVL C01359 V=8.0
MOVL C01360 V=8.0
MOVL C01361 V=8.0
MOVL C01362 V=8.0
MOVL C01363 V=8.0
MOVL C01364 V=8.0
MOVL C01365 V=8.0
MOVL C01366 V=8.0
MOVL C01367 V=8.0
MOVL C01368 V=8.0
MOVL C01369 V=8.0
MOVL C01370 V=8.0
MOVL C01371 V=8.0
MOVL C01372 V=8.0
MOVL C01373 V=8.0
MOVL C01374 V=8.0
MOVL C01375 V=8.0
MOVL C01376 V=8.0
MOVL C01377 V=8.0
MOVL C01378 V=8.0
MOVL C01379 V=8.0
MOVL C01380 V=8.0
MOVL C01381 V=8.0
MOVL C01382 V=8.0
MOVL C01383 V=8.0
MOVL C01384 V=8.0
MOVL C01385 V=8.0
MOVJ C01386 VJ=0.78
MOVJ C01387 VJ=0.78
MOVJ C01388 VJ=0.78
MOVL C01389 V=8.0
MOVL C01390 V=8.0
MOVL C01391 V=8.0
MOVL C01392 V=8.0
MOVL C01393 V=8.0
MOVL C01394 V=8.0
MOVL C01395 V=8.0
MOVL C01396 V=8.0
MOVL C01397 V=8.0
MOVL C01398 V=8.0
MOVL C01399 V=8.0
MOVL C01400 V=8.0
MOVL C01401 V=8.0
MOVL C01402 V=8.0
MOVL C01403 V=8.0
MOVL C01404 V=8.0
MOVL C01405 V=8.0
MOVL C01406 V=8.0
MOVL C01407 V=8.0
MOVL C01408 V=8.0
MOVL C01409 V=8.0
MOVL C01410 V=8.0
MOVL C01411 V=8.0
MOVL C01412 V=8.0
MOVL C01413 V=8.0
MOVL C01414 V=8.0
MOVL C01415 V=8.0
MOVL C01416 V=8.0
MOVL C01417 V=8.0
MOVL C01418 V=8.0
MOVL C01419 V=8.0
MOVL C01420 V=8.0
MOVL C01421 V=8.0
MOVL C01422 V=8.0
MOVL C01423 V=8.0
MOVL C01424 V=8.0
MOVL C01425 V=8.0
MOVL C01426 V=8.0
MOVL C01427 V=8.0
MOVL C01428 V=8.0
MOVL C01429 V=8.0
MOVL C01430 V=8.0
MOVL C01431 V=8.0
MOVL C01432 V=8.0
MOVL C01433 V=8.0
MOVL C01434 V=8.0
MOVL C01435 V=8.0
MOVL C01436 V=8.0
MOVL C01437 V=8.0
MOVL C01438 V=8.0
MOVL C01439 V=8.0
MOVL C01440 V=8.0
MOVL C01441 V=8.0
MOVL C01442 V=8.0
MOVL C01443 V=8.0
MOVL C01444 V=8.0
MOVL C01445 V=8.0
MOVL C01446 V=8.0
MOVL C01447 V=8.0
MOVL C01448 V=8.0
MOVJ C01449 VJ=0.78
MOVJ C01450 VJ=0.78
MOVJ C01451 VJ=0.78
MOVL C01452 V=8.0
MOVL C01453 V=8.0
MOVL C01454 V=8.0
MOVL C01455 V=8.0
MOVL C01456 V=8.0
MOVL C01457 V=8.0
MOVL C01458 V=8.0
MOVL C01459 V=8.0
MOVL C01460 V=8.0
MOVL C01461 V=8.0
MOVL C01462 V=8.0
MOVL C01463 V=8.0
MOVL C01464 V=8.0
MOVL C01465 V=8.0
MOVL C01466 V=8.0
MOVL C01467 V=8.0
MOVL C01468 V=8.0
MOVL C01469 V=8.0
MOVL C01470 V=8.0
MOVL C01471 V=8.0
MOVL C01472 V=8.0
MOVL C01473 V=8.0
MOVL C01474 V=8.0
MOVL C01475 V=8.0
MOVL C01476 V=8.0
MOVL C01477 V=8.0
MOVL C01478 V=8.0
MOVL C01479 V=8.0
MOVL C01480 V=8.0
MOVL C01481 V=8.0
MOVL C01482 V=8.0
MOVL C01483 V=8.0
MOVL C01484 V=8.0
MOVL C01485 V=8.0
MOVL C01486 V=8.0
MOVL C01487 V=8.0
MOVL C01488 V=8.0
MOVL C01489 V=8.0
MOVL C01490 V=8.0
MOVL C01491 V=8.0
MOVL C01492 V=8.0
MOVL C01493 V=8.0
MOVL C01494 V=8.0
MOVL C01495 V=8.0
MOVL C01496 V=8.0
MOVL C01497 V=8.0
MOVL C01498 V=8.0
MOVL C01499 V=8.0
MOVL C01500 V=8.0
MOVL C01501 V=8.0
MOVL C01502 V=8.0
MOVL C01503 V=8.0
MOVL C01504 V=8.0
MOVL C01505 V=8.0
MOVL C01506 V=8.0
MOVL C01507 V=8.0
MOVL C01508 V=8.0
MOVL C01509 V=8.0
MOVL C01510 V=8.0
MOVL C01511 V=8.0
MOVJ C01512 VJ=0.78
MOVJ C01513 VJ=0.78
MOVJ C01514 VJ=0.78
MOVL C01515 V=8.0
MOVL C01516 V=8.0
MOVL C01517 V=8.0
MOVL C01518 V=8.0
MOVL C01519 V=8.0
MOVL C01520 V=8.0
MOVL C01521 V=8.0
MOVL C01522 V=8.0
MOVL C01523 V=8.0
MOVL C01524 V=8.0
MOVL C01525 V=8.0
MOVL C01526 V=8.0
MOVL C01527 V=8.0
MOVL C01528 V=8.0
MOVL C01529 V=8.0
MOVL C01530 V=8.0
MOVL C01531 V=8.0
MOVL C01532 V=8.0
MOVL C01533 V=8.0
MOVL C01534 V=8.0
MOVL C01535 V=8.0
MOVL C01536 V=8.0
MOVL C01537 V=8.0
MOVL C01538 V=8.0
MOVL C01539 V=8.0
MOVL C01540 V=8.0
MOVL C01541 V=8.0
MOVL C01542 V=8.0
MOVL C01543 V=8.0
MOVL C01544 V=8.0
MOVL C01545 V=8.0
MOVL C01546 V=8.0
MOVL C01547 V=8.0
MOVL C01548 V=8.0
MOVL C01549 V=8.0
MOVL C01550 V=8.0
MOVL C01551 V=8.0
MOVL C01552 V=8.0
MOVL C01553 V=8.0
MOVL C01554 V=8.0
MOVL C01555 V=8.0
MOVL C01556 V=8.0
MOVL C01557 V=8.0
MOVL C01558 V=8.0
MOVL C01559 V=8.0
MOVL C01560 V=8.0
MOVL C01561 V=8.0
MOVL C01562 V=8.0
MOVL C01563 V=8.0
MOVL C01564 V=8.0
MOVL C01565 V=8.0
MOVL C01566 V=8.0
MOVL C01567 V=8.0
MOVL C01568 V=8.0
MOVL C01569 V=8.0
MOVL C01570 V=8.0
MOVL C01571 V=8.0
MOVL C01572 V=8.0
MOVL C01573 V=8.0
MOVL C01574 V=8.0
MOVJ C01575 VJ=0.78
END
