/JOB
//NAME CONTOUR2
//POS
///NPOS 7664,0,0,0,0,0
///TOOL 0
///POSTYPE PULSE
///PULSE
C00000=-41004,59868,4099,4900,-34257,16705
C00001=-41004,59868,1099,4900,-34257,16705
C00002=-41004,64596,1380,5213,-31659,16463
C00003=-41004,59868,1099,4900,-34257,16705
C00004=-41004,59868,9099,4900,-34257,16705
C00005=3382,30606,-28293,700,-28737,-2036
C00006=4075,30470,-28453,602,-28694,-2306
C00007=4075,32023,-28662,631,-27597,-2326
C00008=4084,32036,-28646,630,-27602,-2330
C00009=4095,32048,-28631,628,-27607,-2334
C00010=4100,32063,-28614,627,-27612,-2336
C00011=4099,32079,-28595,627,-27618,-2335
C00012=4109,32091,-28580,626,-27623,-2339
C00013=4121,32103,-28565,624,-27628,-2344
C00014=4135,32108,-28558,622,-27630,-2349
C00015=4152,32110,-28556,619,-27631,-2356
C00016=4163,32123,-28541,618,-27636,-2360
C00017=4174,32135,-28526,616,-27640,-2364
C00018=4176,32150,-28507,615,-27646,-2365
C00019=4177,32165,-28489,615,-27652,-2365
C00020=4188,32177,-28474,613,-27656,-2370
C00021=4200,32190,-28459,612,-27661,-2374
C00022=4199,32205,-28440,612,-27667,-2374
C00023=4202,32220,-28422,611,-27673,-2375
C00024=4214,32232,-28407,609,-27677,-2379
C00025=4225,32244,-28392,608,-27682,-2383
C00026=4236,32257,-28377,606,-27687,-2388
C00027=4247,32269,-28362,604,-27691,-2392
C00028=4258,32281,-28347,603,-27696,-2396
C00029=4269,32293,-28332,601,-27701,-2400
C00030=4281,32306,-28317,599,-27706,-2405
C00031=4292,32318,-28302,598,-27710,-2409
C00032=4304,32327,-28291,596,-27714,-2414
C00033=4321,32329,-28289,593,-27715,-2420
C00034=4335,32322,-28297,591,-27713,-2426
C00035=4348,32312,-28309,590,-27709,-2431
C00036=4356,32300,-28324,588,-27704,-2434
C00037=4357,32284,-28343,588,-27698,-2434
C00038=4348,32271,-28359,590,-27693,-2431
C00039=4337,32258,-28374,591,-27689,-2427
C00040=4332,32244,-28391,592,-27683,-2425
C00041=4333,32228,-28411,592,-27677,-2426
C00042=4334,32213,-28430,592,-27671,-2426
C00043=4331,32198,-28448,593,-27666,-2425
C00044=4320,32186,-28463,594,-27661,-2421
C00045=4309,32173,-28478,596,-27656,-2416
C00046=4298,32161,-28493,598,-27652,-2412
C00047=4287,32149,-28508,600,-27647,-2408
C00048=4276,32137,-28523,601,-27642,-2404
C00049=4264,32124,-28538,603,-27637,-2399
C00050=4253,32112,-28553,605,-27633,-2395
C00051=4242,32100,-28568,606,-27628,-2391
C00052=4231,32088,-28582,608,-27623,-2386
C00053=4220,32076,-28597,610,-27619,-2382
C00054=4208,32063,-28612,611,-27614,-2378
C00055=4192,32062,-28614,614,-27613,-2371
C00056=4177,32056,-28621,616,-27611,-2366
C00057=4166,32044,-28636,618,-27606,-2361
C00058=4155,32032,-28651,619,-27601,-2357
C00059=4143,32019,-28666,621,-27597,-2353
C00060=4132,32007,-28681,623,-27592,-2348
C00061=4121,31995,-28696,625,-27587,-2344
C00062=4110,31983,-28711,626,-27582,-2340
C00063=4095,31977,-28718,628,-27580,-2334
C00064=4078,31976,-28720,631,-27579,-2328
C00065=4077,31992,-28701,631,-27585,-2327
C00066=4076,32007,-28681,631,-27591,-2327
C00067=4075,32023,-28662,631,-27597,-2326
C00068=4075,30470,-28453,602,-28694,-2306
C00069=3128,30151,-28848,741,-28564,-1940
C00070=3128,31704,-29057,770,-27467,-1960
C00071=2493,31664,-29112,862,-27444,-1714
C00072=1249,31287,-29578,1046,-27289,-1233
C00073=1800,30038,-31090,981,-26828,-1457
C00074=1359,28775,-32626,1060,-26351,-1296
C00075=132,28144,-33399,1251,-26104,-829
C00076=-378,27267,-34464,1339,-25772,-641
C00077=906,26494,-35395,1156,-25495,-1142
C00078=2683,26528,-35345,887,-25523,-1823
C00079=4493,26692,-35138,611,-25600,-2516
C00080=6184,27101,-34633,352,-25768,-3163
C00081=7717,27751,-33835,117,-26025,-3750
C00082=7311,27446,-34208,180,-25907,-3595
C00083=5837,26872,-34913,406,-25678,-3031
C00084=4086,26559,-35301,674,-25546,-2361
C00085=2309,26423,-35474,945,-25481,-1681
C00086=543,26467,-35430,1212,-25482,-1002
C00087=-434,27484,-34202,1344,-25853,-617
C00088=-531,26166,-35799,1378,-25361,-593
C00089=-208,25085,-37109,1345,-24960,-728
C00090=-127,24029,-38388,1347,-24567,-769
C00091=-1124,24728,-37545,1490,-24820,-381
C00092=-2888,24433,-37909,1765,-24697,290
C00093=-3605,23760,-38726,1887,-24441,556
C00094=-2439,23124,-39492,1718,-24214,104
C00095=-3919,23826,-38648,1934,-24463,677
C00096=-2819,24489,-37841,1753,-24718,265
C00097=-1040,24804,-37452,1476,-24849,-412
C00098=-555,25869,-36160,1386,-25250,-587
C00099=-637,27415,-34286,1376,-25825,-540
C00100=-848,28899,-32489,1385,-26376,-443
C00101=-580,30412,-30654,1323,-26942,-531
C00102=-404,31971,-28763,1275,-27525,-584
C00103=162,33404,-27020,1174,-28067,-791
C00104=980,34736,-25397,1042,-28575,-1099
C00105=882,36223,-23595,1038,-29129,-1048
C00106=966,37313,-22271,1013,-29537,-1072
C00107=964,35817,-24085,1031,-28979,-1083
C00108=1828,35353,-24639,918,-28817,-1427
C00109=2079,35529,-24423,881,-28887,-1524
C00110=3551,35381,-24587,679,-28851,-2103
C00111=4928,34782,-25301,491,-28645,-2646
C00112=5134,34575,-25551,463,-28570,-2728
C00113=3766,35221,-24779,650,-28794,-2189
C00114=2277,35394,-24585,855,-28839,-1603
C00115=1108,34754,-25374,1024,-28583,-1149
C00116=2392,35233,-24779,841,-28780,-1649
C00117=2140,35101,-24942,877,-28727,-1551
C00118=841,34309,-25917,1067,-28413,-1048
C00119=225,33216,-27248,1168,-27997,-817
C00120=-351,31915,-28831,1268,-27505,-605
C00121=-468,30690,-30316,1303,-27047,-572
C00122=-507,29174,-32154,1331,-26482,-572
C00123=-313,28699,-32729,1309,-26307,-652
C00124=805,28547,-32906,1145,-26261,-1085
C00125=1177,28958,-32405,1085,-26418,-1225
C00126=338,28938,-32434,1209,-26402,-901
C00127=1828,29454,-31799,983,-26610,-1472
C00128=1341,30799,-30170,1039,-27108,-1273
C00129=1640,31921,-28807,982,-27531,-1380
C00130=3128,31704,-29057,770,-27467,-1960
C00131=3128,30151,-28848,741,-28564,-1940
C00132=2794,31157,-27630,780,-28937,-1804
C00133=2794,32710,-27839,809,-27840,-1824
C00134=2672,32699,-27853,826,-27834,-1776
C00135=2551,32689,-27867,844,-27829,-1729
C00136=2429,32678,-27880,861,-27824,-1682
C00137=2308,32668,-27894,879,-27818,-1634
C00138=2198,32633,-27937,895,-27804,-1592
C00139=2087,32649,-27919,910,-27809,-1548
C00140=1977,32614,-27962,926,-27794,-1506
C00141=1876,32562,-28027,941,-27773,-1467
C00142=1757,32545,-28049,959,-27765,-1421
C00143=1641,32522,-28077,975,-27756,-1376
C00144=1525,32499,-28106,992,-27746,-1331
C00145=1404,32489,-28119,1010,-27740,-1283
C00146=1282,32479,-28133,1027,-27735,-1236
C00147=1164,32459,-28158,1044,-27726,-1190
C00148=1050,32433,-28190,1061,-27715,-1146
C00149=946,32384,-28250,1076,-27696,-1106
C00150=853,32312,-28338,1090,-27668,-1070
C00151=764,32231,-28438,1104,-27636,-1036
C00152=642,32221,-28451,1122,-27631,-989
C00153=671,32325,-28325,1116,-27670,-999
C00154=764,32399,-28234,1102,-27699,-1035
C00155=870,32443,-28179,1086,-27717,-1076
C00156=969,32503,-28106,1072,-27740,-1114
C00157=1090,32513,-28093,1054,-27746,-1161
C00158=1212,32524,-28079,1037,-27751,-1208
C00159=1325,32551,-28044,1020,-27763,-1252
C00160=1434,32588,-27998,1004,-27778,-1294
C00161=1554,32604,-27979,987,-27785,-1341
C00162=1675,32614,-27965,969,-27790,-1388
C00163=1777,32666,-27901,954,-27811,-1427
C00164=1885,32703,-27855,939,-27826,-1469
C00165=2004,32719,-27835,921,-27834,-1516
C00166=2126,32729,-27822,904,-27839,-1563
C00167=2247,32739,-27808,887,-27844,-1610
C00168=2369,32750,-27794,869,-27850,-1657
C00169=2490,32760,-27780,852,-27855,-1705
C00170=2611,32771,-27766,834,-27861,-1752
C00171=2712,32783,-27751,820,-27866,-1791
C00172=2832,32789,-27742,803,-27870,-1838
C00173=2953,32800,-27728,785,-27875,-1885
C00174=3075,32810,-27715,768,-27881,-1932
C00175=3196,32821,-27701,750,-27886,-1980
C00176=3318,32831,-27687,733,-27892,-2027
C00177=3439,32841,-27673,716,-27897,-2074
C00178=3561,32852,-27660,698,-27902,-2121
C00179=3682,32862,-27646,681,-27908,-2169
C00180=3796,32886,-27616,664,-27918,-2213
C00181=3877,32975,-27507,652,-27953,-2244
C00182=3943,33005,-27470,642,-27964,-2270
C00183=3938,32907,-27589,644,-27928,-2268
C00184=3848,32835,-27677,657,-27899,-2234
C00185=3744,32791,-27732,672,-27882,-2193
C00186=3623,32780,-27746,690,-27876,-2146
C00187=3501,32770,-27760,707,-27871,-2099
C00188=3389,32786,-27741,723,-27876,-2055
C00189=3268,32776,-27755,741,-27870,-2008
C00190=3146,32765,-27769,758,-27865,-1960
C00191=3025,32755,-27782,775,-27859,-1913
C00192=2904,32743,-27798,793,-27854,-1866
C00193=2794,32710,-27839,809,-27840,-1824
C00194=2794,31157,-27630,780,-28937,-1804
C00195=1466,29996,-29051,983,-28487,-1295
C00196=1466,31549,-29260,1012,-27390,-1315
C00197=1450,31551,-29257,1014,-27390,-1309
C00198=1433,31549,-29259,1016,-27389,-1302
C00199=1416,31548,-29261,1019,-27389,-1296
C00200=1401,31553,-29255,1021,-27390,-1290
C00201=1389,31563,-29243,1023,-27394,-1285
C00202=1375,31570,-29234,1025,-27397,-1280
C00203=1358,31569,-29236,1027,-27396,-1273
C00204=1341,31567,-29238,1029,-27395,-1267
C00205=1324,31566,-29240,1032,-27394,-1260
C00206=1307,31564,-29242,1034,-27394,-1253
C00207=1290,31563,-29244,1037,-27393,-1247
C00208=1273,31561,-29246,1039,-27392,-1240
C00209=1256,31560,-29247,1042,-27391,-1233
C00210=1241,31555,-29254,1044,-27389,-1228
C00211=1229,31543,-29269,1046,-27385,-1223
C00212=1217,31530,-29284,1048,-27380,-1219
C00213=1205,31518,-29299,1050,-27375,-1214
C00214=1193,31506,-29314,1052,-27370,-1210
C00215=1181,31493,-29329,1053,-27366,-1205
C00216=1169,31481,-29344,1055,-27361,-1200
C00217=1165,31467,-29362,1056,-27355,-1199
C00218=1165,31451,-29381,1056,-27349,-1199
C00219=1153,31438,-29396,1058,-27345,-1194
C00220=1141,31426,-29411,1060,-27340,-1190
C00221=1138,31411,-29430,1061,-27334,-1189
C00222=1139,31395,-29449,1061,-27328,-1189
C00223=1139,31379,-29468,1061,-27322,-1190
C00224=1139,31363,-29488,1061,-27316,-1190
C00225=1139,31347,-29507,1061,-27310,-1190
C00226=1152,31336,-29520,1060,-27307,-1195
C00227=1164,31326,-29532,1058,-27303,-1200
C00228=1180,31325,-29534,1056,-27303,-1206
C00229=1196,31328,-29530,1053,-27304,-1212
C00230=1208,31340,-29515,1051,-27309,-1217
C00231=1220,31353,-29499,1050,-27313,-1221
C00232=1232,31365,-29484,1048,-27318,-1226
C00233=1244,31377,-29469,1046,-27323,-1230
C00234=1256,31390,-29454,1044,-27328,-1235
C00235=1268,31402,-29439,1042,-27332,-1239
C00236=1282,31410,-29430,1040,-27335,-1245
C00237=1299,31411,-29428,1037,-27336,-1251
C00238=1312,31422,-29415,1035,-27340,-1256
C00239=1323,31434,-29400,1034,-27345,-1261
C00240=1339,31440,-29393,1031,-27347,-1267
C00241=1356,31441,-29391,1029,-27348,-1273
C00242=1373,31443,-29389,1026,-27349,-1280
C00243=1388,31449,-29382,1024,-27351,-1286
C00244=1399,31461,-29367,1022,-27356,-1290
C00245=1412,31471,-29354,1020,-27360,-1295
C00246=1429,31473,-29352,1018,-27361,-1302
C00247=1446,31474,-29350,1015,-27361,-1308
C00248=1464,31476,-29348,1013,-27362,-1315
C00249=1481,31477,-29346,1010,-27363,-1321
C00250=1495,31483,-29339,1008,-27365,-1327
C00251=1507,31495,-29324,1006,-27370,-1332
C00252=1515,31507,-29309,1005,-27375,-1335
C00253=1503,31518,-29297,1007,-27378,-1330
C00254=1490,31528,-29284,1008,-27382,-1325
C00255=1478,31538,-29272,1010,-27386,-1320
C00256=1466,31549,-29260,1012,-27390,-1315
C00257=1466,29996,-29051,983,-28487,-1295
C00258=459,29966,-29095,1128,-28464,-904
C00259=459,31519,-29304,1157,-27367,-924
C00260=449,31509,-29316,1159,-27363,-920
C00261=440,31499,-29328,1160,-27359,-917
C00262=430,31491,-29338,1162,-27356,-913
C00263=417,31490,-29340,1164,-27355,-908
C00264=404,31489,-29341,1166,-27355,-903
C00265=391,31488,-29342,1167,-27354,-898
C00266=378,31486,-29344,1169,-27354,-893
C00267=368,31494,-29334,1171,-27357,-889
C00268=359,31502,-29325,1172,-27360,-885
C00269=349,31509,-29316,1173,-27362,-881
C00270=336,31508,-29318,1175,-27361,-876
C00271=323,31508,-29319,1177,-27361,-871
C00272=314,31516,-29309,1178,-27364,-867
C00273=304,31524,-29300,1179,-27367,-864
C00274=295,31532,-29290,1181,-27370,-860
C00275=285,31539,-29280,1182,-27373,-856
C00276=276,31547,-29271,1183,-27375,-853
C00277=267,31555,-29261,1184,-27378,-849
C00278=257,31563,-29252,1186,-27381,-845
C00279=248,31571,-29242,1187,-27384,-841
C00280=242,31581,-29231,1188,-27387,-839
C00281=242,31593,-29216,1187,-27392,-839
C00282=239,31604,-29202,1188,-27396,-838
C00283=230,31612,-29193,1189,-27399,-834
C00284=220,31620,-29183,1190,-27402,-830
C00285=215,31630,-29171,1191,-27405,-828
C00286=215,31642,-29156,1191,-27410,-828
C00287=215,31655,-29141,1191,-27415,-828
C00288=214,31667,-29126,1190,-27419,-828
C00289=214,31679,-29111,1190,-27424,-827
C00290=214,31692,-29096,1190,-27428,-827
C00291=214,31704,-29081,1190,-27433,-827
C00292=214,31716,-29066,1190,-27438,-827
C00293=216,31726,-29055,1189,-27441,-827
C00294=225,31718,-29065,1188,-27438,-831
C00295=234,31710,-29074,1187,-27435,-835
C00296=244,31702,-29084,1186,-27433,-839
C00297=253,31694,-29094,1184,-27430,-842
C00298=262,31686,-29103,1183,-27427,-846
C00299=272,31678,-29113,1182,-27424,-850
C00300=281,31670,-29122,1181,-27421,-853
C00301=290,31662,-29132,1180,-27418,-857
C00302=300,31654,-29141,1178,-27415,-861
C00303=309,31646,-29151,1177,-27413,-864
C00304=318,31638,-29161,1176,-27410,-868
C00305=328,31630,-29170,1175,-27407,-872
C00306=337,31622,-29180,1173,-27404,-876
C00307=346,31614,-29189,1172,-27401,-879
C00308=356,31606,-29199,1171,-27398,-883
C00309=365,31598,-29209,1170,-27395,-887
C00310=374,31590,-29218,1168,-27393,-890
C00311=384,31582,-29228,1167,-27390,-894
C00312=393,31574,-29237,1166,-27387,-898
C00313=403,31566,-29247,1165,-27384,-902
C00314=412,31558,-29256,1163,-27381,-905
C00315=421,31550,-29266,1162,-27378,-909
C00316=431,31542,-29276,1161,-27375,-913
C00317=440,31534,-29285,1160,-27372,-916
C00318=449,31527,-29295,1158,-27370,-920
C00319=459,31519,-29304,1157,-27367,-924
C00320=459,29966,-29095,1128,-28464,-904
C00321=-155,30378,-28600,1211,-28611,-661
C00322=-155,31931,-28809,1240,-27514,-681
C00323=-195,31921,-28822,1246,-27509,-666
C00324=-232,31903,-28844,1251,-27502,-651
C00325=-271,31889,-28861,1257,-27496,-637
C00326=-259,31926,-28816,1255,-27510,-641
C00327=-228,31958,-28778,1250,-27522,-652
C00328=-216,31995,-28733,1248,-27536,-657
C00329=-216,32035,-28683,1247,-27552,-656
C00330=-216,32076,-28634,1246,-27567,-656
C00331=-201,32112,-28590,1244,-27580,-661
C00332=-189,32149,-28545,1241,-27594,-666
C00333=-162,32182,-28506,1237,-27607,-676
C00334=-162,32222,-28456,1237,-27622,-676
C00335=-136,32255,-28416,1232,-27634,-685
C00336=-135,32295,-28368,1232,-27650,-685
C00337=-113,32329,-28326,1228,-27662,-694
C00338=-133,32356,-28293,1231,-27672,-685
C00339=-108,32388,-28255,1227,-27684,-695
C00340=-108,32429,-28206,1226,-27700,-695
C00341=-108,32469,-28156,1225,-27715,-694
C00342=-108,32510,-28107,1225,-27730,-694
C00343=-79,32542,-28068,1220,-27742,-705
C00344=-54,32575,-28028,1216,-27755,-714
C00345=-38,32611,-27985,1213,-27768,-720
C00346=-26,32648,-27939,1211,-27782,-724
C00347=4,32679,-27901,1207,-27794,-736
C00348=25,32713,-27860,1203,-27807,-744
C00349=45,32748,-27818,1200,-27820,-751
C00350=52,32786,-27771,1198,-27835,-754
C00351=68,32822,-27727,1195,-27848,-759
C00352=106,32836,-27710,1190,-27854,-774
C00353=136,32867,-27672,1185,-27866,-785
C00354=158,32901,-27631,1182,-27879,-794
C00355=177,32900,-27632,1179,-27879,-801
C00356=207,32874,-27663,1175,-27869,-813
C00357=185,32843,-27701,1178,-27858,-805
C00358=155,32812,-27739,1183,-27846,-794
C00359=125,32780,-27777,1188,-27834,-782
C00360=95,32749,-27815,1193,-27822,-771
C00361=79,32714,-27859,1195,-27808,-765
C00362=54,32681,-27899,1199,-27795,-755
C00363=52,32640,-27947,1200,-27781,-755
C00364=31,32606,-27989,1204,-27767,-747
C00365=25,32567,-28036,1205,-27753,-745
C00366=9,32532,-28080,1208,-27739,-739
C00367=-1,32494,-28125,1210,-27725,-736
C00368=-14,32458,-28170,1212,-27711,-731
C00369=-28,32421,-28214,1215,-27698,-726
C00370=-55,32389,-28254,1219,-27685,-716
C00371=-55,32348,-28303,1219,-27670,-716
C00372=-60,32309,-28351,1221,-27655,-715
C00373=-82,32275,-28392,1224,-27643,-706
C00374=-82,32234,-28441,1225,-27627,-707
C00375=-94,32197,-28486,1227,-27613,-702
C00376=-109,32161,-28530,1230,-27600,-697
C00377=-117,32123,-28576,1232,-27585,-694
C00378=-136,32088,-28619,1235,-27572,-687
C00379=-136,32047,-28668,1235,-27557,-688
C00380=-136,32007,-28718,1236,-27542,-688
C00381=-136,31966,-28767,1236,-27527,-688
C00382=-155,31931,-28809,1240,-27514,-681
C00383=-155,30378,-28600,1211,-28611,-661
C00384=432,28286,-31133,1154,-27836,-909
C00385=432,29839,-31342,1183,-26739,-929
C00386=460,29841,-31339,1179,-26741,-940
C00387=489,29843,-31335,1175,-26742,-951
C00388=518,29846,-31332,1171,-26743,-962
C00389=547,29848,-31329,1166,-26744,-973
C00390=575,29850,-31326,1162,-26745,-984
C00391=604,29853,-31323,1158,-26746,-995
C00392=633,29855,-31320,1154,-26748,-1007
C00393=662,29857,-31317,1150,-26749,-1018
C00394=690,29860,-31314,1145,-26750,-1029
C00395=719,29862,-31311,1141,-26751,-1040
C00396=740,29845,-31331,1138,-26745,-1048
C00397=765,29840,-31337,1135,-26744,-1058
C00398=794,29843,-31334,1130,-26745,-1069
C00399=823,29845,-31331,1126,-26746,-1080
C00400=852,29847,-31328,1122,-26747,-1091
C00401=874,29835,-31343,1119,-26743,-1100
C00402=895,29818,-31363,1116,-26737,-1108
C00403=914,29802,-31383,1113,-26731,-1116
C00404=885,29799,-31386,1118,-26729,-1105
C00405=856,29797,-31389,1122,-26728,-1093
C00406=827,29795,-31392,1126,-26727,-1082
C00407=799,29792,-31395,1130,-26726,-1071
C00408=770,29790,-31398,1135,-26725,-1060
C00409=743,29792,-31396,1138,-26725,-1050
C00410=722,29809,-31375,1141,-26731,-1042
C00411=695,29809,-31375,1145,-26731,-1031
C00412=666,29807,-31378,1150,-26730,-1020
C00413=645,29823,-31359,1152,-26736,-1011
C00414=620,29829,-31353,1156,-26738,-1002
C00415=591,29826,-31356,1160,-26736,-991
C00416=562,29824,-31359,1165,-26735,-979
C00417=533,29822,-31362,1169,-26734,-968
C00418=505,29819,-31365,1173,-26733,-957
C00419=482,29803,-31384,1177,-26727,-949
C00420=459,29790,-31400,1180,-26722,-940
C00421=430,29788,-31403,1184,-26720,-929
C00422=405,29777,-31416,1188,-26716,-919
C00423=384,29759,-31439,1192,-26709,-911
C00424=355,29756,-31442,1196,-26708,-900
C00425=326,29754,-31445,1200,-26707,-889
C00426=298,29752,-31448,1204,-26706,-878
C00427=271,29745,-31456,1208,-26703,-867
C00428=250,29725,-31481,1212,-26695,-860
C00429=223,29720,-31487,1216,-26693,-849
C00430=194,29718,-31490,1220,-26692,-838
C00431=165,29715,-31493,1224,-26691,-827
C00432=136,29713,-31496,1228,-26689,-816
C00433=136,29739,-31464,1228,-26699,-815
C00434=138,29765,-31433,1228,-26709,-816
C00435=158,29786,-31408,1224,-26717,-823
C00436=184,29793,-31398,1220,-26720,-833
C00437=213,29796,-31395,1216,-26721,-845
C00438=242,29798,-31392,1212,-26722,-856
C00439=271,29800,-31389,1208,-26723,-867
C00440=299,29803,-31386,1203,-26725,-878
C00441=328,29805,-31383,1199,-26726,-889
C00442=357,29807,-31380,1195,-26727,-900
C00443=386,29810,-31377,1191,-26728,-911
C00444=406,29829,-31353,1187,-26736,-919
C00445=432,29839,-31342,1183,-26739,-929
C00446=432,28286,-31133,1154,-27836,-909
C00447=628,27997,-31482,1129,-27731,-987
C00448=628,29550,-31691,1158,-26634,-1007
C00449=742,29559,-31679,1142,-26638,-1051
C00450=724,29507,-31742,1145,-26619,-1045
C00451=619,29479,-31776,1161,-26607,-1004
C00452=632,29397,-31875,1160,-26577,-1010
C00453=556,29442,-31822,1170,-26592,-981
C00454=454,29459,-31802,1185,-26598,-941
C00455=346,29437,-31829,1201,-26589,-899
C00456=249,29392,-31884,1216,-26571,-862
C00457=193,29305,-31990,1226,-26538,-841
C00458=263,29241,-32068,1216,-26514,-869
C00459=357,29202,-32115,1203,-26501,-906
C00460=446,29153,-32173,1190,-26484,-941
C00461=549,29136,-32192,1175,-26479,-981
C00462=621,29199,-32115,1164,-26503,-1008
C00463=669,29289,-32007,1156,-26537,-1026
C00464=761,29331,-31955,1142,-26553,-1061
C00465=875,29341,-31943,1125,-26558,-1105
C00466=989,29350,-31931,1108,-26563,-1149
C00467=1104,29359,-31919,1091,-26567,-1193
C00468=1206,29393,-31877,1075,-26581,-1232
C00469=1296,29451,-31806,1061,-26604,-1267
C00470=1298,29387,-31884,1062,-26580,-1268
C00471=1277,29304,-31984,1066,-26549,-1260
C00472=1383,29317,-31968,1050,-26554,-1301
C00473=1442,29403,-31863,1041,-26587,-1323
C00474=1506,29487,-31761,1030,-26619,-1348
C00475=1589,29551,-31683,1017,-26644,-1379
C00476=1641,29474,-31776,1010,-26616,-1400
C00477=1562,29394,-31873,1023,-26585,-1370
C00478=1474,29331,-31950,1037,-26561,-1336
C00479=1386,29269,-32027,1050,-26536,-1303
C00480=1290,29221,-32085,1065,-26518,-1266
C00481=1201,29161,-32159,1079,-26494,-1232
C00482=1104,29115,-32214,1094,-26476,-1195
C00483=1007,29071,-32268,1109,-26459,-1158
C00484=904,29038,-32310,1124,-26445,-1118
C00485=789,29029,-32322,1141,-26441,-1074
C00486=674,29019,-32334,1159,-26436,-1030
C00487=559,29010,-32345,1176,-26431,-986
C00488=461,29040,-32310,1190,-26442,-948
C00489=364,29069,-32275,1204,-26452,-909
C00490=258,29080,-32262,1219,-26455,-869
C00491=168,29129,-32204,1232,-26472,-833
C00492=71,29158,-32169,1246,-26482,-796
C00493=-18,29207,-32111,1258,-26499,-761
C00494=-116,29235,-32077,1272,-26509,-723
C00495=-199,29185,-32138,1285,-26489,-691
C00496=-215,29086,-32258,1289,-26452,-686
C00497=-255,29135,-32200,1294,-26470,-670
C00498=-227,29230,-32084,1289,-26506,-680
C00499=-222,29333,-31960,1286,-26544,-681
C00500=-161,29401,-31876,1276,-26570,-704
C00501=-72,29353,-31934,1264,-26553,-739
C00502=25,29323,-31970,1250,-26543,-776
C00503=122,29368,-31914,1235,-26561,-813
C00504=211,29431,-31838,1221,-26585,-847
C00505=308,29476,-31782,1206,-26603,-884
C00506=412,29507,-31744,1191,-26615,-924
C00507=526,29516,-31732,1174,-26620,-968
C00508=628,29550,-31691,1158,-26634,-1007
C00509=628,27997,-31482,1129,-27731,-987
C00510=-605,27630,-31934,1316,-27581,-514
C00511=-605,29183,-32143,1345,-26484,-534
C00512=-654,29225,-32093,1352,-26499,-515
C00513=-704,29264,-32046,1358,-26513,-495
C00514=-758,29229,-32088,1367,-26500,-474
C00515=-787,29174,-32156,1372,-26479,-464
C00516=-787,29109,-32234,1373,-26455,-464
C00517=-788,29045,-32312,1374,-26431,-465
C00518=-789,28981,-32389,1375,-26407,-465
C00519=-790,28917,-32467,1376,-26383,-465
C00520=-762,28866,-32529,1373,-26364,-477
C00521=-763,28802,-32606,1374,-26341,-477
C00522=-764,28738,-32684,1375,-26317,-477
C00523=-763,28674,-32761,1376,-26293,-478
C00524=-737,28622,-32824,1373,-26274,-489
C00525=-738,28558,-32901,1374,-26250,-489
C00526=-743,28496,-32977,1375,-26227,-488
C00527=-767,28439,-33047,1380,-26205,-479
C00528=-768,28374,-33124,1381,-26181,-479
C00529=-769,28310,-33202,1382,-26157,-480
C00530=-741,28259,-33264,1379,-26139,-491
C00531=-742,28195,-33342,1380,-26115,-491
C00532=-742,28131,-33419,1381,-26091,-492
C00533=-743,28067,-33497,1382,-26067,-492
C00534=-715,28016,-33559,1379,-26048,-504
C00535=-716,27952,-33637,1380,-26024,-504
C00536=-717,27887,-33714,1381,-26000,-504
C00537=-702,27830,-33784,1379,-25979,-510
C00538=-689,27772,-33854,1378,-25958,-516
C00539=-662,27720,-33917,1375,-25939,-527
C00540=-662,27657,-33994,1376,-25915,-528
C00541=-662,27593,-34071,1377,-25891,-528
C00542=-602,27572,-34096,1368,-25884,-552
C00543=-530,27578,-34089,1357,-25887,-579
C00544=-459,27586,-34078,1347,-25890,-607
C00545=-433,27643,-34009,1342,-25912,-616
C00546=-397,27696,-33944,1336,-25932,-629
C00547=-375,27754,-33874,1332,-25954,-637
C00548=-375,27818,-33796,1331,-25978,-637
C00549=-403,27870,-33734,1334,-25997,-625
C00550=-403,27934,-33657,1333,-26021,-625
C00551=-402,27998,-33579,1332,-26044,-624
C00552=-402,28062,-33501,1331,-26068,-624
C00553=-401,28126,-33424,1330,-26092,-623
C00554=-401,28190,-33346,1329,-26116,-623
C00555=-401,28254,-33268,1328,-26140,-622
C00556=-429,28305,-33206,1332,-26159,-611
C00557=-428,28369,-33128,1331,-26183,-611
C00558=-428,28433,-33051,1330,-26207,-610
C00559=-427,28498,-32973,1329,-26231,-610
C00560=-455,28549,-32911,1332,-26249,-598
C00561=-455,28613,-32833,1331,-26273,-598
C00562=-476,28667,-32768,1333,-26293,-589
C00563=-482,28728,-32694,1333,-26316,-586
C00564=-510,28780,-32632,1337,-26335,-575
C00565=-510,28844,-32554,1336,-26359,-574
C00566=-537,28895,-32492,1339,-26378,-563
C00567=-537,28959,-32415,1338,-26401,-563
C00568=-564,29010,-32353,1341,-26420,-552
C00569=-564,29074,-32275,1340,-26444,-551
C00570=-575,29133,-32204,1341,-26466,-546
C00571=-605,29183,-32143,1345,-26484,-534
C00572=-605,27630,-31934,1316,-27581,-514
C00573=342,26754,-32991,1188,-27264,-888
C00574=342,28307,-33200,1217,-26167,-908
C00575=331,28300,-33208,1219,-26164,-904
C00576=322,28291,-33219,1220,-26161,-901
C00577=312,28282,-33230,1222,-26157,-897
C00578=309,28271,-33243,1223,-26153,-896
C00579=309,28259,-33258,1223,-26149,-896
C00580=314,28249,-33270,1222,-26145,-898
C00581=323,28242,-33279,1221,-26142,-902
C00582=333,28234,-33288,1220,-26140,-905
C00583=344,28230,-33292,1218,-26138,-910
C00584=357,28231,-33291,1216,-26139,-915
C00585=370,28233,-33290,1214,-26139,-920
C00586=383,28234,-33288,1212,-26140,-925
C00587=397,28235,-33287,1210,-26140,-930
C00588=410,28236,-33286,1208,-26141,-935
C00589=423,28237,-33284,1206,-26141,-940
C00590=432,28229,-33293,1205,-26139,-944
C00591=442,28221,-33303,1204,-26136,-948
C00592=451,28214,-33312,1202,-26133,-951
C00593=464,28215,-33311,1200,-26134,-956
C00594=477,28216,-33310,1198,-26134,-961
C00595=491,28217,-33308,1196,-26135,-966
C00596=504,28218,-33307,1194,-26135,-971
C00597=517,28219,-33306,1192,-26136,-977
C00598=530,28220,-33304,1190,-26136,-982
C00599=544,28221,-33303,1188,-26137,-987
C00600=557,28222,-33301,1186,-26137,-992
C00601=570,28223,-33300,1184,-26138,-997
C00602=583,28224,-33299,1182,-26138,-1002
C00603=596,28225,-33297,1180,-26139,-1007
C00604=610,28226,-33296,1178,-26139,-1012
C00605=623,28228,-33294,1177,-26140,-1017
C00606=632,28237,-33283,1175,-26143,-1021
C00607=641,28246,-33272,1174,-26147,-1024
C00608=650,28255,-33261,1172,-26150,-1028
C00609=641,28262,-33252,1173,-26153,-1024
C00610=631,28270,-33243,1175,-26156,-1020
C00611=622,28278,-33233,1176,-26159,-1016
C00612=613,28285,-33224,1177,-26161,-1013
C00613=603,28293,-33215,1179,-26164,-1009
C00614=594,28300,-33206,1180,-26167,-1005
C00615=581,28300,-33207,1182,-26167,-1000
C00616=568,28299,-33208,1184,-26166,-995
C00617=554,28298,-33209,1186,-26166,-990
C00618=541,28297,-33211,1188,-26165,-985
C00619=530,28301,-33205,1189,-26167,-981
C00620=521,28309,-33196,1191,-26169,-977
C00621=512,28317,-33187,1192,-26172,-974
C00622=500,28319,-33184,1194,-26173,-969
C00623=487,28318,-33185,1196,-26172,-964
C00624=474,28317,-33187,1198,-26172,-959
C00625=460,28316,-33188,1199,-26171,-954
C00626=447,28315,-33189,1201,-26171,-949
C00627=434,28314,-33191,1203,-26170,-944
C00628=421,28313,-33192,1205,-26170,-939
C00629=408,28312,-33193,1207,-26169,-933
C00630=394,28311,-33195,1209,-26169,-928
C00631=381,28310,-33196,1211,-26168,-923
C00632=368,28309,-33197,1213,-26168,-918
C00633=355,28308,-33199,1215,-26167,-913
C00634=342,28307,-33200,1217,-26167,-908
C00635=342,26754,-32991,1188,-27264,-888
C00636=3340,27118,-32531,738,-27429,-2041
C00637=3340,28671,-32740,767,-26332,-2061
C00638=3335,28792,-32592,767,-26377,-2058
C00639=3363,28850,-32523,762,-26399,-2069
C00640=3469,28790,-32594,747,-26378,-2110
C00641=3581,28741,-32653,731,-26360,-2154
C00642=3705,28726,-32671,712,-26356,-2202
C00643=3828,28705,-32695,694,-26349,-2249
C00644=3908,28618,-32801,683,-26317,-2281
C00645=4023,28577,-32850,666,-26303,-2325
C00646=4156,28583,-32842,646,-26306,-2377
C00647=4138,28658,-32751,649,-26334,-2369
C00648=4016,28680,-32725,667,-26342,-2322
C00649=3916,28758,-32631,681,-26370,-2283
C00650=3955,28800,-32579,675,-26386,-2298
C00651=4063,28741,-32651,659,-26365,-2340
C00652=4183,28713,-32684,641,-26355,-2386
C00653=4308,28697,-32703,623,-26351,-2434
C00654=4312,28766,-32619,622,-26376,-2435
C00655=4354,28803,-32574,615,-26391,-2452
C00656=4479,28787,-32592,597,-26386,-2500
C00657=4594,28745,-32643,580,-26371,-2544
C00658=4719,28729,-32661,561,-26367,-2592
C00659=4844,28714,-32679,543,-26362,-2641
C00660=4954,28770,-32610,526,-26384,-2683
C00661=5060,28833,-32533,510,-26409,-2723
C00662=5161,28905,-32445,494,-26437,-2762
C00663=5261,28977,-32357,479,-26465,-2800
C00664=5396,28988,-32343,459,-26470,-2852
C00665=5504,29046,-32272,442,-26493,-2894
C00666=5591,29110,-32193,429,-26518,-2927
C00667=5699,29169,-32121,413,-26541,-2968
C00668=5730,29271,-31997,407,-26580,-2980
C00669=5864,29281,-31983,387,-26585,-3032
C00670=5973,29248,-32023,372,-26574,-3073
C00671=5873,29187,-32097,387,-26550,-3035
C00672=5770,29120,-32180,402,-26524,-2996
C00673=5668,29053,-32262,418,-26497,-2957
C00674=5570,28977,-32355,433,-26468,-2919
C00675=5449,28941,-32399,451,-26453,-2873
C00676=5328,28906,-32443,470,-26439,-2826
C00677=5216,28853,-32508,486,-26418,-2784
C00678=5113,28786,-32589,502,-26392,-2744
C00679=5019,28701,-32693,517,-26359,-2708
C00680=4910,28643,-32765,534,-26336,-2667
C00681=4801,28584,-32837,550,-26313,-2625
C00682=4672,28584,-32837,570,-26312,-2575
C00683=4542,28588,-32834,589,-26312,-2525
C00684=4436,28613,-32804,605,-26320,-2484
C00685=4326,28555,-32876,621,-26297,-2442
C00686=4196,28535,-32900,641,-26289,-2392
C00687=4061,28524,-32914,661,-26283,-2340
C00688=3936,28540,-32896,680,-26288,-2292
C00689=3800,28529,-32910,700,-26283,-2240
C00690=3679,28553,-32881,718,-26291,-2193
C00691=3572,28598,-32828,733,-26306,-2151
C00692=3523,28699,-32705,740,-26344,-2132
C00693=3424,28777,-32610,754,-26372,-2093
C00694=3421,28682,-32727,755,-26336,-2092
C00695=3481,28585,-32843,747,-26301,-2116
C00696=3401,28575,-32856,759,-26296,-2085
C00697=3340,28671,-32740,767,-26332,-2061
C00698=3340,27118,-32531,738,-27429,-2041
C00699=3753,27687,-31837,672,-27646,-2197
C00700=3753,29240,-32046,701,-26549,-2217
C00701=3724,29249,-32035,705,-26552,-2206
C00702=3696,29261,-32021,709,-26557,-2195
C00703=3678,29276,-32003,712,-26562,-2188
C00704=3677,29306,-31966,712,-26573,-2187
C00705=3675,29337,-31929,712,-26585,-2186
C00706=3679,29358,-31904,711,-26593,-2188
C00707=3704,29338,-31927,707,-26585,-2198
C00708=3729,29318,-31951,704,-26578,-2207
C00709=3761,29318,-31952,699,-26578,-2220
C00710=3794,29316,-31954,694,-26578,-2232
C00711=3819,29297,-31977,691,-26571,-2242
C00712=3851,29295,-31979,686,-26571,-2255
C00713=3877,29276,-32002,682,-26564,-2265
C00714=3909,29274,-32004,677,-26563,-2277
C00715=3934,29255,-32027,674,-26556,-2287
C00716=3968,29258,-32024,669,-26558,-2300
C00717=4002,29260,-32020,664,-26559,-2313
C00718=4036,29263,-32017,659,-26561,-2326
C00719=4070,29266,-32013,654,-26562,-2339
C00720=4096,29249,-32033,650,-26556,-2350
C00721=4128,29245,-32038,645,-26555,-2362
C00722=4162,29248,-32035,640,-26556,-2375
C00723=4195,29250,-32031,635,-26557,-2388
C00724=4229,29253,-32028,630,-26559,-2401
C00725=4263,29256,-32024,625,-26560,-2414
C00726=4297,29258,-32021,620,-26561,-2427
C00727=4331,29261,-32017,615,-26563,-2440
C00728=4365,29264,-32014,610,-26564,-2453
C00729=4399,29267,-32010,605,-26565,-2466
C00730=4428,29256,-32022,601,-26562,-2478
C00731=4457,29246,-32035,597,-26558,-2489
C00732=4484,29260,-32017,592,-26564,-2499
C00733=4497,29287,-31985,590,-26574,-2504
C00734=4516,29301,-31967,587,-26580,-2511
C00735=4543,29287,-31984,583,-26575,-2522
C00736=4534,29277,-31996,585,-26571,-2518
C00737=4500,29275,-32000,590,-26569,-2505
C00738=4477,29253,-32026,594,-26561,-2496
C00739=4446,29245,-32036,598,-26558,-2484
C00740=4412,29242,-32040,603,-26556,-2471
C00741=4378,29239,-32043,608,-26555,-2458
C00742=4344,29237,-32047,613,-26554,-2445
C00743=4310,29234,-32050,618,-26552,-2432
C00744=4276,29231,-32054,623,-26551,-2419
C00745=4242,29228,-32057,628,-26550,-2406
C00746=4208,29226,-32061,634,-26548,-2393
C00747=4174,29223,-32064,639,-26547,-2380
C00748=4140,29220,-32068,644,-26545,-2367
C00749=4106,29218,-32071,649,-26544,-2354
C00750=4072,29215,-32075,654,-26543,-2340
C00751=4038,29212,-32078,659,-26541,-2327
C00752=4004,29209,-32082,664,-26540,-2314
C00753=3970,29207,-32085,669,-26539,-2301
C00754=3936,29204,-32089,674,-26537,-2288
C00755=3911,29224,-32065,678,-26545,-2278
C00756=3879,29225,-32064,682,-26545,-2266
C00757=3845,29222,-32067,687,-26543,-2253
C00758=3814,29227,-32062,692,-26545,-2241
C00759=3787,29243,-32042,696,-26551,-2230
C00760=3753,29240,-32046,701,-26549,-2217
C00761=3753,27687,-31837,672,-27646,-2197
C00762=3916,27861,-31624,646,-27713,-2259
C00763=3916,29414,-31833,675,-26616,-2279
C00764=3814,29450,-31791,690,-26628,-2239
C00765=3724,29517,-31710,703,-26653,-2204
C00766=3626,29562,-31656,717,-26669,-2166
C00767=3526,29601,-31610,731,-26682,-2127
C00768=3545,29683,-31509,728,-26713,-2134
C00769=3643,29640,-31561,714,-26698,-2172
C00770=3762,29650,-31548,696,-26703,-2218
C00771=3852,29711,-31473,682,-26727,-2252
C00772=3903,29789,-31379,674,-26757,-2272
C00773=4008,29823,-31336,658,-26770,-2312
C00774=4126,29834,-31322,641,-26776,-2358
C00775=4224,29883,-31262,626,-26795,-2396
C00776=4338,29901,-31240,609,-26803,-2440
C00777=4444,29935,-31197,593,-26817,-2480
C00778=4563,29944,-31185,576,-26822,-2526
C00779=4681,29954,-31173,558,-26826,-2572
C00780=4797,29956,-31169,541,-26829,-2617
C00781=4729,29932,-31199,551,-26819,-2590
C00782=4610,29923,-31211,569,-26814,-2544
C00783=4504,29889,-31253,585,-26800,-2504
C00784=4391,29869,-31278,601,-26791,-2460
C00785=4312,29785,-31380,614,-26759,-2430
C00786=4205,29754,-31419,630,-26746,-2389
C00787=4108,29703,-31481,645,-26726,-2351
C00788=4009,29656,-31539,660,-26708,-2313
C00789=3896,29635,-31565,676,-26699,-2270
C00790=3832,29568,-31648,686,-26673,-2246
C00791=3897,29502,-31727,677,-26649,-2271
C00792=3993,29451,-31788,664,-26631,-2309
C00793=4097,29421,-31824,648,-26621,-2349
C00794=4194,29472,-31761,634,-26641,-2386
C00795=4225,29570,-31642,628,-26678,-2398
C00796=4273,29663,-31529,621,-26713,-2415
C00797=4383,29654,-31539,604,-26711,-2458
C00798=4500,29658,-31533,587,-26713,-2503
C00799=4619,29668,-31521,569,-26718,-2549
C00800=4728,29651,-31541,553,-26713,-2591
C00801=4847,29661,-31528,536,-26718,-2637
C00802=4951,29697,-31483,520,-26733,-2677
C00803=5032,29778,-31385,508,-26764,-2708
C00804=5137,29812,-31342,492,-26778,-2749
C00805=5254,29816,-31336,475,-26780,-2794
C00806=5331,29846,-31300,463,-26792,-2823
C00807=5414,29911,-31220,450,-26818,-2855
C00808=5482,29865,-31275,441,-26801,-2881
C00809=5376,29831,-31317,456,-26787,-2841
C00810=5273,29792,-31365,472,-26772,-2801
C00811=5179,29738,-31431,486,-26750,-2765
C00812=5078,29695,-31485,501,-26733,-2726
C00813=4994,29621,-31575,514,-26705,-2694
C00814=4911,29545,-31668,527,-26675,-2663
C00815=4809,29504,-31719,542,-26659,-2623
C00816=4715,29448,-31788,557,-26637,-2587
C00817=4610,29411,-31833,573,-26622,-2547
C00818=4490,29402,-31845,590,-26617,-2501
C00819=4371,29392,-31858,608,-26612,-2455
C00820=4251,29382,-31870,626,-26607,-2409
C00821=4132,29373,-31882,644,-26603,-2363
C00822=4012,29363,-31895,661,-26598,-2316
C00823=3916,29414,-31833,675,-26616,-2279
C00824=3916,27861,-31624,646,-27713,-2259
C00825=4667,27786,-31711,536,-27692,-2549
C00826=4667,29339,-31920,565,-26595,-2569
C00827=4700,29342,-31917,560,-26597,-2582
C00828=4728,29352,-31904,556,-26601,-2593
C00829=4751,29371,-31880,552,-26608,-2602
C00830=4783,29374,-31877,547,-26610,-2614
C00831=4815,29377,-31874,542,-26611,-2626
C00832=4842,29390,-31857,538,-26616,-2637
C00833=4867,29406,-31837,535,-26622,-2646
C00834=4899,29409,-31834,530,-26624,-2659
C00835=4925,29423,-31816,526,-26629,-2668
C00836=4950,29439,-31798,522,-26635,-2678
C00837=4977,29451,-31782,518,-26640,-2688
C00838=4998,29473,-31755,515,-26649,-2697
C00839=5020,29495,-31728,511,-26657,-2705
C00840=5051,29501,-31721,507,-26660,-2717
C00841=5072,29524,-31693,503,-26669,-2725
C00842=5103,29529,-31687,499,-26671,-2737
C00843=5124,29551,-31659,496,-26680,-2745
C00844=5145,29574,-31632,492,-26688,-2753
C00845=5166,29596,-31604,489,-26697,-2761
C00846=5192,29611,-31586,485,-26703,-2771
C00847=5218,29624,-31570,481,-26708,-2781
C00848=5240,29647,-31543,478,-26717,-2789
C00849=5261,29669,-31515,474,-26725,-2797
C00850=5282,29692,-31488,471,-26734,-2805
C00851=5303,29714,-31460,468,-26743,-2813
C00852=5331,29725,-31447,464,-26747,-2824
C00853=5355,29742,-31426,460,-26753,-2833
C00854=5382,29755,-31410,456,-26759,-2843
C00855=5409,29744,-31423,452,-26755,-2854
C00856=5416,29724,-31448,451,-26747,-2857
C00857=5395,29701,-31475,455,-26739,-2849
C00858=5374,29679,-31503,458,-26730,-2841
C00859=5343,29674,-31509,462,-26728,-2829
C00860=5322,29651,-31537,466,-26719,-2821
C00861=5300,29629,-31564,469,-26710,-2813
C00862=5279,29606,-31592,472,-26702,-2804
C00863=5258,29584,-31619,475,-26693,-2796
C00864=5237,29561,-31647,479,-26684,-2788
C00865=5216,29539,-31674,482,-26676,-2780
C00866=5185,29533,-31681,487,-26673,-2768
C00867=5163,29511,-31708,490,-26665,-2760
C00868=5142,29488,-31736,493,-26656,-2752
C00869=5121,29466,-31763,497,-26647,-2744
C00870=5096,29450,-31782,500,-26641,-2734
C00871=5069,29438,-31797,504,-26636,-2724
C00872=5045,29421,-31819,508,-26630,-2715
C00873=5012,29418,-31822,513,-26628,-2702
C00874=4986,29405,-31838,517,-26623,-2692
C00875=4961,29388,-31859,521,-26617,-2683
C00876=4929,29386,-31862,526,-26615,-2670
C00877=4902,29372,-31878,530,-26610,-2660
C00878=4878,29356,-31898,533,-26604,-2651
C00879=4845,29353,-31902,538,-26602,-2638
C00880=4813,29351,-31905,543,-26601,-2626
C00881=4788,29334,-31925,547,-26595,-2616
C00882=4762,29321,-31941,551,-26589,-2606
C00883=4729,29319,-31945,556,-26588,-2594
C00884=4697,29316,-31948,560,-26587,-2581
C00885=4665,29313,-31951,565,-26586,-2569
C00886=4667,29339,-31920,565,-26595,-2569
C00887=4667,27786,-31711,536,-27692,-2549
C00888=7105,27271,-32323,176,-27522,-3491
C00889=7105,28824,-32532,205,-26425,-3511
C00890=7212,28968,-32356,188,-26480,-3552
C00891=7293,29120,-32171,176,-26538,-3583
C00892=7385,29268,-31990,161,-26595,-3618
C00893=7376,29403,-31826,162,-26646,-3614
C00894=7346,29566,-31627,166,-26707,-3602
C00895=7243,29624,-31557,181,-26728,-3562
C00896=7231,29781,-31366,182,-26787,-3557
C00897=7263,29946,-31165,177,-26849,-3569
C00898=7380,30058,-31028,159,-26893,-3614
C00899=7431,30218,-30834,151,-26954,-3634
C00900=7459,30146,-30921,147,-26927,-3644
C00901=7555,30115,-30958,133,-26916,-3682
C00902=7602,30276,-30762,126,-26977,-3700
C00903=7721,30335,-30690,108,-27001,-3745
C00904=7747,30158,-30905,105,-26934,-3756
C00905=7732,30042,-31046,107,-26890,-3750
C00906=7658,30195,-30860,118,-26947,-3721
C00907=7574,30045,-31043,131,-26890,-3689
C00908=7469,29901,-31219,147,-26834,-3649
C00909=7456,29731,-31427,149,-26770,-3644
C00910=7444,29560,-31635,152,-26705,-3640
C00911=7469,29404,-31825,148,-26647,-3650
C00912=7519,29259,-32000,141,-26593,-3670
C00913=7444,29162,-32119,153,-26555,-3641
C00914=7448,29007,-32307,153,-26497,-3643
C00915=7379,28853,-32496,164,-26438,-3617
C00916=7283,28705,-32676,179,-26381,-3580
C00917=7315,28534,-32883,175,-26317,-3593
C00918=7462,28605,-32797,152,-26345,-3649
C00919=7542,28756,-32612,140,-26403,-3680
C00920=7689,28795,-32565,118,-26419,-3736
C00921=7749,28634,-32760,109,-26359,-3760
C00922=7881,28552,-32859,90,-26329,-3810
C00923=7753,28443,-32993,109,-26287,-3761
C00924=7637,28315,-33149,127,-26238,-3717
C00925=7567,28160,-33337,138,-26179,-3691
C00926=7460,28016,-33513,155,-26123,-3650
C00927=7388,27893,-33664,166,-26076,-3623
C00928=7416,27839,-33729,162,-26056,-3634
C00929=7280,27741,-33850,183,-26018,-3582
C00930=7149,27603,-34018,204,-25965,-3532
C00931=6996,27499,-34145,227,-25924,-3473
C00932=7086,27649,-33962,213,-25982,-3507
C00933=7196,27793,-33786,196,-26037,-3549
C00934=7102,27841,-33729,210,-26054,-3513
C00935=7131,27950,-33595,205,-26095,-3524
C00936=7303,28019,-33511,179,-26123,-3590
C00937=7443,28140,-33363,157,-26170,-3643
C00938=7524,28291,-33178,144,-26228,-3674
C00939=7627,28393,-33053,128,-26267,-3713
C00940=7581,28494,-32931,135,-26305,-3696
C00941=7713,28628,-32768,115,-26356,-3746
C00942=7609,28743,-32628,130,-26399,-3705
C00943=7501,28599,-32804,147,-26344,-3664
C00944=7421,28447,-32989,159,-26286,-3634
C00945=7265,28418,-33026,183,-26273,-3574
C00946=7203,28571,-32840,191,-26330,-3550
C00947=7032,28601,-32804,217,-26340,-3484
C00948=7069,28671,-32719,211,-26367,-3498
C00949=7105,28824,-32532,205,-26425,-3511
C00950=7105,27271,-32323,176,-27522,-3491
C00951=7181,26807,-32887,166,-27347,-3522
C00952=7181,28360,-33096,195,-26250,-3542
C00953=7195,28361,-33095,193,-26251,-3547
C00954=7207,28356,-33101,192,-26249,-3552
C00955=7218,28348,-33111,190,-26246,-3556
C00956=7229,28340,-33121,188,-26243,-3560
C00957=7240,28332,-33131,187,-26240,-3565
C00958=7251,28323,-33141,185,-26237,-3569
C00959=7262,28315,-33150,184,-26234,-3573
C00960=7253,28306,-33162,185,-26231,-3570
C00961=7244,28296,-33174,186,-26227,-3566
C00962=7235,28286,-33186,188,-26223,-3563
C00963=7226,28276,-33198,189,-26219,-3559
C00964=7217,28267,-33210,190,-26216,-3556
C00965=7211,28256,-33223,191,-26211,-3554
C00966=7212,28243,-33238,191,-26207,-3554
C00967=7210,28232,-33253,192,-26202,-3554
C00968=7201,28222,-33264,193,-26198,-3550
C00969=7192,28212,-33276,194,-26195,-3547
C00970=7183,28202,-33288,196,-26191,-3543
C00971=7174,28193,-33300,197,-26187,-3540
C00972=7165,28183,-33312,199,-26184,-3536
C00973=7156,28173,-33324,200,-26180,-3533
C00974=7146,28164,-33336,202,-26176,-3529
C00975=7137,28154,-33348,203,-26172,-3526
C00976=7136,28142,-33362,203,-26168,-3525
C00977=7137,28129,-33377,203,-26163,-3526
C00978=7131,28119,-33390,204,-26159,-3523
C00979=7122,28109,-33402,205,-26155,-3520
C00980=7112,28099,-33414,207,-26151,-3516
C00981=7103,28090,-33426,208,-26148,-3513
C00982=7094,28080,-33438,210,-26144,-3509
C00983=7085,28070,-33450,211,-26140,-3506
C00984=7071,28069,-33451,213,-26140,-3500
C00985=7056,28068,-33452,215,-26139,-3495
C00986=7055,28081,-33437,216,-26144,-3494
C00987=7054,28093,-33422,216,-26149,-3494
C00988=7053,28106,-33406,216,-26153,-3493
C00989=7051,28119,-33391,216,-26158,-3493
C00990=7060,28128,-33379,215,-26162,-3496
C00991=7069,28138,-33367,213,-26166,-3500
C00992=7077,28148,-33355,212,-26170,-3503
C00993=7076,28161,-33339,212,-26174,-3502
C00994=7075,28173,-33324,212,-26179,-3501
C00995=7073,28186,-33309,212,-26184,-3501
C00996=7073,28198,-33294,212,-26189,-3501
C00997=7082,28208,-33282,211,-26192,-3504
C00998=7092,28218,-33270,210,-26196,-3508
C00999=7101,28228,-33258,208,-26200,-3511
C01000=7110,28237,-33246,207,-26204,-3515
C01001=7119,28247,-33234,205,-26207,-3518
C01002=7128,28257,-33222,204,-26211,-3522
C01003=7137,28267,-33210,202,-26215,-3525
C01004=7146,28276,-33199,201,-26219,-3529
C01005=7150,28288,-33185,200,-26223,-3530
C01006=7148,28300,-33169,201,-26228,-3529
C01007=7153,28311,-33156,200,-26232,-3531
C01008=7162,28321,-33144,199,-26236,-3535
C01009=7171,28331,-33132,197,-26239,-3538
C01010=7173,28343,-33118,197,-26244,-3539
C01011=7172,28355,-33102,197,-26248,-3538
C01012=7181,28360,-33096,195,-26250,-3542
C01013=7181,26807,-32887,166,-27347,-3522
C01014=7717,26624,-33108,87,-27283,-3728
C01015=7717,28177,-33317,116,-26186,-3748
C01016=7725,28186,-33305,114,-26190,-3752
C01017=7734,28195,-33294,113,-26193,-3755
C01018=7746,28199,-33290,111,-26195,-3760
C01019=7760,28200,-33288,109,-26195,-3765
C01020=7771,28206,-33281,108,-26198,-3769
C01021=7779,28215,-33269,106,-26201,-3772
C01022=7788,28225,-33258,105,-26205,-3776
C01023=7800,28229,-33253,103,-26206,-3780
C01024=7814,28230,-33252,101,-26207,-3786
C01025=7828,28231,-33250,99,-26207,-3791
C01026=7841,28232,-33249,97,-26208,-3796
C01027=7855,28233,-33247,95,-26209,-3801
C01028=7869,28234,-33246,93,-26209,-3807
C01029=7883,28235,-33245,91,-26210,-3812
C01030=7896,28236,-33243,89,-26210,-3817
C01031=7910,28237,-33242,86,-26211,-3822
C01032=7924,28238,-33241,84,-26211,-3828
C01033=7937,28238,-33241,82,-26211,-3833
C01034=7947,28230,-33251,81,-26208,-3837
C01035=7958,28222,-33260,79,-26205,-3841
C01036=7964,28214,-33271,78,-26202,-3843
C01037=7955,28204,-33282,80,-26199,-3840
C01038=7946,28195,-33293,81,-26195,-3837
C01039=7936,28188,-33302,83,-26192,-3833
C01040=7922,28187,-33303,85,-26192,-3827
C01041=7910,28184,-33307,87,-26191,-3822
C01042=7901,28175,-33318,88,-26187,-3819
C01043=7892,28165,-33330,89,-26183,-3816
C01044=7883,28156,-33341,91,-26180,-3812
C01045=7875,28147,-33353,92,-26176,-3809
C01046=7866,28137,-33364,93,-26172,-3806
C01047=7860,28127,-33377,94,-26169,-3804
C01048=7862,28115,-33391,94,-26164,-3804
C01049=7861,28103,-33405,94,-26160,-3804
C01050=7852,28094,-33417,96,-26156,-3800
C01051=7843,28084,-33428,97,-26152,-3797
C01052=7833,28077,-33437,99,-26150,-3793
C01053=7819,28076,-33439,101,-26149,-3788
C01054=7806,28075,-33440,103,-26149,-3783
C01055=7792,28074,-33441,105,-26148,-3777
C01056=7778,28073,-33443,107,-26147,-3772
C01057=7764,28072,-33444,109,-26147,-3767
C01058=7751,28071,-33445,111,-26146,-3762
C01059=7740,28079,-33436,113,-26149,-3757
C01060=7729,28087,-33426,114,-26152,-3753
C01061=7719,28094,-33417,116,-26155,-3749
C01062=7705,28093,-33419,118,-26154,-3744
C01063=7691,28092,-33420,120,-26154,-3739
C01064=7677,28091,-33422,122,-26153,-3733
C01065=7664,28090,-33423,124,-26153,-3728
C01066=7674,28090,-33422,123,-26153,-3732
C01067=7687,28092,-33421,120,-26154,-3737
C01068=7697,28099,-33411,119,-26157,-3741
C01069=7706,28108,-33400,118,-26160,-3744
C01070=7715,28118,-33388,116,-26164,-3748
C01071=7715,28130,-33374,116,-26168,-3748
C01072=7714,28142,-33359,116,-26173,-3747
C01073=7713,28154,-33344,116,-26177,-3747
C01074=7711,28166,-33330,117,-26182,-3746
C01075=7717,28177,-33317,116,-26186,-3748
C01076=7717,26624,-33108,87,-27283,-3728
C01077=8084,26899,-32770,31,-27390,-3869
C01078=8084,28452,-32979,60,-26293,-3889
C01079=8006,29373,-31859,69,-26640,-3857
C01080=7856,30372,-30643,88,-27016,-3797
C01081=7433,31222,-29611,148,-27333,-3632
C01082=7666,31558,-29201,113,-27462,-3722
C01083=7548,32443,-28123,128,-27795,-3674
C01084=6920,32171,-28460,219,-27685,-3431
C01085=6976,32929,-27537,209,-27972,-3451
C01086=6664,33862,-26403,250,-28320,-3328
C01087=6557,34397,-25754,264,-28521,-3285
C01088=5794,35014,-25010,369,-28744,-2984
C01089=4919,35456,-24481,489,-28899,-2640
C01090=4044,35861,-23998,607,-29039,-2295
C01091=3202,36322,-23448,719,-29200,-1961
C01092=2394,36838,-22830,825,-29382,-1640
C01093=1601,37354,-22213,927,-29563,-1323
C01094=1759,37359,-22205,905,-29567,-1385
C01095=2547,36825,-22844,804,-29379,-1700
C01096=3357,36308,-23462,698,-29197,-2022
C01097=4201,35849,-24011,585,-29036,-2356
C01098=5082,35462,-24472,466,-28903,-2704
C01099=5955,35006,-25017,346,-28743,-3048
C01100=6613,34361,-25797,256,-28508,-3307
C01101=6847,33388,-26978,226,-28144,-3400
C01102=7407,32576,-27962,148,-27844,-3619
C01103=7831,33004,-27439,86,-28010,-3784
C01104=7909,32427,-28141,76,-27793,-3815
C01105=7856,31634,-29106,85,-27493,-3795
C01106=8072,30887,-30014,55,-27213,-3880
C01107=7867,31065,-29799,85,-27278,-3800
C01108=7501,31247,-29580,138,-27343,-3658
C01109=7833,30505,-30481,91,-27066,-3788
C01110=8018,29522,-31677,67,-26697,-3861
C01111=8192,28511,-32907,43,-26316,-3930
C01112=8347,27588,-34031,23,-25969,-3991
C01113=8542,26585,-35251,-4,-25592,-4068
C01114=9009,27054,-34677,-76,-25773,-4246
C01115=9017,27920,-33622,-79,-26101,-4248
C01116=8901,28605,-32789,-63,-26359,-4203
C01117=8728,29510,-31688,-39,-26699,-4135
C01118=8966,28778,-32577,-73,-26425,-4228
C01119=9068,27750,-33830,-87,-26037,-4268
C01120=9139,26729,-35072,-95,-25652,-4297
C01121=9232,25897,-36085,-108,-25338,-4333
C01122=10308,25590,-36456,-273,-25230,-4745
C01123=11386,25256,-36859,-439,-25111,-5156
C01124=12487,24960,-37218,-610,-25006,-5576
C01125=13618,24727,-37498,-786,-24926,-6006
C01126=12857,24800,-37411,-668,-24948,-5716
C01127=11737,25054,-37105,-494,-25037,-5290
C01128=10676,25380,-36711,-330,-25153,-4885
C01129=9604,25714,-36308,-165,-25271,-4476
C01130=9214,24934,-37258,-103,-24974,-4328
C01131=9183,24696,-37548,-97,-24884,-4317
C01132=9297,24212,-38138,-114,-24702,-4361
C01133=9029,23955,-38451,-71,-24603,-4260
C01134=8954,24874,-37332,-62,-24950,-4229
C01135=8493,25666,-36370,6,-25245,-4052
C01136=8514,26511,-35341,0,-25564,-4058
C01137=8311,27488,-34152,28,-25931,-3978
C01138=8084,28452,-32979,60,-26293,-3889
C01139=8084,26899,-32770,31,-27390,-3869
C01140=8462,27344,-32226,-27,-27562,-4014
C01141=8462,28897,-32435,2,-26465,-4034
C01142=8439,28915,-32414,5,-26471,-4025
C01143=8429,28939,-32385,7,-26480,-4021
C01144=8410,28959,-32360,9,-26488,-4014
C01145=8387,28977,-32339,13,-26494,-4004
C01146=8365,28995,-32317,16,-26501,-3996
C01147=8362,29022,-32284,17,-26511,-3995
C01148=8358,29049,-32251,17,-26521,-3993
C01149=8355,29077,-32218,17,-26532,-3992
C01150=8359,29102,-32187,17,-26541,-3994
C01151=8378,29123,-32162,14,-26549,-4001
C01152=8375,29150,-32128,14,-26559,-4000
C01153=8372,29177,-32095,15,-26570,-3998
C01154=8368,29204,-32062,15,-26580,-3997
C01155=8365,29231,-32029,16,-26590,-3996
C01156=8355,29255,-32000,17,-26599,-3992
C01157=8331,29273,-31979,20,-26605,-3983
C01158=8308,29290,-31958,24,-26612,-3974
C01159=8298,29314,-31928,25,-26621,-3970
C01160=8295,29342,-31895,26,-26631,-3968
C01161=8292,29369,-31862,26,-26641,-3967
C01162=8288,29396,-31829,27,-26652,-3966
C01163=8285,29423,-31796,27,-26662,-3965
C01164=8282,29450,-31763,27,-26672,-3963
C01165=8279,29477,-31730,28,-26682,-3962
C01166=8275,29505,-31697,28,-26693,-3961
C01167=8279,29521,-31677,28,-26699,-3962
C01168=8302,29503,-31698,24,-26692,-3971
C01169=8307,29477,-31731,24,-26682,-3973
C01170=8330,29459,-31752,20,-26676,-3982
C01171=8341,29435,-31781,19,-26667,-3986
C01172=8344,29408,-31814,18,-26657,-3987
C01173=8347,29381,-31847,18,-26646,-3989
C01174=8350,29354,-31880,17,-26636,-3990
C01175=8372,29335,-31903,14,-26629,-3998
C01176=8384,29312,-31931,13,-26621,-4003
C01177=8387,29285,-31964,12,-26611,-4004
C01178=8390,29258,-31997,12,-26600,-4005
C01179=8410,29238,-32021,9,-26593,-4013
C01180=8424,29216,-32047,7,-26585,-4018
C01181=8427,29189,-32080,6,-26575,-4020
C01182=8431,29162,-32113,6,-26564,-4021
C01183=8447,29141,-32139,4,-26557,-4027
C01184=8471,29123,-32160,0,-26550,-4037
C01185=8494,29106,-32181,-3,-26544,-4046
C01186=8476,29085,-32207,-1,-26536,-4039
C01187=8457,29064,-32232,2,-26528,-4031
C01188=8445,29041,-32261,4,-26519,-4027
C01189=8457,29018,-32289,2,-26510,-4031
C01190=8481,29002,-32308,-1,-26504,-4041
C01191=8511,29004,-32305,-6,-26506,-4052
C01192=8542,29007,-32302,-10,-26507,-4064
C01193=8570,29004,-32305,-15,-26506,-4075
C01194=8594,28986,-32327,-18,-26500,-4084
C01195=8566,28983,-32331,-14,-26498,-4074
C01196=8537,28979,-32335,-10,-26496,-4062
C01197=8518,28958,-32361,-7,-26488,-4055
C01198=8516,28933,-32392,-6,-26479,-4054
C01199=8519,28905,-32425,-7,-26468,-4055
C01200=8493,28900,-32432,-3,-26466,-4045
C01201=8462,28897,-32435,2,-26465,-4034
C01202=8462,27344,-32226,-27,-27562,-4014
C01203=8823,28119,-31281,-82,-27858,-4152
C01204=8823,29672,-31490,-53,-26761,-4172
C01205=8782,29694,-31463,-47,-26769,-4156
C01206=8733,29692,-31466,-40,-26768,-4137
C01207=8695,29721,-31431,-35,-26778,-4122
C01208=8670,29756,-31388,-31,-26791,-4113
C01209=8675,29798,-31337,-32,-26807,-4115
C01210=8689,29837,-31289,-34,-26822,-4120
C01211=8683,29882,-31235,-33,-26839,-4117
C01212=8677,29926,-31181,-32,-26856,-4115
C01213=8672,29971,-31126,-32,-26873,-4113
C01214=8666,30016,-31072,-31,-26889,-4111
C01215=8661,30060,-31018,-30,-26906,-4109
C01216=8630,30093,-30979,-26,-26918,-4097
C01217=8623,30136,-30925,-25,-26935,-4094
C01218=8646,30173,-30881,-28,-26949,-4103
C01219=8641,30217,-30827,-27,-26965,-4101
C01220=8677,30236,-30804,-33,-26973,-4115
C01221=8690,30275,-30756,-35,-26988,-4120
C01222=8684,30320,-30702,-34,-27005,-4117
C01223=8653,30352,-30663,-29,-27016,-4105
C01224=8646,30396,-30609,-28,-27033,-4103
C01225=8669,30432,-30565,-32,-27047,-4112
C01226=8631,30461,-30530,-26,-27057,-4097
C01227=8593,30489,-30495,-21,-27068,-4082
C01228=8575,30527,-30450,-18,-27082,-4075
C01229=8615,30544,-30429,-24,-27089,-4091
C01230=8622,30585,-30379,-25,-27104,-4093
C01231=8601,30622,-30334,-22,-27118,-4085
C01232=8562,30651,-30299,-17,-27128,-4070
C01233=8582,30685,-30257,-19,-27142,-4078
C01234=8603,30709,-30228,-23,-27151,-4086
C01235=8636,30734,-30198,-27,-27161,-4098
C01236=8664,30700,-30239,-32,-27148,-4109
C01237=8670,30655,-30293,-32,-27131,-4111
C01238=8675,30611,-30347,-33,-27115,-4114
C01239=8681,30566,-30401,-34,-27098,-4116
C01240=8716,30536,-30438,-39,-27087,-4129
C01241=8754,30507,-30473,-45,-27076,-4144
C01242=8777,30471,-30517,-48,-27063,-4153
C01243=8805,30442,-30551,-52,-27052,-4164
C01244=8766,30423,-30575,-46,-27044,-4149
C01245=8765,30384,-30623,-46,-27030,-4149
C01246=8775,30363,-30648,-47,-27022,-4153
C01247=8740,30336,-30681,-42,-27011,-4139
C01248=8744,30292,-30735,-43,-26995,-4141
C01249=8750,30247,-30789,-43,-26978,-4143
C01250=8755,30203,-30843,-44,-26961,-4145
C01251=8761,30158,-30898,-45,-26944,-4147
C01252=8767,30114,-30952,-46,-26928,-4149
C01253=8743,30077,-30996,-42,-26914,-4140
C01254=8749,30033,-31051,-43,-26897,-4143
C01255=8754,29988,-31105,-44,-26880,-4145
C01256=8765,29946,-31156,-45,-26864,-4149
C01257=8803,29917,-31191,-51,-26854,-4164
C01258=8825,29880,-31236,-54,-26840,-4172
C01259=8830,29836,-31290,-55,-26823,-4174
C01260=8836,29791,-31345,-56,-26806,-4177
C01261=8864,29757,-31386,-60,-26794,-4187
C01262=8874,29715,-31437,-61,-26778,-4191
C01263=8872,29676,-31485,-61,-26763,-4191
C01264=8823,29672,-31490,-53,-26761,-4172
C01265=8823,28119,-31281,-82,-27858,-4152
C01266=7424,28212,-31176,125,-27880,-3612
C01267=7424,29765,-31385,154,-26783,-3632
C01268=7423,29776,-31371,154,-26787,-3631
C01269=7421,29788,-31357,154,-26791,-3631
C01270=7420,29799,-31343,154,-26795,-3630
C01271=7419,29811,-31330,154,-26800,-3630
C01272=7418,29822,-31316,155,-26804,-3629
C01273=7416,29833,-31302,155,-26808,-3629
C01274=7415,29845,-31288,155,-26813,-3628
C01275=7414,29856,-31274,155,-26817,-3628
C01276=7413,29867,-31261,155,-26821,-3627
C01277=7412,29879,-31247,155,-26825,-3627
C01278=7410,29890,-31233,155,-26830,-3626
C01279=7409,29901,-31219,156,-26834,-3626
C01280=7408,29913,-31205,156,-26838,-3625
C01281=7402,29922,-31194,157,-26842,-3623
C01282=7393,29929,-31185,158,-26844,-3619
C01283=7383,29936,-31177,159,-26847,-3616
C01284=7373,29944,-31168,161,-26850,-3612
C01285=7364,29951,-31159,162,-26852,-3608
C01286=7354,29958,-31150,164,-26855,-3604
C01287=7345,29963,-31144,165,-26857,-3601
C01288=7337,29954,-31155,166,-26853,-3598
C01289=7329,29946,-31166,167,-26850,-3595
C01290=7321,29937,-31177,169,-26846,-3592
C01291=7322,29925,-31190,168,-26842,-3592
C01292=7323,29914,-31204,168,-26838,-3593
C01293=7317,29905,-31216,169,-26834,-3590
C01294=7310,29896,-31226,170,-26831,-3587
C01295=7302,29887,-31237,172,-26828,-3584
C01296=7299,29877,-31249,172,-26824,-3583
C01297=7300,29866,-31263,172,-26819,-3584
C01298=7301,29854,-31277,172,-26815,-3584
C01299=7302,29843,-31291,172,-26811,-3585
C01300=7304,29832,-31305,171,-26807,-3585
C01301=7305,29820,-31318,171,-26802,-3586
C01302=7306,29809,-31332,171,-26798,-3586
C01303=7314,29801,-31342,170,-26795,-3589
C01304=7324,29794,-31351,169,-26792,-3593
C01305=7334,29786,-31359,167,-26790,-3597
C01306=7332,29778,-31369,168,-26787,-3596
C01307=7324,29769,-31380,169,-26783,-3593
C01308=7316,29761,-31391,170,-26780,-3590
C01309=7312,29751,-31403,170,-26776,-3589
C01310=7313,29739,-31417,170,-26772,-3589
C01311=7315,29728,-31431,170,-26768,-3590
C01312=7316,29717,-31444,170,-26763,-3590
C01313=7317,29705,-31458,170,-26759,-3591
C01314=7327,29698,-31467,169,-26756,-3594
C01315=7336,29691,-31476,167,-26754,-3598
C01316=7346,29683,-31485,166,-26751,-3602
C01317=7358,29683,-31485,164,-26751,-3607
C01318=7371,29684,-31484,162,-26752,-3611
C01319=7380,29689,-31477,161,-26754,-3615
C01320=7388,29698,-31467,159,-26757,-3618
C01321=7396,29707,-31456,158,-26760,-3621
C01322=7401,29717,-31444,158,-26764,-3623
C01323=7399,29728,-31430,158,-26768,-3622
C01324=7400,29739,-31417,158,-26773,-3622
C01325=7408,29748,-31406,156,-26776,-3626
C01326=7416,29756,-31395,155,-26779,-3629
C01327=7424,29765,-31385,154,-26783,-3632
C01328=7424,28212,-31176,125,-27880,-3612
C01329=7314,28897,-30343,139,-28137,-3568
C01330=7314,30450,-30552,168,-27040,-3588
C01331=7267,30446,-30557,175,-27038,-3569
C01332=7262,30490,-30504,175,-27054,-3568
C01333=7257,30534,-30451,176,-27071,-3566
C01334=7250,30576,-30399,177,-27087,-3563
C01335=7213,30604,-30365,182,-27097,-3548
C01336=7190,30639,-30322,185,-27110,-3539
C01337=7158,30670,-30286,190,-27121,-3527
C01338=7128,30701,-30247,194,-27133,-3515
C01339=7123,30745,-30194,195,-27149,-3513
C01340=7103,30781,-30150,198,-27163,-3505
C01341=7088,30820,-30103,200,-27177,-3499
C01342=7101,30859,-30056,198,-27192,-3504
C01343=7107,30899,-30006,197,-27207,-3507
C01344=7121,30938,-29959,194,-27222,-3512
C01345=7127,30979,-29910,193,-27238,-3514
C01346=7122,31022,-29856,194,-27254,-3512
C01347=7091,31053,-29819,198,-27265,-3500
C01348=7087,31097,-29766,199,-27282,-3498
C01349=7056,31128,-29728,203,-27293,-3486
C01350=7051,31172,-29675,204,-27310,-3484
C01351=7046,31216,-29621,204,-27326,-3482
C01352=7042,31260,-29568,205,-27343,-3481
C01353=7040,31303,-29516,205,-27359,-3480
C01354=7072,31321,-29494,200,-27366,-3492
C01355=7108,31292,-29528,195,-27356,-3506
C01356=7125,31255,-29574,193,-27342,-3513
C01357=7130,31211,-29627,192,-27325,-3515
C01358=7135,31167,-29680,192,-27309,-3517
C01359=7139,31123,-29734,191,-27292,-3519
C01360=7144,31079,-29787,191,-27276,-3520
C01361=7175,31048,-29824,186,-27264,-3533
C01362=7179,31005,-29878,186,-27248,-3534
C01363=7184,30961,-29931,185,-27231,-3536
C01364=7189,30917,-29984,185,-27215,-3538
C01365=7214,30883,-30025,181,-27203,-3548
C01366=7251,30855,-30059,176,-27192,-3562
C01367=7269,30818,-30104,173,-27178,-3570
C01368=7306,30790,-30138,168,-27168,-3584
C01369=7343,30761,-30173,162,-27158,-3598
C01370=7376,30731,-30209,158,-27147,-3611
C01371=7399,30696,-30252,155,-27134,-3620
C01372=7417,30659,-30297,152,-27120,-3627
C01373=7443,30625,-30338,148,-27107,-3637
C01374=7472,30593,-30377,144,-27096,-3649
C01375=7491,30556,-30422,141,-27082,-3656
C01376=7510,30519,-30466,139,-27068,-3664
C01377=7546,30490,-30501,133,-27058,-3677
C01378=7557,30470,-30526,132,-27050,-3682
C01379=7511,30470,-30526,139,-27050,-3664
C01380=7470,30488,-30504,145,-27056,-3648
C01381=7430,30492,-30500,151,-27057,-3632
C01382=7425,30536,-30447,151,-27073,-3630
C01383=7407,30573,-30401,154,-27087,-3623
C01384=7369,30601,-30367,159,-27098,-3609
C01385=7332,30630,-30333,164,-27108,-3594
C01386=7306,30597,-30372,168,-27096,-3584
C01387=7292,30559,-30419,171,-27081,-3579
C01388=7287,30518,-30469,172,-27065,-3577
C01389=7292,30474,-30522,171,-27049,-3579
C01390=7314,30450,-30552,168,-27040,-3588
C01391=7314,28897,-30343,139,-28137,-3568
C01392=8051,29600,-29482,29,-28410,-3852
C01393=8051,31153,-29691,58,-27313,-3872
C01394=8049,31167,-29674,58,-27318,-3871
C01395=8045,31180,-29658,58,-27323,-3869
C01396=8033,31189,-29647,60,-27327,-3865
C01397=8021,31198,-29636,62,-27330,-3860
C01398=8016,31211,-29621,63,-27335,-3858
C01399=8015,31225,-29603,63,-27340,-3857
C01400=8004,31235,-29591,64,-27344,-3853
C01401=7992,31244,-29580,66,-27347,-3848
C01402=7983,31255,-29567,67,-27351,-3845
C01403=7982,31269,-29550,68,-27356,-3845
C01404=7990,31276,-29541,66,-27359,-3848
C01405=8005,31277,-29540,64,-27360,-3854
C01406=8021,31279,-29538,62,-27360,-3860
C01407=8036,31280,-29536,60,-27361,-3866
C01408=8051,31281,-29535,57,-27362,-3871
C01409=8065,31284,-29531,55,-27363,-3877
C01410=8075,31295,-29517,54,-27367,-3881
C01411=8085,31306,-29504,52,-27371,-3884
C01412=8087,31320,-29488,52,-27376,-3885
C01413=8085,31334,-29470,52,-27382,-3884
C01414=8083,31348,-29453,53,-27387,-3884
C01415=8083,31361,-29437,52,-27392,-3884
C01416=8099,31362,-29436,50,-27393,-3890
C01417=8114,31363,-29434,48,-27393,-3896
C01418=8129,31365,-29432,46,-27394,-3902
C01419=8142,31371,-29425,44,-27396,-3906
C01420=8151,31382,-29411,43,-27401,-3910
C01421=8161,31393,-29398,41,-27405,-3914
C01422=8170,31404,-29384,40,-27409,-3917
C01423=8180,31415,-29371,38,-27413,-3921
C01424=8184,31428,-29356,38,-27418,-3923
C01425=8182,31442,-29338,38,-27424,-3922
C01426=8183,31436,-29345,38,-27422,-3922
C01427=8185,31422,-29362,38,-27416,-3923
C01428=8187,31408,-29379,37,-27411,-3924
C01429=8189,31394,-29396,37,-27406,-3925
C01430=8202,31385,-29407,35,-27402,-3930
C01431=8214,31376,-29418,33,-27399,-3934
C01432=8220,31364,-29433,33,-27395,-3937
C01433=8221,31350,-29450,32,-27389,-3937
C01434=8210,31346,-29455,34,-27388,-3933
C01435=8194,31344,-29457,36,-27387,-3927
C01436=8185,31333,-29470,38,-27383,-3923
C01437=8175,31322,-29484,39,-27378,-3919
C01438=8165,31311,-29497,41,-27374,-3916
C01439=8156,31300,-29511,42,-27370,-3912
C01440=8146,31289,-29524,43,-27366,-3908
C01441=8136,31278,-29537,45,-27361,-3904
C01442=8127,31267,-29551,46,-27357,-3901
C01443=8122,31255,-29566,47,-27352,-3899
C01444=8124,31241,-29583,47,-27347,-3900
C01445=8125,31227,-29601,47,-27342,-3900
C01446=8127,31212,-29618,46,-27336,-3901
C01447=8119,31201,-29632,48,-27332,-3898
C01448=8110,31190,-29645,49,-27328,-3894
C01449=8100,31179,-29659,50,-27323,-3890
C01450=8090,31168,-29672,52,-27319,-3887
C01451=8081,31157,-29686,53,-27315,-3883
C01452=8066,31154,-29690,55,-27314,-3878
C01453=8051,31153,-29691,58,-27313,-3872
C01454=8051,29600,-29482,29,-28410,-3852
C01455=8475,29670,-29393,-34,-28441,-4016
C01456=8475,31223,-29602,-5,-27344,-4036
C01457=8451,31288,-29523,-1,-27368,-4026
C01458=8470,31353,-29445,-4,-27393,-4034
C01459=8493,31371,-29422,-7,-27400,-4043
C01460=8505,31300,-29509,-9,-27373,-4047
C01461=8524,31232,-29591,-12,-27348,-4055
C01462=8590,31197,-29634,-21,-27335,-4080
C01463=8622,31252,-29567,-26,-27356,-4093
C01464=8641,31316,-29488,-29,-27381,-4100
C01465=8632,31389,-29400,-28,-27408,-4096
C01466=8623,31461,-29311,-26,-27436,-4093
C01467=8613,31534,-29223,-25,-27463,-4089
C01468=8604,31606,-29134,-24,-27490,-4085
C01469=8569,31666,-29062,-19,-27513,-4072
C01470=8560,31739,-28974,-18,-27540,-4068
C01471=8514,31793,-28908,-11,-27560,-4050
C01472=8461,31767,-28940,-3,-27550,-4030
C01473=8454,31699,-29023,-2,-27524,-4027
C01474=8463,31626,-29111,-3,-27496,-4031
C01475=8473,31554,-29200,-5,-27469,-4034
C01476=8447,31535,-29223,-1,-27462,-4025
C01477=8438,31608,-29134,0,-27489,-4021
C01478=8405,31668,-29060,5,-27512,-4008
C01479=8394,31740,-28973,6,-27539,-4004
C01480=8385,31813,-28885,8,-27566,-4000
C01481=8435,31854,-28834,0,-27582,-4020
C01482=8446,31914,-28761,-1,-27605,-4024
C01483=8419,31978,-28683,2,-27629,-4013
C01484=8494,31987,-28672,-8,-27633,-4042
C01485=8556,31945,-28723,-17,-27618,-4067
C01486=8612,31976,-28684,-25,-27630,-4088
C01487=8642,31957,-28707,-30,-27623,-4100
C01488=8641,31887,-28792,-30,-27597,-4099
C01489=8632,31820,-28874,-28,-27571,-4096
C01490=8641,31747,-28963,-30,-27544,-4100
C01491=8650,31675,-29051,-31,-27517,-4103
C01492=8660,31602,-29139,-32,-27489,-4107
C01493=8669,31530,-29228,-33,-27462,-4111
C01494=8678,31457,-29316,-35,-27435,-4114
C01495=8688,31384,-29404,-36,-27407,-4118
C01496=8697,31312,-29493,-37,-27380,-4122
C01497=8706,31239,-29581,-38,-27353,-4125
C01498=8716,31167,-29670,-40,-27325,-4129
C01499=8725,31094,-29758,-41,-27298,-4133
C01500=8761,31034,-29831,-46,-27276,-4146
C01501=8770,30962,-29919,-47,-27248,-4150
C01502=8768,30892,-30003,-47,-27222,-4149
C01503=8729,30848,-30058,-41,-27205,-4134
C01504=8720,30921,-29969,-40,-27232,-4131
C01505=8710,30993,-29881,-39,-27260,-4127
C01506=8701,31066,-29793,-37,-27287,-4123
C01507=8647,31117,-29731,-30,-27306,-4102
C01508=8590,31127,-29719,-21,-27309,-4080
C01509=8591,31057,-29804,-21,-27282,-4081
C01510=8600,30984,-29893,-23,-27255,-4084
C01511=8605,30915,-29977,-23,-27229,-4086
C01512=8575,30964,-29918,-19,-27247,-4074
C01513=8566,31036,-29829,-18,-27274,-4071
C01514=8530,31096,-29757,-12,-27297,-4057
C01515=8495,31156,-29684,-7,-27319,-4043
C01516=8475,29670,-29393,-34,-28441,-4016
C01517=-41004,59868,4099,4900,-34257,16705
C01518=-41004,59868,1099,4900,-34257,16705
C01519=-41004,64596,1380,5213,-31659,16463
C01520=-41004,59868,1099,4900,-34257,16705
C01521=-41004,59868,9099,4900,-34257,16705
C01522=8475,29670,-29393,-34,-28441,-4016
C01523=8475,31223,-29602,-5,-27344,-4036
C01524=8475,29670,-29393,-34,-28441,-4016
C01525=8141,30456,-28439,14,-28734,-3885
C01526=8141,32009,-28648,43,-27637,-3905
C01527=8127,32127,-28505,45,-27682,-3900
C01528=8112,32264,-28338,47,-27734,-3894
C01529=8234,32320,-28268,29,-27756,-3941
C01530=8342,32379,-28195,13,-27780,-3983
C01531=8324,32518,-28026,16,-27832,-3976
C01532=8307,32657,-27857,18,-27885,-3969
C01533=8341,32599,-27927,13,-27863,-3983
C01534=8361,32462,-28094,10,-27811,-3990
C01535=8489,32471,-28082,-8,-27816,-4040
C01536=8450,32596,-27930,-3,-27863,-4025
C01537=8433,32735,-27761,0,-27916,-4018
C01538=8443,32866,-27601,-2,-27965,-4022
C01539=8358,32971,-27474,10,-28004,-3989
C01540=8284,33050,-27379,21,-28033,-3960
C01541=8323,33172,-27229,15,-28080,-3975
C01542=8406,33253,-27130,3,-28111,-4007
C01543=8403,33387,-26967,3,-28162,-4006
C01544=8386,33526,-26797,6,-28214,-3999
C01545=8299,33618,-26686,18,-28248,-3966
C01546=8281,33749,-26526,20,-28297,-3958
C01547=8342,33865,-26385,12,-28342,-3982
C01548=8324,34003,-26216,14,-28394,-3975
C01549=8306,34142,-26047,17,-28447,-3968
C01550=8316,34273,-25888,15,-28496,-3972
C01551=8326,34404,-25728,14,-28546,-3976
C01552=8308,34543,-25559,16,-28598,-3969
C01553=8232,34651,-25428,27,-28638,-3939
C01554=8209,34779,-25272,30,-28686,-3930
C01555=8208,34913,-25109,30,-28737,-3929
C01556=8191,35051,-24940,32,-28789,-3923
C01557=8260,35134,-24839,23,-28821,-3950
C01558=8314,35105,-24874,15,-28811,-3971
C01559=8332,34966,-25043,12,-28759,-3978
C01560=8346,34828,-25211,11,-28707,-3983
C01561=8341,34696,-25371,11,-28657,-3981
C01562=8359,34558,-25541,9,-28604,-3988
C01563=8374,34420,-25709,7,-28552,-3994
C01564=8367,34288,-25869,8,-28502,-3992
C01565=8358,34157,-26028,9,-28453,-3988
C01566=8376,34018,-26198,7,-28400,-3995
C01567=8371,33886,-26359,8,-28350,-3993
C01568=8384,33749,-26526,6,-28298,-3998
C01569=8402,33610,-26695,3,-28246,-4005
C01570=8445,33484,-26848,-3,-28199,-4022
C01571=8463,33345,-27018,-5,-28147,-4029
C01572=8452,33214,-27177,-4,-28097,-4025
C01573=8470,33075,-27346,-6,-28045,-4032
C01574=8488,32936,-27515,-9,-27992,-4039
C01575=8506,32797,-27684,-11,-27940,-4046
C01576=8524,32658,-27853,-13,-27888,-4054
C01577=8542,32519,-28023,-16,-27835,-4061
C01578=8585,32393,-28176,-22,-27788,-4078
C01579=8603,32254,-28345,-25,-27736,-4085
C01580=8609,32125,-28503,-25,-27687,-4087
C01581=8502,32194,-28419,-10,-27712,-4045
C01582=8420,32302,-28289,2,-27751,-4014
C01583=8361,32225,-28382,11,-27722,-3990
C01584=8299,32164,-28457,20,-27698,-3967
C01585=8213,32093,-28545,32,-27670,-3933
C01586=8141,32009,-28648,43,-27637,-3905
C01587=8141,30456,-28439,14,-28734,-3885
C01588=7045,30207,-28750,174,-28628,-3460
C01589=7045,31760,-28959,203,-27531,-3480
C01590=7046,31742,-28981,202,-27525,-3481
C01591=7048,31725,-29002,202,-27518,-3482
C01592=7053,31709,-29021,202,-27512,-3484
C01593=7068,31698,-29034,200,-27508,-3490
C01594=7080,31686,-29049,198,-27504,-3494
C01595=7082,31668,-29070,198,-27497,-3495
C01596=7084,31651,-29092,197,-27491,-3496
C01597=7085,31633,-29113,197,-27484,-3497
C01598=7087,31616,-29134,197,-27478,-3497
C01599=7089,31599,-29155,197,-27471,-3498
C01600=7091,31581,-29176,197,-27465,-3499
C01601=7093,31564,-29197,196,-27458,-3500
C01602=7095,31547,-29219,196,-27451,-3500
C01603=7096,31529,-29240,196,-27445,-3501
C01604=7098,31512,-29261,196,-27438,-3502
C01605=7112,31500,-29275,194,-27434,-3507
C01606=7126,31489,-29288,192,-27430,-3513
C01607=7130,31472,-29308,191,-27424,-3514
C01608=7132,31455,-29330,191,-27417,-3515
C01609=7134,31438,-29351,191,-27411,-3516
C01610=7147,31426,-29365,189,-27407,-3521
C01611=7162,31415,-29378,187,-27403,-3527
C01612=7148,31412,-29382,189,-27401,-3521
C01613=7129,31410,-29384,192,-27400,-3514
C01614=7110,31409,-29386,194,-27400,-3507
C01615=7092,31407,-29388,197,-27399,-3499
C01616=7073,31406,-29390,200,-27398,-3492
C01617=7054,31404,-29392,203,-27397,-3485
C01618=7053,31422,-29371,203,-27404,-3484
C01619=7051,31439,-29350,203,-27410,-3484
C01620=7049,31456,-29329,203,-27417,-3483
C01621=7047,31474,-29308,203,-27423,-3482
C01622=7038,31487,-29291,205,-27429,-3478
C01623=7023,31499,-29277,207,-27433,-3473
C01624=7009,31510,-29264,209,-27437,-3467
C01625=6994,31521,-29250,211,-27441,-3461
C01626=6980,31532,-29237,213,-27445,-3456
C01627=6965,31543,-29223,215,-27449,-3450
C01628=6951,31555,-29210,217,-27453,-3445
C01629=6936,31566,-29196,219,-27457,-3439
C01630=6926,31579,-29180,221,-27462,-3435
C01631=6924,31596,-29159,221,-27468,-3434
C01632=6922,31614,-29138,221,-27475,-3433
C01633=6921,31631,-29117,221,-27481,-3433
C01634=6919,31648,-29096,221,-27488,-3432
C01635=6930,31662,-29079,220,-27493,-3436
C01636=6942,31676,-29063,218,-27498,-3441
C01637=6954,31689,-29046,216,-27504,-3445
C01638=6965,31702,-29030,214,-27509,-3450
C01639=6967,31719,-29010,214,-27515,-3450
C01640=6969,31735,-28990,214,-27521,-3451
C01641=6981,31748,-28974,212,-27526,-3456
C01642=6989,31763,-28956,211,-27532,-3459
C01643=6988,31780,-28935,211,-27538,-3458
C01644=6986,31797,-28914,211,-27545,-3458
C01645=6989,31806,-28904,211,-27548,-3459
C01646=7004,31794,-28917,209,-27544,-3464
C01647=7018,31783,-28931,206,-27540,-3470
C01648=7032,31772,-28945,204,-27536,-3476
C01649=7045,31760,-28959,203,-27531,-3480
C01650=7045,30207,-28750,174,-28628,-3460
C01651=6680,31104,-27662,223,-28963,-3317
C01652=6680,32657,-27871,252,-27866,-3337
C01653=6613,32783,-27717,261,-27913,-3310
C01654=6598,32935,-27532,263,-27970,-3304
C01655=6557,33074,-27363,268,-28022,-3288
C01656=6516,33214,-27194,274,-28074,-3271
C01657=6501,33366,-27009,275,-28131,-3265
C01658=6435,33492,-26856,284,-28178,-3239
C01659=6395,33631,-26687,289,-28230,-3223
C01660=6328,33757,-26534,298,-28277,-3197
C01661=6264,33884,-26380,307,-28324,-3171
C01662=6192,34007,-26231,317,-28369,-3143
C01663=6107,34123,-26091,328,-28412,-3109
C01664=6022,34239,-25950,340,-28455,-3076
C01665=5937,34355,-25810,351,-28497,-3042
C01666=5834,34462,-25681,365,-28536,-3002
C01667=5715,34560,-25563,382,-28572,-2955
C01668=5613,34667,-25434,396,-28611,-2915
C01669=5494,34765,-25316,412,-28646,-2868
C01670=5369,34844,-25221,429,-28674,-2819
C01671=5245,34923,-25126,446,-28702,-2770
C01672=5121,35002,-25031,463,-28730,-2721
C01673=4991,35063,-24959,481,-28751,-2670
C01674=4862,35123,-24886,498,-28772,-2619
C01675=4738,35202,-24792,515,-28800,-2570
C01676=4609,35263,-24719,533,-28821,-2519
C01677=4481,35323,-24647,550,-28842,-2469
C01678=4346,35365,-24598,569,-28856,-2416
C01679=4223,35441,-24506,585,-28883,-2367
C01680=4084,35467,-24476,604,-28891,-2312
C01681=3953,35519,-24414,622,-28909,-2261
C01682=3960,35597,-24320,621,-28938,-2263
C01683=4085,35531,-24398,604,-28915,-2313
C01684=4215,35476,-24464,586,-28896,-2364
C01685=4356,35453,-24491,567,-28890,-2419
C01686=4482,35388,-24569,550,-28867,-2469
C01687=4609,35322,-24647,532,-28844,-2519
C01688=4741,35271,-24707,514,-28827,-2571
C01689=4870,35211,-24780,497,-28806,-2622
C01690=4994,35132,-24875,480,-28777,-2671
C01691=5123,35071,-24947,462,-28756,-2722
C01692=5248,34995,-25038,445,-28729,-2771
C01693=5378,34932,-25114,427,-28707,-2822
C01694=5496,34834,-25232,411,-28672,-2868
C01695=5621,34755,-25327,394,-28644,-2918
C01696=5723,34648,-25456,380,-28605,-2958
C01697=5842,34550,-25574,364,-28569,-3005
C01698=5947,34444,-25702,350,-28531,-3046
C01699=6036,34331,-25839,337,-28489,-3081
C01700=6150,34229,-25961,322,-28452,-3126
C01701=6217,34104,-26113,313,-28406,-3153
C01702=6285,33979,-26264,304,-28360,-3179
C01703=6371,33863,-26405,292,-28317,-3213
C01704=6437,33737,-26558,283,-28270,-3240
C01705=6478,33598,-26727,278,-28218,-3256
C01706=6523,33461,-26893,272,-28167,-3273
C01707=6559,33319,-27065,267,-28114,-3288
C01708=6588,33174,-27241,264,-28060,-3300
C01709=6657,33049,-27393,254,-28013,-3327
C01710=6682,32902,-27572,251,-27958,-3337
C01711=6697,32749,-27757,249,-27901,-3343
C01712=6680,32657,-27871,252,-27866,-3337
C01713=6680,31104,-27662,223,-28963,-3317
C01714=7521,31329,-27380,102,-29058,-3643
C01715=7521,32882,-27589,131,-27961,-3663
C01716=7516,32922,-27541,131,-27975,-3661
C01717=7512,32961,-27493,132,-27990,-3660
C01718=7507,33000,-27445,132,-28005,-3658
C01719=7503,33040,-27397,133,-28020,-3656
C01720=7498,33079,-27349,133,-28035,-3654
C01721=7494,33119,-27301,134,-28050,-3652
C01722=7474,33150,-27263,137,-28061,-3645
C01723=7460,33185,-27221,139,-28074,-3639
C01724=7455,33224,-27173,139,-28089,-3637
C01725=7451,33263,-27125,140,-28104,-3635
C01726=7446,33303,-27077,140,-28119,-3634
C01727=7464,33335,-27037,138,-28131,-3641
C01728=7465,33373,-26991,138,-28146,-3641
C01729=7460,33413,-26943,138,-28160,-3639
C01730=7456,33452,-26895,139,-28175,-3637
C01731=7451,33492,-26847,139,-28190,-3635
C01732=7447,33531,-26799,140,-28205,-3634
C01733=7443,33570,-26752,140,-28219,-3632
C01734=7484,33573,-26748,134,-28221,-3648
C01735=7514,33596,-26719,130,-28230,-3660
C01736=7545,33581,-26737,126,-28225,-3672
C01737=7553,33543,-26784,125,-28211,-3675
C01738=7557,33504,-26832,124,-28196,-3677
C01739=7547,33476,-26866,126,-28185,-3673
C01740=7507,33472,-26871,131,-28183,-3657
C01741=7484,33440,-26910,135,-28171,-3648
C01742=7502,33407,-26950,132,-28159,-3655
C01743=7539,33398,-26961,127,-28156,-3669
C01744=7572,33375,-26988,122,-28147,-3682
C01745=7613,33379,-26984,116,-28149,-3698
C01746=7654,33382,-26979,111,-28151,-3714
C01747=7692,33374,-26989,105,-28148,-3729
C01748=7710,33342,-27028,103,-28136,-3736
C01749=7738,33314,-27061,99,-28126,-3747
C01750=7776,33307,-27069,93,-28124,-3762
C01751=7812,33293,-27086,88,-28119,-3776
C01752=7847,33275,-27107,83,-28113,-3790
C01753=7879,33250,-27138,78,-28104,-3802
C01754=7846,33244,-27145,83,-28101,-3789
C01755=7810,33258,-27128,88,-28106,-3775
C01756=7777,33284,-27098,93,-28115,-3762
C01757=7738,33286,-27095,99,-28116,-3747
C01758=7697,33283,-27099,105,-28114,-3731
C01759=7656,33279,-27104,110,-28112,-3715
C01760=7619,33292,-27089,116,-28117,-3701
C01761=7587,33317,-27059,120,-28126,-3688
C01762=7559,33302,-27077,124,-28120,-3678
C01763=7533,33272,-27114,128,-28108,-3668
C01764=7535,33233,-27161,128,-28093,-3668
C01765=7539,33194,-27209,127,-28079,-3670
C01766=7544,33154,-27257,127,-28064,-3672
C01767=7548,33115,-27305,126,-28049,-3674
C01768=7553,33076,-27353,126,-28034,-3675
C01769=7557,33036,-27401,125,-28019,-3677
C01770=7562,32997,-27449,125,-28004,-3679
C01771=7570,32959,-27494,123,-27990,-3682
C01772=7596,32931,-27529,120,-27980,-3693
C01773=7601,32891,-27577,119,-27965,-3694
C01774=7562,32886,-27584,125,-27962,-3679
C01775=7521,32882,-27589,131,-27961,-3663
C01776=7521,31329,-27380,102,-29058,-3643
C01777=8095,32150,-26375,18,-29375,-3866
C01778=8095,33703,-26584,47,-28278,-3886
C01779=8093,33719,-26565,47,-28284,-3885
C01780=8087,33733,-26548,48,-28289,-3883
C01781=8074,33743,-26536,50,-28292,-3878
C01782=8062,33754,-26523,52,-28296,-3873
C01783=8060,33769,-26504,52,-28302,-3872
C01784=8058,33785,-26484,52,-28308,-3872
C01785=8056,33801,-26465,52,-28314,-3871
C01786=8071,33804,-26461,50,-28316,-3876
C01787=8087,33805,-26460,48,-28316,-3883
C01788=8104,33807,-26458,46,-28317,-3889
C01789=8120,33808,-26456,43,-28318,-3896
C01790=8136,33811,-26453,41,-28319,-3902
C01791=8146,33823,-26438,40,-28324,-3906
C01792=8157,33835,-26423,38,-28328,-3910
C01793=8157,33850,-26405,38,-28334,-3910
C01794=8155,33866,-26385,38,-28340,-3909
C01795=8153,33882,-26366,39,-28346,-3908
C01796=8151,33898,-26347,39,-28352,-3908
C01797=8149,33913,-26327,39,-28358,-3907
C01798=8147,33929,-26308,39,-28364,-3906
C01799=8145,33945,-26289,40,-28370,-3905
C01800=8143,33961,-26270,40,-28376,-3905
C01801=8141,33977,-26250,40,-28382,-3904
C01802=8139,33993,-26231,40,-28388,-3903
C01803=8137,34008,-26212,41,-28394,-3902
C01804=8142,34022,-26195,40,-28399,-3904
C01805=8152,34034,-26180,39,-28404,-3908
C01806=8162,34047,-26165,37,-28409,-3912
C01807=8172,34059,-26150,36,-28413,-3916
C01808=8183,34071,-26135,34,-28418,-3920
C01809=8196,34061,-26147,32,-28414,-3925
C01810=8209,34051,-26160,30,-28411,-3930
C01811=8205,34039,-26174,31,-28406,-3928
C01812=8195,34027,-26189,32,-28401,-3925
C01813=8190,34013,-26206,33,-28396,-3923
C01814=8192,33997,-26225,33,-28390,-3924
C01815=8194,33981,-26244,33,-28384,-3924
C01816=8196,33965,-26264,32,-28378,-3925
C01817=8198,33950,-26283,32,-28372,-3926
C01818=8200,33934,-26302,32,-28366,-3927
C01819=8202,33918,-26321,32,-28360,-3927
C01820=8191,33906,-26336,33,-28356,-3923
C01821=8181,33894,-26351,35,-28351,-3919
C01822=8180,33879,-26369,35,-28345,-3919
C01823=8182,33863,-26389,34,-28339,-3920
C01824=8184,33847,-26408,34,-28333,-3921
C01825=8186,33831,-26427,34,-28327,-3921
C01826=8188,33815,-26447,34,-28321,-3922
C01827=8190,33800,-26466,33,-28315,-3923
C01828=8192,33784,-26485,33,-28309,-3924
C01829=8194,33768,-26504,33,-28303,-3925
C01830=8187,33755,-26521,34,-28298,-3922
C01831=8177,33742,-26536,35,-28294,-3918
C01832=8172,33729,-26552,36,-28288,-3916
C01833=8174,33713,-26572,36,-28282,-3917
C01834=8161,33709,-26577,38,-28281,-3912
C01835=8145,33707,-26578,40,-28280,-3905
C01836=8128,33706,-26580,42,-28279,-3899
C01837=8112,33705,-26582,45,-28278,-3892
C01838=8095,33703,-26584,47,-28278,-3886
C01839=8095,32150,-26375,18,-29375,-3866
C01840=7461,32353,-26134,108,-29444,-3619
C01841=7461,33906,-26343,137,-28347,-3639
C01842=7408,33870,-26387,145,-28332,-3618
C01843=7387,33822,-26446,148,-28314,-3610
C01844=7379,33893,-26359,149,-28341,-3607
C01845=7371,33964,-26273,150,-28367,-3603
C01846=7389,34027,-26196,147,-28391,-3610
C01847=7382,34097,-26111,148,-28418,-3608
C01848=7349,34155,-26040,152,-28439,-3595
C01849=7341,34226,-25954,153,-28466,-3591
C01850=7333,34297,-25868,154,-28493,-3588
C01851=7325,34368,-25782,155,-28519,-3585
C01852=7292,34425,-25711,160,-28541,-3572
C01853=7284,34496,-25625,161,-28568,-3569
C01854=7276,34567,-25539,162,-28594,-3565
C01855=7268,34638,-25453,163,-28621,-3562
C01856=7260,34709,-25367,164,-28648,-3559
C01857=7252,34780,-25281,165,-28674,-3556
C01858=7219,34838,-25210,169,-28696,-3543
C01859=7211,34908,-25124,170,-28722,-3540
C01860=7230,34971,-25048,167,-28746,-3547
C01861=7187,35024,-24984,173,-28766,-3530
C01862=7148,35078,-24918,179,-28786,-3515
C01863=7132,35145,-24837,181,-28811,-3508
C01864=7124,35216,-24751,182,-28837,-3505
C01865=7133,35281,-24671,180,-28862,-3509
C01866=7159,35342,-24597,177,-28886,-3519
C01867=7155,35412,-24512,177,-28912,-3517
C01868=7213,35419,-24502,169,-28916,-3540
C01869=7275,35393,-24534,160,-28906,-3564
C01870=7298,35357,-24577,157,-28893,-3573
C01871=7234,35377,-24553,166,-28900,-3548
C01872=7176,35346,-24591,174,-28887,-3525
C01873=7142,35296,-24653,179,-28868,-3512
C01874=7178,35240,-24721,174,-28847,-3526
C01875=7207,35180,-24793,170,-28825,-3537
C01876=7238,35122,-24864,166,-28803,-3550
C01877=7247,35051,-24950,165,-28777,-3554
C01878=7305,35022,-24985,157,-28767,-3576
C01879=7361,34976,-25040,149,-28750,-3598
C01880=7383,34913,-25117,146,-28726,-3607
C01881=7375,34855,-25187,147,-28704,-3604
C01882=7356,34793,-25263,150,-28681,-3596
C01883=7380,34730,-25339,147,-28657,-3606
C01884=7397,34664,-25420,145,-28632,-3612
C01885=7424,34603,-25494,141,-28610,-3623
C01886=7492,34595,-25503,131,-28607,-3650
C01887=7517,34533,-25579,128,-28584,-3660
C01888=7526,34462,-25665,127,-28558,-3663
C01889=7494,34423,-25713,131,-28542,-3651
C01890=7436,34430,-25705,139,-28544,-3628
C01891=7410,34370,-25778,143,-28521,-3618
C01892=7412,34301,-25862,143,-28495,-3619
C01893=7425,34232,-25946,141,-28470,-3624
C01894=7491,34217,-25964,132,-28465,-3650
C01895=7556,34197,-25987,123,-28458,-3675
C01896=7565,34126,-26073,122,-28431,-3679
C01897=7573,34055,-26160,121,-28405,-3682
C01898=7542,34015,-26209,125,-28389,-3670
C01899=7484,34023,-26200,133,-28391,-3647
C01900=7478,33957,-26281,134,-28366,-3645
C01901=7461,33906,-26343,137,-28347,-3639
C01902=7461,32353,-26134,108,-29444,-3619
C01903=8091,32821,-25558,18,-29629,-3864
C01904=8091,34374,-25767,47,-28532,-3884
C01905=8089,34390,-25747,47,-28537,-3883
C01906=8087,34406,-25728,47,-28543,-3883
C01907=8085,34421,-25709,48,-28549,-3882
C01908=8083,34437,-25690,48,-28555,-3881
C01909=8081,34453,-25670,48,-28561,-3880
C01910=8079,34469,-25651,48,-28567,-3879
C01911=8077,34485,-25632,49,-28573,-3879
C01912=8076,34501,-25612,49,-28579,-3878
C01913=8074,34517,-25593,49,-28585,-3877
C01914=8066,34530,-25577,50,-28590,-3874
C01915=8054,34540,-25565,52,-28594,-3869
C01916=8043,34551,-25551,54,-28598,-3865
C01917=8041,34567,-25532,54,-28604,-3864
C01918=8039,34583,-25513,54,-28610,-3863
C01919=8037,34599,-25493,54,-28616,-3863
C01920=8035,34615,-25474,55,-28622,-3862
C01921=8037,34629,-25456,54,-28627,-3863
C01922=8047,34641,-25441,53,-28632,-3867
C01923=8057,34653,-25427,51,-28637,-3871
C01924=8068,34666,-25412,50,-28642,-3875
C01925=8078,34678,-25397,49,-28646,-3879
C01926=8078,34693,-25378,48,-28652,-3879
C01927=8076,34709,-25359,49,-28658,-3878
C01928=8074,34725,-25339,49,-28664,-3877
C01929=8081,34725,-25339,48,-28664,-3880
C01930=8094,34715,-25352,46,-28660,-3885
C01931=8103,34702,-25366,45,-28656,-3888
C01932=8105,34687,-25386,45,-28650,-3889
C01933=8107,34671,-25405,44,-28644,-3890
C01934=8109,34655,-25424,44,-28638,-3891
C01935=8111,34639,-25443,44,-28632,-3892
C01936=8113,34623,-25463,44,-28626,-3892
C01937=8115,34607,-25482,43,-28620,-3893
C01938=8117,34592,-25501,43,-28614,-3894
C01939=8122,34577,-25519,42,-28609,-3896
C01940=8135,34567,-25531,40,-28605,-3901
C01941=8148,34557,-25543,39,-28602,-3906
C01942=8161,34547,-25555,37,-28598,-3911
C01943=8174,34537,-25568,35,-28594,-3916
C01944=8187,34526,-25580,33,-28590,-3921
C01945=8200,34516,-25592,31,-28587,-3926
C01946=8207,34503,-25608,30,-28582,-3929
C01947=8209,34488,-25627,30,-28576,-3930
C01948=8211,34472,-25646,30,-28570,-3931
C01949=8213,34456,-25666,29,-28564,-3932
C01950=8215,34440,-25685,29,-28558,-3932
C01951=8217,34424,-25704,29,-28552,-3933
C01952=8219,34408,-25724,29,-28546,-3934
C01953=8221,34393,-25743,28,-28540,-3935
C01954=8223,34377,-25762,28,-28534,-3936
C01955=8225,34361,-25781,28,-28528,-3936
C01956=8212,34357,-25786,30,-28527,-3931
C01957=8196,34355,-25788,32,-28526,-3925
C01958=8180,34354,-25790,34,-28525,-3919
C01959=8164,34353,-25792,37,-28524,-3912
C01960=8147,34351,-25794,39,-28524,-3906
C01961=8134,34361,-25782,41,-28527,-3901
C01962=8121,34372,-25769,43,-28531,-3896
C01963=8106,34373,-25767,45,-28531,-3890
C01964=8091,34374,-25767,47,-28532,-3884
C01965=8091,32821,-25558,18,-29629,-3864
C01966=8031,33303,-24971,26,-29810,-3840
C01967=8031,34856,-25180,55,-28713,-3860
C01968=8028,34876,-25156,55,-28721,-3859
C01969=8026,34896,-25132,56,-28728,-3858
C01970=8023,34915,-25108,56,-28736,-3857
C01971=8021,34935,-25083,56,-28743,-3856
C01972=8019,34955,-25059,57,-28751,-3855
C01973=8016,34975,-25035,57,-28758,-3854
C01974=8014,34995,-25011,57,-28765,-3853
C01975=8007,35013,-24989,58,-28772,-3851
C01976=7991,35025,-24974,60,-28777,-3845
C01977=7981,35041,-24954,62,-28783,-3841
C01978=7976,35060,-24932,62,-28790,-3839
C01979=7960,35073,-24917,65,-28794,-3832
C01980=7944,35085,-24901,67,-28799,-3826
C01981=7928,35098,-24886,69,-28803,-3820
C01982=7920,35115,-24865,70,-28810,-3817
C01983=7918,35135,-24841,71,-28817,-3816
C01984=7915,35155,-24817,71,-28825,-3815
C01985=7913,35174,-24793,71,-28832,-3814
C01986=7921,35191,-24773,70,-28839,-3817
C01987=7933,35206,-24754,68,-28844,-3822
C01988=7932,35226,-24730,69,-28852,-3821
C01989=7930,35246,-24706,69,-28859,-3820
C01990=7927,35265,-24682,69,-28867,-3819
C01991=7926,35285,-24658,69,-28874,-3819
C01992=7938,35300,-24639,68,-28880,-3824
C01993=7947,35317,-24619,66,-28886,-3827
C01994=7945,35336,-24595,67,-28894,-3826
C01995=7942,35356,-24571,67,-28901,-3825
C01996=7955,35364,-24561,65,-28904,-3830
C01997=7973,35361,-24566,63,-28903,-3837
C01998=7989,35348,-24581,60,-28899,-3844
C01999=7997,35331,-24601,59,-28893,-3847
C02000=8000,35311,-24626,59,-28885,-3848
C02001=8002,35291,-24650,59,-28878,-3849
C02002=8005,35272,-24674,58,-28870,-3850
C02003=8007,35252,-24698,58,-28863,-3851
C02004=8010,35232,-24722,58,-28855,-3852
C02005=8012,35212,-24746,57,-28848,-3853
C02006=8015,35192,-24770,57,-28840,-3854
C02007=8017,35172,-24795,57,-28833,-3855
C02008=8011,35155,-24816,57,-28826,-3852
C02009=7999,35140,-24834,59,-28820,-3848
C02010=7998,35121,-24857,59,-28813,-3847
C02011=8000,35101,-24881,59,-28806,-3848
C02012=8003,35081,-24905,59,-28798,-3849
C02013=8005,35062,-24930,58,-28791,-3850
C02014=8008,35042,-24954,58,-28783,-3851
C02015=8019,35026,-24972,57,-28777,-3855
C02016=8035,35014,-24988,54,-28773,-3862
C02017=8051,35001,-25003,52,-28768,-3868
C02018=8067,34988,-25019,50,-28764,-3874
C02019=8069,34968,-25043,49,-28756,-3875
C02020=8072,34948,-25067,49,-28749,-3876
C02021=8074,34929,-25091,49,-28741,-3877
C02022=8077,34909,-25115,48,-28734,-3878
C02023=8079,34889,-25139,48,-28726,-3879
C02024=8082,34869,-25163,48,-28719,-3880
C02025=8071,34860,-25175,49,-28715,-3876
C02026=8051,34858,-25178,52,-28714,-3868
C02027=8031,34856,-25180,55,-28713,-3860
C02028=8031,33303,-24971,26,-29810,-3840
C02029=8316,33740,-24435,-14,-29979,-3951
C02030=8316,35293,-24644,15,-28882,-3971
C02031=8307,35361,-24562,16,-28908,-3968
C02032=8298,35428,-24480,17,-28933,-3965
C02033=8289,35496,-24398,18,-28959,-3961
C02034=8236,35539,-24345,26,-28975,-3940
C02035=8212,35490,-24405,29,-28956,-3931
C02036=8202,35438,-24469,31,-28936,-3927
C02037=8146,35474,-24425,38,-28949,-3905
C02038=8103,35524,-24365,44,-28967,-3888
C02039=8122,35583,-24293,42,-28990,-3895
C02040=8086,35636,-24228,47,-29009,-3882
C02041=8029,35647,-24216,55,-29013,-3859
C02042=7984,35599,-24275,61,-28994,-3842
C02043=7943,35636,-24230,67,-29007,-3826
C02044=7889,35680,-24178,74,-29023,-3804
C02045=7836,35723,-24125,82,-29039,-3783
C02046=7780,35761,-24080,89,-29052,-3762
C02047=7720,35781,-24056,98,-29059,-3738
C02048=7652,35775,-24064,107,-29056,-3711
C02049=7592,35754,-24090,116,-29047,-3688
C02050=7569,35696,-24161,119,-29025,-3679
C02051=7540,35719,-24134,123,-29033,-3667
C02052=7553,35780,-24059,121,-29056,-3672
C02053=7545,35847,-23977,122,-29082,-3669
C02054=7552,35910,-23901,121,-29105,-3672
C02055=7604,35944,-23858,114,-29119,-3692
C02056=7641,35906,-23905,109,-29105,-3707
C02057=7676,35854,-23967,104,-29086,-3721
C02058=7736,35873,-23943,95,-29094,-3744
C02059=7740,35937,-23866,95,-29118,-3746
C02060=7708,35992,-23800,99,-29139,-3733
C02061=7685,36051,-23727,102,-29161,-3724
C02062=7667,36113,-23651,105,-29184,-3717
C02063=7659,36181,-23569,106,-29210,-3714
C02064=7712,36167,-23586,98,-29205,-3735
C02065=7745,36112,-23652,94,-29185,-3747
C02066=7753,36045,-23734,93,-29159,-3751
C02067=7785,35990,-23800,88,-29139,-3764
C02068=7794,35923,-23882,87,-29114,-3767
C02069=7802,35856,-23964,86,-29088,-3770
C02070=7849,35818,-24009,80,-29075,-3788
C02071=7915,35819,-24007,70,-29076,-3814
C02072=7974,35795,-24037,62,-29068,-3838
C02073=8037,35784,-24049,53,-29064,-3862
C02074=8091,35814,-24012,46,-29076,-3884
C02075=8084,35881,-23930,47,-29102,-3880
C02076=8075,35948,-23848,48,-29127,-3877
C02077=8116,35955,-23840,42,-29130,-3893
C02078=8158,35905,-23901,37,-29112,-3910
C02079=8160,35839,-23980,36,-29087,-3910
C02080=8149,35778,-24055,38,-29064,-3906
C02081=8157,35711,-24137,37,-29038,-3909
C02082=8166,35643,-24219,36,-29013,-3913
C02083=8201,35590,-24284,31,-28993,-3927
C02084=8259,35578,-24297,23,-28990,-3949
C02085=8314,35592,-24281,15,-28995,-3971
C02086=8337,35532,-24354,12,-28973,-3980
C02087=8345,35464,-24436,11,-28947,-3983
C02088=8327,35405,-24508,13,-28925,-3976
C02089=8336,35338,-24590,12,-28899,-3979
C02090=8316,35293,-24644,15,-28882,-3971
C02091=8316,33740,-24435,-14,-29979,-3951
C02092=7421,34137,-23961,110,-30117,-3601
C02093=7421,35690,-24170,139,-29020,-3621
C02094=7407,35676,-24188,141,-29015,-3615
C02095=7387,35674,-24190,144,-29014,-3608
C02096=7367,35672,-24192,147,-29013,-3600
C02097=7347,35670,-24195,150,-29012,-3592
C02098=7327,35668,-24197,153,-29011,-3584
C02099=7307,35667,-24200,155,-29010,-3576
C02100=7291,35679,-24184,158,-29015,-3570
C02101=7275,35692,-24169,160,-29020,-3564
C02102=7260,35705,-24153,162,-29024,-3558
C02103=7242,35712,-24145,164,-29027,-3551
C02104=7224,35713,-24144,167,-29027,-3544
C02105=7222,35733,-24120,167,-29034,-3543
C02106=7220,35753,-24096,167,-29042,-3542
C02107=7217,35773,-24071,168,-29049,-3541
C02108=7215,35793,-24047,168,-29057,-3540
C02109=7213,35813,-24023,168,-29064,-3539
C02110=7210,35832,-23999,169,-29072,-3538
C02111=7221,35829,-24003,167,-29070,-3542
C02112=7237,35816,-24018,165,-29066,-3548
C02113=7227,35801,-24037,166,-29060,-3545
C02114=7216,35785,-24056,168,-29054,-3540
C02115=7218,35765,-24081,168,-29046,-3541
C02116=7232,35751,-24098,166,-29041,-3546
C02117=7248,35738,-24113,164,-29037,-3553
C02118=7268,35740,-24110,161,-29038,-3561
C02119=7288,35742,-24108,158,-29039,-3568
C02120=7308,35744,-24105,155,-29039,-3576
C02121=7326,35748,-24100,153,-29041,-3584
C02122=7339,35764,-24081,151,-29047,-3588
C02123=7351,35779,-24062,149,-29053,-3593
C02124=7364,35794,-24043,147,-29059,-3598
C02125=7376,35810,-24024,145,-29065,-3603
C02126=7389,35825,-24006,144,-29071,-3608
C02127=7379,35839,-23989,145,-29076,-3604
C02128=7364,35851,-23974,147,-29081,-3598
C02129=7361,35871,-23950,148,-29088,-3597
C02130=7359,35891,-23926,148,-29096,-3596
C02131=7356,35911,-23901,148,-29103,-3595
C02132=7354,35931,-23877,148,-29111,-3594
C02133=7352,35951,-23853,149,-29118,-3593
C02134=7349,35971,-23829,149,-29126,-3592
C02135=7347,35991,-23804,149,-29133,-3591
C02136=7350,36001,-23792,149,-29137,-3593
C02137=7366,35988,-23808,147,-29133,-3599
C02138=7382,35975,-23823,145,-29128,-3605
C02139=7397,35962,-23839,142,-29123,-3611
C02140=7404,35945,-23860,141,-29117,-3614
C02141=7406,35925,-23884,141,-29109,-3615
C02142=7409,35905,-23909,141,-29102,-3616
C02143=7411,35885,-23933,141,-29094,-3617
C02144=7413,35865,-23957,140,-29087,-3618
C02145=7416,35845,-23981,140,-29079,-3619
C02146=7418,35825,-24006,140,-29072,-3619
C02147=7420,35805,-24030,139,-29064,-3620
C02148=7423,35785,-24054,139,-29057,-3621
C02149=7425,35765,-24078,139,-29049,-3622
C02150=7427,35745,-24103,138,-29042,-3623
C02151=7430,35725,-24127,138,-29034,-3624
C02152=7432,35705,-24151,138,-29027,-3625
C02153=7421,35690,-24170,139,-29020,-3621
C02154=7421,34137,-23961,110,-30117,-3601
C02155=6483,34476,-23557,240,-30233,-3232
C02156=6483,36029,-23766,269,-29136,-3252
C02157=6620,34809,-25252,254,-28677,-3308
C02158=5453,35956,-23867,412,-29094,-2848
C02159=3555,36621,-23080,669,-29317,-2098
C02160=1813,37583,-21933,896,-29652,-1405
C02161=643,37612,-21913,1052,-29644,-942
C02162=77,37150,-22480,1134,-29463,-722
C02163=-576,36786,-22929,1228,-29317,-467
C02164=-56,36816,-22886,1157,-29337,-673
C02165=-968,37409,-22179,1271,-29543,-306
C02166=-892,37604,-21943,1257,-29617,-334
C02167=-1256,37965,-21510,1300,-29745,-185
C02168=-1548,38342,-21057,1332,-29881,-65
C02169=-2045,38640,-20704,1392,-29983,136
C02170=-1751,38751,-20565,1352,-30029,20
C02171=-1989,39084,-20165,1377,-30149,119
C02172=-2536,39355,-19846,1443,-30240,341
C02173=-2254,39491,-19676,1404,-30296,230
C02174=-2297,39958,-19112,1401,-30468,253
C02175=-1283,38343,-21052,1297,-29886,-170
C02176=-24,37283,-22320,1146,-29511,-681
C02177=1020,37927,-21525,998,-29768,-1088
C02178=690,38547,-20777,1034,-29994,-952
C02179=2126,37548,-21971,854,-29643,-1529
C02180=2930,37437,-22096,747,-29614,-1848
C02181=3556,36982,-22641,666,-29453,-2097
C02182=3941,36516,-23203,617,-29283,-2251
C02183=4971,36150,-23637,477,-29160,-2658
C02184=4846,36824,-22817,491,-29413,-2606
C02185=4393,37439,-22076,549,-29637,-2425
C02186=2739,38295,-21056,765,-29933,-1767
C02187=1143,38881,-20366,970,-30127,-1129
C02188=2073,38604,-20690,851,-30038,-1501
C02189=3630,38435,-20874,645,-30000,-2119
C02190=2601,39711,-19337,771,-30462,-1703
C02191=2381,40403,-18501,793,-30718,-1611
C02192=3485,38758,-20484,662,-30119,-2060
C02193=4769,37175,-22392,499,-29544,-2575
C02194=6223,35786,-24065,306,-29041,-3151
C02195=6415,36049,-23743,278,-29143,-3225
C02196=5392,36880,-22744,416,-29441,-2821
C02197=4863,37497,-21999,485,-29666,-2610
C02198=4267,37897,-21520,563,-29808,-2373
C02199=4373,38114,-21255,548,-29891,-2414
C02200=4198,38795,-20428,567,-30145,-2343
C02201=3822,39129,-20028,615,-30264,-2192
C02202=3295,40015,-18958,678,-30588,-1978
C02203=3089,40423,-18466,701,-30738,-1894
C02204=4250,38842,-20370,560,-30163,-2363
C02205=5160,37715,-21730,444,-29753,-2727
C02206=6644,36544,-23138,245,-29333,-3315
C02207=7643,36521,-23155,108,-29338,-3708
C02208=9086,37857,-21510,-89,-29865,-4276
C02209=9985,39123,-19953,-206,-30360,-4634
C02210=10328,39569,-19404,-250,-30535,-4772
C02211=10519,39735,-19199,-275,-30602,-4848
C02212=10597,39355,-19663,-287,-30458,-4877
C02213=10627,39282,-19751,-292,-30431,-4889
C02214=9247,37898,-21458,-111,-29883,-4340
C02215=7791,36508,-23169,87,-29335,-3765
C02216=6483,36029,-23766,269,-29136,-3252
C02217=6483,34476,-23557,240,-30233,-3232
C02218=6101,34724,-23260,292,-30321,-3082
C02219=6101,36277,-23469,321,-29224,-3102
C02220=6067,36274,-23473,326,-29223,-3088
C02221=6033,36271,-23477,330,-29221,-3075
C02222=5999,36268,-23481,335,-29219,-3062
C02223=5966,36265,-23485,340,-29218,-3049
C02224=5932,36262,-23489,344,-29216,-3035
C02225=5906,36284,-23463,348,-29224,-3025
C02226=5872,36282,-23465,353,-29223,-3012
C02227=5839,36279,-23469,357,-29221,-2999
C02228=5805,36276,-23474,362,-29220,-2985
C02229=5771,36273,-23478,367,-29218,-2972
C02230=5741,36281,-23468,371,-29221,-2960
C02231=5712,36293,-23454,375,-29225,-2949
C02232=5697,36314,-23429,377,-29232,-2943
C02233=5727,36320,-23421,372,-29235,-2954
C02234=5757,36314,-23428,368,-29233,-2967
C02235=5786,36300,-23445,364,-29228,-2978
C02236=5820,36303,-23441,360,-29230,-2991
C02237=5854,36306,-23436,355,-29232,-3004
C02238=5887,36309,-23432,350,-29233,-3018
C02239=5921,36312,-23428,346,-29235,-3031
C02240=5945,36335,-23401,342,-29244,-3040
C02241=5930,36357,-23373,344,-29252,-3034
C02242=5904,36379,-23347,348,-29260,-3024
C02243=5878,36401,-23321,351,-29268,-3014
C02244=5847,36408,-23312,356,-29270,-3002
C02245=5820,36426,-23291,359,-29276,-2991
C02246=5788,36429,-23288,364,-29277,-2978
C02247=5756,36432,-23284,368,-29278,-2966
C02248=5728,36449,-23264,372,-29284,-2955
C02249=5695,36446,-23268,376,-29282,-2942
C02250=5661,36443,-23273,381,-29280,-2928
C02251=5627,36440,-23277,386,-29279,-2915
C02252=5594,36436,-23281,390,-29277,-2902
C02253=5582,36460,-23252,392,-29286,-2897
C02254=5614,36464,-23247,387,-29288,-2910
C02255=5648,36467,-23243,383,-29290,-2923
C02256=5682,36470,-23239,378,-29291,-2936
C02257=5716,36473,-23235,373,-29293,-2950
C02258=5749,36476,-23231,369,-29294,-2963
C02259=5777,36461,-23248,365,-29289,-2974
C02260=5809,36456,-23254,361,-29288,-2986
C02261=5835,36436,-23278,357,-29281,-2997
C02262=5867,36433,-23282,353,-29280,-3009
C02263=5894,36413,-23307,349,-29272,-3020
C02264=5927,36416,-23302,344,-29274,-3033
C02265=5961,36419,-23298,340,-29276,-3046
C02266=5995,36422,-23294,335,-29277,-3060
C02267=6028,36425,-23290,331,-29279,-3073
C02268=6062,36428,-23286,326,-29281,-3086
C02269=6090,36411,-23306,322,-29275,-3097
C02270=6072,36403,-23316,325,-29271,-3090
C02271=6038,36400,-23320,329,-29270,-3077
C02272=6011,36386,-23338,333,-29264,-3066
C02273=5989,36360,-23370,336,-29254,-3057
C02274=5976,36331,-23405,338,-29243,-3053
C02275=5994,36304,-23437,336,-29233,-3059
C02276=6024,36296,-23447,332,-29230,-3071
C02277=6058,36299,-23443,327,-29232,-3085
C02278=6090,36295,-23448,323,-29231,-3097
C02279=6101,36277,-23469,321,-29224,-3102
C02280=6101,34724,-23260,292,-30321,-3082
C02281=5967,34995,-22932,310,-30421,-3028
C02282=5967,36548,-23141,339,-29324,-3048
C02283=5948,36546,-23144,341,-29323,-3041
C02284=5928,36544,-23146,344,-29323,-3033
C02285=5908,36542,-23149,347,-29322,-3025
C02286=5889,36540,-23151,349,-29321,-3018
C02287=5869,36539,-23153,352,-29320,-3010
C02288=5849,36537,-23156,355,-29319,-3002
C02289=5830,36535,-23158,357,-29318,-2994
C02290=5814,36548,-23143,360,-29322,-2988
C02291=5798,36558,-23131,362,-29326,-2982
C02292=5779,36556,-23133,364,-29325,-2974
C02293=5759,36554,-23136,367,-29324,-2967
C02294=5739,36552,-23138,370,-29323,-2959
C02295=5721,36555,-23135,372,-29324,-2952
C02296=5706,36568,-23119,374,-29328,-2946
C02297=5689,36573,-23113,377,-29330,-2939
C02298=5669,36572,-23115,379,-29329,-2931
C02299=5649,36570,-23118,382,-29328,-2923
C02300=5634,36582,-23103,384,-29333,-2917
C02301=5618,36593,-23090,386,-29336,-2911
C02302=5599,36591,-23093,389,-29336,-2903
C02303=5579,36589,-23095,392,-29335,-2896
C02304=5559,36587,-23098,394,-29334,-2888
C02305=5540,36585,-23100,397,-29333,-2880
C02306=5520,36584,-23102,400,-29332,-2872
C02307=5500,36582,-23105,402,-29331,-2865
C02308=5481,36580,-23107,405,-29330,-2857
C02309=5463,36585,-23102,408,-29331,-2850
C02310=5448,36597,-23087,410,-29336,-2844
C02311=5441,36614,-23066,410,-29342,-2841
C02312=5446,36628,-23049,410,-29347,-2843
C02313=5466,36630,-23047,407,-29348,-2851
C02314=5486,36632,-23044,404,-29349,-2859
C02315=5505,36634,-23042,402,-29350,-2866
C02316=5525,36635,-23039,399,-29351,-2874
C02317=5544,36634,-23040,396,-29351,-2882
C02318=5559,36622,-23056,394,-29347,-2888
C02319=5576,36614,-23064,392,-29344,-2894
C02320=5595,36616,-23062,389,-29345,-2902
C02321=5615,36618,-23060,387,-29346,-2910
C02322=5634,36620,-23057,384,-29347,-2917
C02323=5652,36614,-23064,382,-29345,-2924
C02324=5667,36601,-23079,380,-29340,-2930
C02325=5685,36599,-23082,377,-29340,-2937
C02326=5705,36601,-23080,374,-29341,-2945
C02327=5724,36600,-23080,372,-29341,-2953
C02328=5739,36588,-23095,370,-29336,-2959
C02329=5756,36580,-23105,367,-29333,-2965
C02330=5775,36581,-23102,365,-29334,-2973
C02331=5795,36583,-23100,362,-29335,-2981
C02332=5814,36585,-23098,359,-29336,-2988
C02333=5834,36587,-23095,357,-29337,-2996
C02334=5854,36589,-23093,354,-29338,-3004
C02335=5873,36590,-23090,351,-29339,-3011
C02336=5893,36592,-23088,349,-29340,-3019
C02337=5910,36585,-23097,346,-29338,-3026
