/JOB
//NAME CONTOUR2
//POS
///NPOS 3164,0,0,0,0,0
///TOOL 0
///POSTYPE PULSE
///PULSE
C00000=-41004,59868,4099,4900,-34257,16705
C00001=-41004,59868,1099,4900,-34257,16705
C00002=-41004,64596,1380,5213,-31659,16463
C00003=-41004,59868,1099,4900,-34257,16705
C00004=-41004,59868,9099,4900,-34257,16705
C00005=3517,32682,-25769,659,-29516,-2073
C00006=3546,32655,-25802,655,-29506,-2085
C00007=3546,34208,-26011,684,-28409,-2105
C00008=3663,34108,-26133,669,-28372,-2152
C00009=3760,33999,-26267,656,-28331,-2190
C00010=3817,34032,-26226,648,-28344,-2212
C00011=3741,34151,-26080,657,-28389,-2182
C00012=3665,34270,-25934,667,-28435,-2151
C00013=3593,34391,-25786,676,-28480,-2123
C00014=3558,34528,-25618,680,-28533,-2108
C00015=3522,34665,-25449,684,-28586,-2093
C00016=3516,34816,-25264,684,-28644,-2090
C00017=3524,34961,-25085,681,-28701,-2092
C00018=3567,35096,-24919,674,-28753,-2108
C00019=3652,35216,-24771,661,-28801,-2141
C00020=3759,35329,-24631,646,-28846,-2182
C00021=3752,35479,-24446,645,-28904,-2179
C00022=3637,35549,-24361,661,-28930,-2133
C00023=3490,35563,-24345,681,-28933,-2075
C00024=3395,35672,-24212,693,-28974,-2038
C00025=3321,35791,-24066,702,-29019,-2008
C00026=3228,35900,-23932,714,-29061,-1970
C00027=3134,36010,-23799,726,-29102,-1933
C00028=3020,36110,-23677,741,-29139,-1888
C00029=2899,36189,-23581,757,-29168,-1840
C00030=2786,36289,-23459,772,-29205,-1794
C00031=2674,36388,-23337,786,-29243,-1749
C00032=2553,36468,-23241,802,-29272,-1702
C00033=2442,36567,-23119,816,-29309,-1657
C00034=2340,36672,-22992,829,-29348,-1616
C00035=2279,36795,-22841,836,-29395,-1591
C00036=2304,36936,-22667,831,-29450,-1600
C00037=2187,37016,-22570,846,-29479,-1553
C00038=2077,37116,-22448,860,-29516,-1509
C00039=1958,37195,-22352,876,-29545,-1462
C00040=1833,37254,-22281,892,-29566,-1412
C00041=1708,37225,-22317,909,-29554,-1363
C00042=1726,37093,-22480,908,-29503,-1371
C00043=1761,36958,-22646,905,-29451,-1386
C00044=1817,36832,-22800,899,-29403,-1409
C00045=1881,36711,-22948,891,-29357,-1435
C00046=1952,36592,-23094,883,-29312,-1464
C00047=2022,36473,-23239,874,-29267,-1492
C00048=2087,36352,-23388,867,-29221,-1519
C00049=2148,36228,-23540,860,-29174,-1544
C00050=2215,36107,-23687,852,-29128,-1571
C00051=2287,35988,-23833,843,-29083,-1600
C00052=2359,35870,-23978,834,-29038,-1629
C00053=2410,35741,-24136,829,-28989,-1650
C00054=2483,35622,-24281,820,-28944,-1679
C00055=2547,35500,-24431,812,-28897,-1705
C00056=2607,35375,-24584,805,-28850,-1730
C00057=2660,35247,-24741,799,-28801,-1751
C00058=2733,35128,-24887,790,-28756,-1781
C00059=2786,35000,-25044,784,-28707,-1802
C00060=2839,34871,-25202,777,-28658,-1824
C00061=2913,34752,-25347,768,-28612,-1854
C00062=2966,34624,-25505,762,-28563,-1875
C00063=3040,34505,-25650,753,-28518,-1905
C00064=3172,34445,-25723,735,-28497,-1957
C00065=3297,34368,-25817,718,-28468,-2007
C00066=3422,34290,-25911,701,-28440,-2056
C00067=3546,34208,-26011,684,-28409,-2105
C00068=3546,32655,-25802,655,-29506,-2085
C00069=3514,32628,-25836,660,-29495,-2073
C00070=3514,34181,-26045,689,-28398,-2093
C00071=3483,34207,-26013,693,-28408,-2080
C00072=3452,34234,-25981,697,-28418,-2068
C00073=3421,34260,-25948,701,-28428,-2056
C00074=3391,34286,-25916,705,-28438,-2044
C00075=3352,34292,-25909,711,-28440,-2029
C00076=3321,34319,-25877,715,-28449,-2016
C00077=3290,34345,-25845,719,-28459,-2004
C00078=3257,34366,-25820,723,-28467,-1991
C00079=3221,34377,-25806,728,-28471,-1977
C00080=3185,34390,-25791,733,-28475,-1963
C00081=3151,34410,-25767,738,-28483,-1949
C00082=3122,34392,-25788,742,-28476,-1938
C00083=3117,34355,-25834,743,-28461,-1936
C00084=3128,34320,-25877,742,-28448,-1941
C00085=3149,34289,-25915,739,-28436,-1949
C00086=3169,34258,-25954,737,-28424,-1957
C00087=3181,34223,-25996,735,-28411,-1962
C00088=3210,34195,-26030,732,-28400,-1974
C00089=3241,34169,-26062,727,-28390,-1986
C00090=3271,34143,-26094,723,-28381,-1998
C00091=3281,34107,-26138,722,-28367,-2002
C00092=3312,34080,-26170,718,-28357,-2014
C00093=3343,34054,-26203,714,-28347,-2027
C00094=3369,34025,-26238,711,-28336,-2037
C00095=3384,33992,-26279,709,-28324,-2043
C00096=3415,33965,-26311,705,-28314,-2055
C00097=3446,33939,-26343,700,-28304,-2068
C00098=3477,33913,-26375,696,-28294,-2080
C00099=3495,33880,-26415,694,-28282,-2087
C00100=3518,33850,-26452,691,-28270,-2096
C00101=3549,33824,-26484,687,-28260,-2109
C00102=3580,33798,-26516,683,-28251,-2121
C00103=3612,33771,-26548,679,-28241,-2133
C00104=3643,33745,-26580,674,-28231,-2145
C00105=3674,33719,-26613,670,-28221,-2158
C00106=3705,33692,-26645,666,-28211,-2170
C00107=3715,33656,-26689,665,-28197,-2174
C00108=3747,33630,-26721,661,-28188,-2187
C00109=3789,33632,-26718,655,-28189,-2203
C00110=3831,33635,-26714,649,-28190,-2220
C00111=3872,33641,-26706,643,-28193,-2235
C00112=3900,33671,-26669,639,-28205,-2247
C00113=3929,33701,-26632,634,-28217,-2258
C00114=3949,33730,-26596,631,-28229,-2265
C00115=3922,33759,-26561,635,-28239,-2254
C00116=3907,33793,-26519,637,-28252,-2249
C00117=3876,33819,-26487,641,-28262,-2236
C00118=3845,33845,-26455,645,-28272,-2224
C00119=3826,33877,-26416,647,-28284,-2216
C00120=3804,33908,-26379,650,-28296,-2207
C00121=3772,33934,-26347,655,-28306,-2195
C00122=3741,33960,-26314,659,-28316,-2183
C00123=3710,33987,-26282,663,-28325,-2171
C00124=3699,34022,-26239,664,-28339,-2166
C00125=3669,34049,-26206,668,-28349,-2154
C00126=3638,34075,-26174,672,-28359,-2142
C00127=3607,34102,-26142,677,-28369,-2129
C00128=3576,34128,-26109,681,-28379,-2117
C00129=3545,34155,-26077,685,-28388,-2105
C00130=3514,34181,-26045,689,-28398,-2093
C00131=3514,32628,-25836,660,-29495,-2073
C00132=3654,32815,-25604,639,-29569,-2126
C00133=3654,34368,-25813,668,-28472,-2146
C00134=4107,33705,-26625,609,-28221,-2327
C00135=3947,33661,-26682,632,-28202,-2265
C00136=3230,33272,-27165,737,-28043,-1987
C00137=2728,32638,-27950,814,-27792,-1795
C00138=2218,32017,-28716,893,-27547,-1601
C00139=2215,32126,-28583,892,-27589,-1599
C00140=2175,32550,-28062,894,-27752,-1580
C00141=1299,32602,-28005,1018,-27762,-1238
C00142=397,32590,-28026,1147,-27748,-887
C00143=-235,32188,-28526,1242,-27585,-644
C00144=664,32238,-28456,1113,-27615,-994
C00145=1574,32318,-28352,982,-27656,-1348
C00146=1762,32272,-28407,956,-27640,-1421
C00147=864,32165,-28545,1086,-27589,-1072
C00148=-36,32058,-28683,1216,-27537,-723
C00149=-845,31745,-29074,1336,-27408,-411
C00150=-564,31550,-29312,1298,-27336,-522
C00151=314,31716,-29101,1170,-27409,-863
C00152=1178,31907,-28860,1044,-27492,-1197
C00153=1776,31934,-28822,958,-27509,-1429
C00154=899,31772,-29028,1085,-27437,-1090
C00155=33,31583,-29267,1212,-27355,-754
C00156=-813,31339,-29573,1337,-27252,-428
C00157=-1590,30930,-30081,1456,-27086,-130
C00158=-1499,30653,-30420,1447,-26980,-168
C00159=-658,30925,-30080,1321,-27094,-492
C00160=154,31251,-29674,1199,-27228,-804
C00161=972,31550,-29300,1077,-27352,-1120
C00162=1747,31801,-28986,963,-27458,-1419
C00163=1083,31556,-29291,1061,-27356,-1163
C00164=278,31231,-29698,1182,-27222,-853
C00165=-546,30931,-30072,1305,-27097,-536
C00166=-467,30855,-30164,1294,-27069,-567
C00167=362,31143,-29805,1171,-27189,-886
C00168=1178,31449,-29423,1049,-27316,-1201
C00169=1929,31731,-29071,938,-27432,-1491
C00170=1302,31456,-29414,1031,-27319,-1249
C00171=487,31150,-29795,1153,-27193,-935
C00172=-343,30862,-30155,1276,-27073,-615
C00173=-1186,30594,-30491,1402,-26960,-291
C00174=-2025,30306,-30850,1529,-26841,32
C00175=-2633,29748,-31539,1627,-26620,261
C00176=-1731,29853,-31404,1493,-26669,-87
C00177=-880,30124,-31066,1365,-26783,-414
C00178=-71,30477,-30627,1242,-26927,-724
C00179=725,30842,-30172,1122,-27077,-1030
C00180=1504,31228,-29692,1005,-27234,-1329
C00181=2272,31623,-29201,889,-27394,-1625
C00182=3020,32006,-28724,778,-27551,-1913
C00183=3778,32392,-28243,666,-27709,-2206
C00184=4572,32544,-28051,551,-27776,-2514
C00185=5386,32505,-28093,435,-27770,-2831
C00186=5892,33060,-27405,360,-27991,-3027
C00187=6477,33543,-26805,274,-28185,-3253
C00188=6170,34286,-25893,315,-28470,-3131
C00189=5633,34918,-25119,387,-28709,-2919
C00190=4971,35459,-24460,476,-28911,-2658
C00191=4236,35557,-24346,578,-28940,-2368
C00192=3678,35154,-24847,658,-28777,-2151
C00193=3654,34368,-25813,668,-28472,-2146
C00194=3654,32815,-25604,639,-29569,-2126
C00195=3059,32740,-25702,723,-29533,-1894
C00196=3059,34293,-25911,752,-28436,-1914
C00197=2516,35428,-24520,817,-28869,-1694
C00198=1925,36532,-23167,887,-29289,-1454
C00199=1347,37633,-21819,953,-29707,-1217
C00200=1035,38686,-20529,983,-30109,-1085
C00201=1913,37735,-21689,876,-29754,-1440
C00202=2051,37941,-21434,855,-29835,-1493
C00203=2414,38079,-21261,805,-29893,-1636
C00204=3001,36974,-22614,736,-29473,-1875
C00205=2791,37861,-21525,757,-29814,-1786
C00206=3254,37632,-21802,696,-29731,-1971
C00207=3679,36442,-23262,648,-29276,-2145
C00208=4145,36105,-23672,586,-29151,-2330
C00209=4527,36341,-23378,532,-29248,-2479
C00210=4938,35532,-24371,481,-28939,-2644
C00211=5956,34649,-25449,343,-28608,-3046
C00212=6570,33516,-26839,261,-28175,-3290
C00213=7130,32350,-28270,185,-27729,-3511
C00214=8372,31819,-28915,7,-27536,-3994
C00215=9842,31815,-28910,-205,-27549,-4565
C00216=9045,31571,-29216,-90,-27446,-4255
C00217=7567,31490,-29326,125,-27399,-3682
C00218=6240,31133,-29775,319,-27247,-3168
C00219=5176,31879,-28865,469,-27525,-2752
C00220=4232,31848,-28910,605,-27503,-2385
C00221=3152,30940,-30034,769,-27140,-1971
C00222=2038,30053,-31132,940,-26785,-1545
C00223=748,29478,-31848,1136,-26550,-1051
C00224=1017,30301,-30835,1086,-26870,-1148
C00225=1706,31169,-29763,976,-27213,-1408
C00226=2035,31087,-29862,929,-27185,-1537
C00227=2747,31366,-29513,823,-27300,-1811
C00228=1525,30705,-30335,1007,-27032,-1342
C00229=1612,30417,-30689,998,-26921,-1377
C00230=2735,31137,-29795,827,-27212,-1808
C00231=3091,31231,-29677,775,-27252,-1946
C00232=1917,30473,-30618,953,-26946,-1495
C00233=805,29618,-31676,1125,-26605,-1072
C00234=1961,30066,-31118,951,-26789,-1515
C00235=3076,30953,-30019,780,-27144,-1942
C00236=4157,31860,-28895,616,-27507,-2356
C00237=4152,32509,-28097,612,-27758,-2351
C00238=3221,32062,-28654,749,-27575,-1991
C00239=3278,31841,-28925,743,-27490,-2014
C00240=2042,31382,-29499,925,-27299,-1537
C00241=945,30885,-30118,1089,-27095,-1115
C00242=-330,30295,-30852,1282,-26854,-626
C00243=-1671,29812,-31454,1485,-26654,-111
C00244=-2554,30037,-31184,1610,-26732,234
C00245=-1942,30614,-30471,1512,-26960,3
C00246=-790,31382,-29519,1333,-27269,-436
C00247=-562,31944,-28828,1292,-27488,-519
C00248=205,32607,-28007,1174,-27752,-812
C00249=504,32991,-27533,1126,-27904,-925
C00250=1821,32897,-27638,940,-27882,-1440
C00251=2483,32838,-27705,847,-27867,-1699
C00252=1199,33191,-27281,1025,-27989,-1195
C00253=2104,33661,-26697,892,-28181,-1545
C00254=3062,33281,-27155,760,-28045,-1922
C00255=2468,34008,-26266,838,-28319,-1684
C00256=3059,34293,-25911,752,-28436,-1914
C00257=3059,32740,-25702,723,-29533,-1894
C00258=2926,32667,-25793,742,-29504,-1842
C00259=2926,34220,-26002,771,-28407,-1862
C00260=2887,34231,-25989,777,-28410,-1847
C00261=2853,34255,-25959,781,-28419,-1834
C00262=2821,34283,-25926,785,-28430,-1821
C00263=2782,34272,-25939,791,-28425,-1805
C00264=2751,34241,-25978,796,-28412,-1794
C00265=2733,34205,-26022,798,-28399,-1787
C00266=2735,34163,-26073,799,-28382,-1788
C00267=2736,34122,-26125,799,-28366,-1789
C00268=2737,34080,-26176,799,-28350,-1789
C00269=2739,34038,-26227,799,-28334,-1790
C00270=2760,34006,-26267,796,-28322,-1799
C00271=2771,33968,-26313,795,-28307,-1803
C00272=2783,33931,-26358,794,-28293,-1808
C00273=2815,33903,-26392,790,-28283,-1821
C00274=2834,33869,-26434,787,-28270,-1829
C00275=2859,33838,-26472,784,-28258,-1839
C00276=2892,33811,-26506,780,-28248,-1851
C00277=2903,33774,-26551,779,-28233,-1856
C00278=2935,33746,-26585,774,-28223,-1869
C00279=2959,33714,-26624,771,-28211,-1879
C00280=2979,33681,-26665,769,-28198,-1887
C00281=3012,33653,-26699,764,-28188,-1899
C00282=3044,33625,-26732,760,-28178,-1912
C00283=3077,33598,-26766,756,-28167,-1925
C00284=3110,33570,-26800,751,-28157,-1938
C00285=3142,33542,-26834,747,-28147,-1951
C00286=3175,33514,-26868,742,-28136,-1964
C00287=3207,33487,-26902,738,-28126,-1977
C00288=3240,33459,-26935,734,-28116,-1990
C00289=3273,33433,-26968,729,-28106,-2003
C00290=3318,33435,-26964,723,-28107,-2020
C00291=3363,33438,-26961,717,-28109,-2038
C00292=3407,33440,-26957,710,-28110,-2055
C00293=3452,33443,-26953,704,-28112,-2073
C00294=3483,33473,-26916,699,-28124,-2085
C00295=3523,33486,-26900,693,-28129,-2100
C00296=3540,33522,-26856,691,-28143,-2107
C00297=3516,33553,-26817,694,-28155,-2097
C00298=3504,33590,-26772,695,-28169,-2092
C00299=3475,33620,-26735,699,-28181,-2081
C00300=3459,33655,-26692,701,-28194,-2074
C00301=3442,33690,-26649,703,-28207,-2068
C00302=3415,33720,-26613,707,-28219,-2057
C00303=3382,33748,-26579,711,-28229,-2044
C00304=3370,33785,-26533,712,-28243,-2039
C00305=3338,33813,-26499,717,-28254,-2026
C00306=3316,33845,-26459,720,-28266,-2017
C00307=3294,32325,-26211,693,-29375,-1988
C00308=-41004,59868,4099,4900,-34257,16705
C00309=-41004,59868,1099,4900,-34257,16705
C00310=-41004,64596,1380,5213,-31659,16463
C00311=-41004,59868,1099,4900,-34257,16705
C00312=-41004,59868,9099,4900,-34257,16705
C00313=3294,32325,-26211,693,-29375,-1988
C00314=3294,33878,-26420,722,-28278,-2008
C00315=3261,33906,-26386,727,-28289,-1995
C00316=3229,33933,-26352,731,-28299,-1983
C00317=3196,33961,-26318,736,-28309,-1970
C00318=3164,33989,-26284,740,-28320,-1957
C00319=3152,34026,-26239,741,-28334,-1952
C00320=3120,34054,-26205,745,-28344,-1939
C00321=3087,34082,-26171,750,-28355,-1926
C00322=3055,34109,-26137,754,-28365,-1914
C00323=3023,34137,-26103,758,-28376,-1901
C00324=2990,34165,-26069,763,-28386,-1888
C00325=2958,34192,-26036,767,-28396,-1875
C00326=2926,34220,-26002,771,-28407,-1862
C00327=2926,32667,-25793,742,-29504,-1842
C00328=3298,32435,-26075,692,-29418,-1989
C00329=3298,33988,-26284,721,-28321,-2009
C00330=3282,33972,-26304,723,-28315,-2003
C00331=3282,33951,-26329,724,-28307,-2003
C00332=3292,33934,-26350,722,-28300,-2007
C00333=3308,33920,-26368,720,-28295,-2014
C00334=3325,33906,-26385,718,-28290,-2020
C00335=3341,33892,-26402,716,-28284,-2027
C00336=3345,33872,-26427,715,-28277,-2028
C00337=3354,33854,-26449,714,-28270,-2032
C00338=3370,33840,-26466,712,-28265,-2039
C00339=3387,33826,-26483,710,-28259,-2045
C00340=3404,33811,-26500,708,-28254,-2052
C00341=3408,33792,-26525,707,-28246,-2054
C00342=3416,33774,-26547,706,-28239,-2057
C00343=3433,33759,-26564,704,-28234,-2063
C00344=3450,33745,-26581,702,-28229,-2070
C00345=3466,33731,-26599,699,-28224,-2077
C00346=3472,33712,-26622,699,-28216,-2079
C00347=3479,33693,-26645,698,-28209,-2082
C00348=3495,33679,-26662,696,-28204,-2088
C00349=3504,33661,-26684,695,-28197,-2092
C00350=3508,33641,-26709,694,-28189,-2093
C00351=3525,33627,-26726,692,-28184,-2100
C00352=3536,33611,-26746,691,-28178,-2105
C00353=3537,33589,-26773,691,-28169,-2105
C00354=3554,33575,-26790,688,-28164,-2112
C00355=3571,33563,-26805,686,-28160,-2119
C00356=3594,33564,-26803,683,-28160,-2128
C00357=3617,33566,-26801,679,-28161,-2136
C00358=3636,33574,-26791,677,-28165,-2144
C00359=3652,33590,-26771,674,-28171,-2150
C00360=3672,33597,-26762,671,-28174,-2158
C00361=3692,33603,-26755,669,-28176,-2166
C00362=3708,33619,-26735,666,-28183,-2172
C00363=3710,33634,-26716,666,-28189,-2172
C00364=3693,33648,-26699,668,-28194,-2166
C00365=3676,33662,-26682,670,-28199,-2159
C00366=3659,33676,-26664,673,-28205,-2152
C00367=3643,33691,-26647,675,-28210,-2146
C00368=3626,33705,-26630,677,-28215,-2139
C00369=3609,33719,-26613,679,-28220,-2132
C00370=3592,33733,-26595,682,-28226,-2126
C00371=3576,33747,-26578,684,-28231,-2119
C00372=3559,33761,-26561,686,-28236,-2113
C00373=3542,33776,-26543,688,-28242,-2106
C00374=3526,33790,-26526,691,-28247,-2099
C00375=3509,33804,-26509,693,-28252,-2093
C00376=3492,33818,-26492,695,-28258,-2086
C00377=3476,33832,-26474,697,-28263,-2080
C00378=3459,33846,-26457,699,-28268,-2073
C00379=3442,33861,-26440,702,-28273,-2066
C00380=3435,33879,-26417,703,-28280,-2063
C00381=3430,33898,-26393,703,-28288,-2061
C00382=3413,33913,-26376,705,-28293,-2055
C00383=3397,33927,-26359,708,-28298,-2048
C00384=3380,33941,-26341,710,-28304,-2042
C00385=3363,33955,-26324,712,-28309,-2035
C00386=3347,33969,-26307,714,-28314,-2028
C00387=3330,33983,-26290,716,-28320,-2022
C00388=3313,33998,-26272,719,-28325,-2015
C00389=3298,33988,-26284,721,-28321,-2009
C00390=3298,32435,-26075,692,-29418,-1989
C00391=3823,32390,-26126,618,-29407,-2195
C00392=3823,33943,-26335,647,-28310,-2215
C00393=3823,33939,-26340,647,-28308,-2215
C00394=3823,33935,-26346,647,-28306,-2215
C00395=3823,33930,-26351,647,-28305,-2215
C00396=3824,33926,-26356,647,-28303,-2215
C00397=3824,33922,-26361,647,-28301,-2215
C00398=3824,33917,-26367,647,-28300,-2215
C00399=3827,33915,-26370,647,-28299,-2217
C00400=3831,33912,-26374,647,-28298,-2218
C00401=3834,33909,-26377,646,-28297,-2219
C00402=3837,33906,-26380,646,-28296,-2221
C00403=3841,33903,-26384,645,-28295,-2222
C00404=3844,33900,-26387,645,-28293,-2223
C00405=3847,33898,-26391,644,-28292,-2225
C00406=3851,33895,-26394,644,-28291,-2226
C00407=3854,33892,-26398,643,-28290,-2227
C00408=3858,33891,-26399,643,-28290,-2229
C00409=3863,33891,-26398,642,-28290,-2231
C00410=3867,33892,-26398,642,-28290,-2232
C00411=3872,33892,-26398,641,-28290,-2234
C00412=3876,33892,-26397,640,-28291,-2236
C00413=3881,33892,-26397,640,-28291,-2238
C00414=3885,33893,-26396,639,-28291,-2240
C00415=3889,33896,-26392,638,-28292,-2241
C00416=3892,33899,-26389,638,-28294,-2242
C00417=3895,33902,-26385,638,-28295,-2243
C00418=3898,33906,-26381,637,-28296,-2244
C00419=3901,33909,-26377,637,-28297,-2245
C00420=3904,33912,-26373,636,-28299,-2247
C00421=3907,33915,-26369,636,-28300,-2248
C00422=3910,33918,-26365,635,-28301,-2249
C00423=3913,33922,-26361,635,-28302,-2250
C00424=3912,33925,-26357,635,-28304,-2250
C00425=3908,33927,-26354,635,-28305,-2248
C00426=3905,33930,-26350,636,-28306,-2247
C00427=3902,33933,-26347,636,-28307,-2246
C00428=3898,33936,-26343,637,-28308,-2244
C00429=3895,33939,-26340,637,-28309,-2243
C00430=3892,33942,-26336,638,-28310,-2242
C00431=3888,33944,-26333,638,-28311,-2240
C00432=3885,33947,-26329,639,-28312,-2239
C00433=3882,33950,-26326,639,-28313,-2238
C00434=3878,33953,-26323,639,-28314,-2236
C00435=3875,33956,-26319,640,-28315,-2235
C00436=3872,33959,-26316,640,-28316,-2234
C00437=3868,33961,-26312,641,-28317,-2232
C00438=3865,33964,-26309,641,-28318,-2231
C00439=3862,33967,-26305,642,-28319,-2230
C00440=3858,33970,-26302,642,-28321,-2229
C00441=3855,33973,-26298,643,-28322,-2227
C00442=3852,33976,-26295,643,-28323,-2226
C00443=3848,33973,-26299,644,-28321,-2225
C00444=3845,33969,-26303,644,-28320,-2223
C00445=3842,33966,-26307,644,-28319,-2222
C00446=3839,33963,-26311,645,-28318,-2221
C00447=3836,33960,-26314,645,-28316,-2220
C00448=3833,33957,-26318,646,-28315,-2219
C00449=3830,33953,-26322,646,-28314,-2218
C00450=3827,33950,-26326,647,-28313,-2216
C00451=3824,33947,-26330,647,-28311,-2215
C00452=3823,33943,-26335,647,-28310,-2215
C00453=3823,32390,-26126,618,-29407,-2195
C00454=3915,32341,-26185,606,-29389,-2231
C00455=3915,33894,-26394,635,-28292,-2251
C00456=3912,33891,-26398,635,-28291,-2250
C00457=3909,33888,-26402,636,-28289,-2249
C00458=3906,33885,-26406,636,-28288,-2248
C00459=3903,33882,-26410,637,-28287,-2247
C00460=3900,33878,-26414,637,-28286,-2245
C00461=3897,33875,-26418,637,-28284,-2244
C00462=3894,33872,-26422,638,-28283,-2243
C00463=3891,33869,-26426,638,-28282,-2242
C00464=3888,33866,-26430,639,-28281,-2241
C00465=3887,33862,-26435,639,-28279,-2240
C00466=3887,33858,-26440,639,-28277,-2240
C00467=3887,33853,-26445,639,-28276,-2240
C00468=3887,33849,-26450,639,-28274,-2241
C00469=3888,33845,-26456,639,-28272,-2241
C00470=3888,33840,-26461,639,-28271,-2241
C00471=3888,33836,-26466,639,-28269,-2241
C00472=3891,33833,-26470,639,-28268,-2242
C00473=3895,33831,-26473,638,-28267,-2244
C00474=3898,33828,-26476,638,-28266,-2245
C00475=3901,33825,-26480,637,-28265,-2246
C00476=3905,33822,-26483,637,-28264,-2247
C00477=3908,33819,-26487,636,-28263,-2249
C00478=3911,33816,-26490,636,-28262,-2250
C00479=3915,33814,-26494,635,-28261,-2251
C00480=3918,33811,-26497,635,-28260,-2253
C00481=3922,33810,-26498,634,-28259,-2254
C00482=3927,33810,-26498,634,-28259,-2256
C00483=3931,33810,-26497,633,-28260,-2258
C00484=3936,33811,-26497,632,-28260,-2260
C00485=3940,33811,-26497,632,-28260,-2261
C00486=3945,33811,-26496,631,-28260,-2263
C00487=3950,33812,-26496,631,-28260,-2265
C00488=3953,33815,-26492,630,-28262,-2266
C00489=3956,33818,-26488,630,-28263,-2267
C00490=3959,33821,-26484,629,-28264,-2269
C00491=3962,33824,-26480,629,-28265,-2270
C00492=3965,33828,-26476,628,-28267,-2271
C00493=3968,33831,-26472,628,-28268,-2272
C00494=3971,33834,-26468,627,-28269,-2273
C00495=3974,33837,-26464,627,-28270,-2274
C00496=3977,33840,-26460,626,-28272,-2276
C00497=3976,33843,-26457,627,-28273,-2275
C00498=3972,33846,-26453,627,-28274,-2274
C00499=3969,33849,-26450,627,-28275,-2272
C00500=3966,33852,-26446,628,-28276,-2271
C00501=3962,33855,-26443,628,-28277,-2270
C00502=3959,33857,-26439,629,-28278,-2269
C00503=3956,33860,-26436,629,-28279,-2267
C00504=3952,33863,-26432,630,-28280,-2266
C00505=3949,33866,-26429,630,-28281,-2265
C00506=3946,33869,-26425,631,-28282,-2263
C00507=3942,33872,-26422,631,-28283,-2262
C00508=3939,33874,-26419,632,-28285,-2261
C00509=3936,33877,-26415,632,-28286,-2259
C00510=3932,33880,-26412,632,-28287,-2258
C00511=3929,33883,-26408,633,-28288,-2257
C00512=3926,33886,-26405,633,-28289,-2255
C00513=3922,33889,-26401,634,-28290,-2254
C00514=3919,33891,-26398,634,-28291,-2253
C00515=3915,33894,-26394,635,-28292,-2251
C00516=3915,32341,-26185,606,-29389,-2231
C00517=3213,31874,-26766,709,-29200,-1959
C00518=3213,33427,-26975,738,-28103,-1979
C00519=3209,33427,-26975,738,-28103,-1978
C00520=3205,33423,-26980,739,-28101,-1976
C00521=3201,33419,-26985,740,-28100,-1975
C00522=3198,33415,-26989,740,-28098,-1974
C00523=3194,33411,-26994,741,-28097,-1972
C00524=3190,33407,-26999,741,-28095,-1971
C00525=3186,33404,-27004,742,-28094,-1969
C00526=3182,33400,-27009,742,-28092,-1968
C00527=3182,33395,-27015,742,-28090,-1968
C00528=3182,33389,-27021,743,-28088,-1968
C00529=3182,33384,-27028,743,-28086,-1968
C00530=3183,33379,-27034,743,-28084,-1968
C00531=3183,33374,-27041,743,-28082,-1968
C00532=3183,33369,-27047,743,-28080,-1968
C00533=3183,33363,-27053,743,-28078,-1968
C00534=3183,33358,-27060,743,-28076,-1968
C00535=3184,33353,-27066,743,-28074,-1968
C00536=3184,33348,-27073,743,-28072,-1968
C00537=3184,33343,-27079,743,-28070,-1969
C00538=3188,33339,-27083,742,-28069,-1970
C00539=3192,33336,-27088,742,-28067,-1972
C00540=3196,33332,-27092,741,-28066,-1973
C00541=3200,33329,-27096,740,-28065,-1975
C00542=3204,33325,-27100,740,-28063,-1977
C00543=3208,33322,-27104,739,-28062,-1978
C00544=3212,33318,-27109,739,-28061,-1980
C00545=3217,33316,-27111,738,-28060,-1982
C00546=3223,33316,-27111,737,-28060,-1984
C00547=3228,33317,-27110,737,-28060,-1986
C00548=3234,33317,-27110,736,-28061,-1988
C00549=3239,33317,-27110,735,-28061,-1990
C00550=3245,33318,-27109,734,-28061,-1993
C00551=3249,33321,-27105,734,-28062,-1994
C00552=3253,33325,-27100,733,-28064,-1996
C00553=3256,33329,-27095,733,-28066,-1997
C00554=3260,33333,-27090,732,-28067,-1998
C00555=3264,33337,-27085,731,-28069,-2000
C00556=3268,33341,-27080,731,-28070,-2001
C00557=3272,33345,-27076,730,-28072,-2003
C00558=3274,33349,-27070,730,-28073,-2004
C00559=3274,33354,-27064,730,-28075,-2004
C00560=3274,33359,-27058,730,-28077,-2004
C00561=3274,33365,-27051,730,-28079,-2004
C00562=3274,33370,-27045,730,-28081,-2003
C00563=3274,33375,-27038,730,-28084,-2003
C00564=3270,33379,-27034,730,-28085,-2002
C00565=3266,33382,-27029,731,-28086,-2000
C00566=3262,33386,-27025,731,-28088,-1999
C00567=3258,33389,-27021,732,-28089,-1997
C00568=3254,33393,-27017,732,-28090,-1996
C00569=3250,33396,-27013,733,-28091,-1994
C00570=3246,33400,-27008,733,-28093,-1992
C00571=3242,33403,-27004,734,-28094,-1991
C00572=3237,33407,-27000,735,-28095,-1989
C00573=3233,33410,-26996,735,-28097,-1988
C00574=3229,33413,-26992,736,-28098,-1986
C00575=3225,33417,-26987,736,-28099,-1984
C00576=3221,33420,-26983,737,-28100,-1983
C00577=3217,33424,-26979,737,-28102,-1981
C00578=3213,33427,-26975,738,-28103,-1979
C00579=3213,31874,-26766,709,-29200,-1959
C00580=3152,31843,-26805,718,-29187,-1936
C00581=3152,33396,-27014,747,-28090,-1956
C00582=3122,33422,-26982,751,-28100,-1944
C00583=3092,33448,-26951,755,-28110,-1932
C00584=3083,33483,-26907,756,-28123,-1928
C00585=3053,33508,-26876,760,-28133,-1917
C00586=3023,33534,-26845,764,-28142,-1905
C00587=2995,33560,-26813,768,-28152,-1893
C00588=2984,33595,-26771,769,-28165,-1889
C00589=2954,33620,-26739,773,-28175,-1877
C00590=2924,33646,-26708,777,-28184,-1865
C00591=2894,33671,-26677,781,-28194,-1853
C00592=2864,33697,-26646,785,-28203,-1841
C00593=2834,33723,-26614,789,-28213,-1830
C00594=2804,33748,-26583,793,-28223,-1818
C00595=2774,33774,-26552,797,-28232,-1806
C00596=2745,33799,-26521,801,-28242,-1794
C00597=2715,33825,-26490,805,-28251,-1782
C00598=2685,33851,-26458,809,-28261,-1770
C00599=2655,33876,-26427,812,-28270,-1759
C00600=2625,33902,-26396,816,-28280,-1747
C00601=2587,33907,-26390,822,-28281,-1732
C00602=2558,33932,-26359,826,-28291,-1720
C00603=2527,33955,-26331,830,-28299,-1708
C00604=2490,33963,-26321,835,-28302,-1693
C00605=2457,33979,-26302,839,-28308,-1680
C00606=2416,33977,-26305,845,-28306,-1664
C00607=2375,33974,-26309,851,-28305,-1648
C00608=2339,33961,-26325,856,-28299,-1634
C00609=2322,33929,-26365,859,-28287,-1628
C00610=2323,33890,-26413,859,-28272,-1629
C00611=2324,33851,-26460,859,-28257,-1629
C00612=2325,33813,-26508,860,-28242,-1630
C00613=2346,33784,-26544,857,-28231,-1638
C00614=2356,33749,-26586,856,-28218,-1643
C00615=2385,33723,-26618,852,-28208,-1654
C00616=2414,33697,-26649,848,-28198,-1666
C00617=2444,32119,-26471,815,-29286,-1658
C00618=-41004,59868,4099,4900,-34257,16705
C00619=-41004,59868,1099,4900,-34257,16705
C00620=-41004,64596,1380,5213,-31659,16463
C00621=-41004,59868,1099,4900,-34257,16705
C00622=-41004,59868,9099,4900,-34257,16705
C00623=2444,32119,-26471,815,-29286,-1658
C00624=2444,33672,-26680,844,-28189,-1678
C00625=2474,33646,-26711,840,-28179,-1689
C00626=2504,33621,-26743,836,-28170,-1701
C00627=2534,33595,-26774,832,-28160,-1713
C00628=2564,33569,-26805,828,-28151,-1725
C00629=2593,33544,-26836,824,-28141,-1737
C00630=2631,33537,-26844,819,-28139,-1751
C00631=2661,33513,-26874,815,-28130,-1763
C00632=2691,33487,-26905,811,-28120,-1775
C00633=2721,33462,-26936,807,-28111,-1787
C00634=2760,33457,-26942,802,-28109,-1802
C00635=2790,33431,-26973,798,-28100,-1814
C00636=2820,33406,-27003,794,-28090,-1826
C00637=2858,33400,-27011,788,-28089,-1841
C00638=2888,33375,-27042,784,-28079,-1853
C00639=2921,33356,-27065,780,-28072,-1866
C00640=2956,33344,-27079,775,-28068,-1880
C00641=2992,33331,-27094,770,-28063,-1894
C00642=3033,33334,-27091,764,-28065,-1910
C00643=3063,33308,-27122,760,-28055,-1922
C00644=3104,33310,-27120,754,-28056,-1938
C00645=3145,33312,-27117,748,-28058,-1954
C00646=3176,33335,-27089,744,-28067,-1966
C00647=3162,33361,-27056,746,-28077,-1960
C00648=3152,33396,-27014,747,-28090,-1956
C00649=3152,31843,-26805,718,-29187,-1936
C00650=2777,31642,-27055,773,-29105,-1791
C00651=2777,33195,-27264,802,-28008,-1811
C00652=2744,33223,-27230,806,-28018,-1798
C00653=2711,33251,-27196,811,-28029,-1785
C00654=2678,33278,-27162,815,-28039,-1772
C00655=2646,33306,-27128,819,-28050,-1759
C00656=2605,33314,-27119,825,-28052,-1743
C00657=2572,33342,-27085,829,-28063,-1730
C00658=2539,33370,-27051,834,-28073,-1717
C00659=2507,33398,-27017,838,-28083,-1704
C00660=2470,33415,-26996,843,-28090,-1689
C00661=2433,33433,-26974,848,-28096,-1675
C00662=2401,33461,-26940,852,-28107,-1662
C00663=2368,33489,-26906,857,-28117,-1649
C00664=2327,33496,-26897,862,-28120,-1633
C00665=2295,33524,-26863,867,-28130,-1620
C00666=2259,33544,-26839,872,-28137,-1606
C00667=2222,33559,-26820,877,-28143,-1591
C00668=2181,33568,-26811,882,-28145,-1575
C00669=2149,33595,-26777,887,-28156,-1562
C00670=2115,33620,-26746,891,-28165,-1549
C00671=2070,33618,-26750,897,-28164,-1532
C00672=2035,33637,-26726,902,-28171,-1518
C00673=1993,33641,-26721,908,-28172,-1501
C00674=1953,33652,-26708,914,-28176,-1486
C00675=1915,33665,-26693,919,-28180,-1471
C00676=1881,33639,-26726,924,-28169,-1458
C00677=1850,33607,-26765,929,-28157,-1446
C00678=1849,33566,-26815,929,-28141,-1446
C00679=1850,33524,-26867,930,-28125,-1446
C00680=1858,33485,-26915,929,-28110,-1450
C00681=1890,33457,-26949,925,-28099,-1463
C00682=1923,33429,-26983,920,-28089,-1475
C00683=1955,33401,-27017,916,-28079,-1488
C00684=1993,33387,-27034,911,-28074,-1503
C00685=2028,33366,-27059,906,-28066,-1517
C00686=2069,33359,-27068,900,-28063,-1533
C00687=2101,33331,-27102,896,-28053,-1546
C00688=2137,33311,-27127,891,-28046,-1560
C00689=2175,33295,-27145,886,-28040,-1575
C00690=2215,33287,-27155,880,-28037,-1591
C00691=2248,33260,-27188,876,-28027,-1604
C00692=2282,33234,-27220,872,-28018,-1617
C00693=2322,33225,-27231,866,-28014,-1633
C00694=2360,33210,-27248,861,-28009,-1648
C00695=2395,33189,-27274,856,-28002,-1662
C00696=2436,33182,-27283,850,-27999,-1678
C00697=2472,33160,-27309,845,-27991,-1692
C00698=2510,33147,-27326,840,-27986,-1707
C00699=2550,33136,-27338,834,-27983,-1722
C00700=2584,33111,-27368,830,-27974,-1736
C00701=2629,33113,-27366,824,-27975,-1753
C00702=2666,33096,-27386,818,-27969,-1768
C00703=2707,33089,-27395,813,-27966,-1784
C00704=2741,33063,-27427,808,-27957,-1797
C00705=2786,33065,-27424,802,-27958,-1815
C00706=2831,33068,-27420,795,-27960,-1833
C00707=2871,33081,-27403,789,-27965,-1848
C00708=2875,33111,-27366,789,-27977,-1850
C00709=2842,33139,-27332,793,-27987,-1837
C00710=2810,33167,-27298,797,-27998,-1824
C00711=2777,33195,-27264,802,-28008,-1811
C00712=2777,31642,-27055,773,-29105,-1791
C00713=2731,31509,-27219,780,-29053,-1774
C00714=2731,33062,-27428,809,-27956,-1794
C00715=2716,33061,-27429,812,-27956,-1788
C00716=2701,33060,-27430,814,-27955,-1782
C00717=2685,33059,-27431,816,-27955,-1776
C00718=2672,33064,-27426,818,-27956,-1771
C00719=2661,33073,-27415,819,-27960,-1766
C00720=2650,33083,-27403,821,-27963,-1762
C00721=2636,33085,-27400,823,-27964,-1756
C00722=2620,33084,-27402,825,-27963,-1750
C00723=2609,33076,-27412,827,-27960,-1746
C00724=2598,33065,-27425,828,-27956,-1742
C00725=2587,33054,-27438,830,-27952,-1738
C00726=2587,33040,-27456,830,-27946,-1738
C00727=2588,33026,-27473,830,-27941,-1738
C00728=2598,33016,-27485,829,-27937,-1742
C00729=2609,33007,-27497,827,-27933,-1747
C00730=2621,32997,-27508,826,-27930,-1751
C00731=2632,32988,-27520,824,-27926,-1755
C00732=2643,32978,-27531,823,-27923,-1760
C00733=2654,32969,-27543,821,-27919,-1764
C00734=2665,32959,-27554,820,-27916,-1769
C00735=2676,32950,-27566,818,-27912,-1773
C00736=2688,32940,-27578,817,-27909,-1777
C00737=2699,32931,-27589,815,-27905,-1782
C00738=2710,32921,-27601,814,-27902,-1786
C00739=2721,32912,-27612,812,-27898,-1791
C00740=2732,32902,-27624,811,-27894,-1795
C00741=2744,32893,-27636,809,-27891,-1800
C00742=2755,32883,-27647,808,-27887,-1804
C00743=2766,32874,-27659,806,-27884,-1808
C00744=2778,32867,-27668,805,-27881,-1813
C00745=2793,32868,-27666,802,-27882,-1819
C00746=2809,32868,-27665,800,-27882,-1825
C00747=2824,32869,-27664,798,-27883,-1831
C00748=2840,32870,-27663,796,-27883,-1837
C00749=2855,32871,-27662,794,-27884,-1843
C00750=2869,32875,-27657,792,-27885,-1849
C00751=2880,32885,-27644,790,-27890,-1853
C00752=2890,32896,-27630,788,-27894,-1857
C00753=2895,32909,-27615,788,-27899,-1859
C00754=2895,32923,-27597,788,-27904,-1858
C00755=2900,32935,-27582,787,-27909,-1860
C00756=2911,32946,-27569,785,-27913,-1864
C00757=2921,32957,-27556,783,-27918,-1868
C00758=2924,32970,-27539,783,-27923,-1869
C00759=2923,32984,-27522,783,-27928,-1869
C00760=2915,32995,-27508,784,-27932,-1866
C00761=2904,33005,-27497,786,-27936,-1861
C00762=2892,33014,-27485,787,-27940,-1857
C00763=2881,33024,-27474,789,-27943,-1852
C00764=2870,33033,-27462,790,-27947,-1848
C00765=2858,33041,-27453,792,-27949,-1843
C00766=2843,33040,-27454,794,-27949,-1837
C00767=2827,33039,-27455,796,-27948,-1831
C00768=2812,33038,-27456,798,-27948,-1825
C00769=2797,33037,-27457,800,-27947,-1819
C00770=2781,33037,-27459,803,-27947,-1813
C00771=2767,33038,-27457,805,-27947,-1808
C00772=2756,33048,-27445,806,-27951,-1803
C00773=2745,33057,-27434,808,-27954,-1799
C00774=2731,33062,-27428,809,-27956,-1794
C00775=2731,31509,-27219,780,-29053,-1774
C00776=2633,31406,-27346,795,-29012,-1736
C00777=2633,32959,-27555,824,-27915,-1756
C00778=2581,32976,-27535,832,-27921,-1736
C00779=2537,33013,-27489,838,-27935,-1718
C00780=2493,33048,-27446,843,-27948,-1701
C00781=2442,33067,-27424,851,-27955,-1681
C00782=2398,33104,-27379,856,-27969,-1664
C00783=2348,33125,-27353,863,-27976,-1644
C00784=2303,33158,-27313,869,-27988,-1626
C00785=2252,33176,-27292,876,-27995,-1606
C00786=2204,33201,-27261,883,-28004,-1587
C00787=2157,33228,-27228,889,-28014,-1568
C00788=2108,33252,-27199,896,-28023,-1549
C00789=2060,33278,-27168,903,-28032,-1530
C00790=2010,33298,-27143,909,-28039,-1511
C00791=1959,33315,-27123,916,-28045,-1490
C00792=1907,33332,-27103,924,-28051,-1470
C00793=1857,33351,-27079,931,-28058,-1450
C00794=1804,33365,-27063,938,-28063,-1430
C00795=1753,33381,-27043,945,-28069,-1409
C00796=1702,33399,-27022,952,-28075,-1389
C00797=1642,33395,-27027,960,-28073,-1366
C00798=1590,33411,-27008,968,-28078,-1346
C00799=1534,33417,-27001,975,-28080,-1324
C00800=1488,33386,-27039,982,-28067,-1306
C00801=1428,33383,-27044,991,-28065,-1282
C00802=1368,33379,-27049,999,-28063,-1259
C00803=1321,33348,-27087,1006,-28051,-1241
C00804=1267,33334,-27106,1014,-28045,-1220
C00805=1249,33284,-27167,1017,-28025,-1214
C00806=1253,33229,-27234,1017,-28004,-1215
C00807=1295,33192,-27280,1012,-27990,-1232
C00808=1347,33175,-27300,1005,-27984,-1252
C00809=1397,33155,-27324,998,-27977,-1272
C00810=1450,33142,-27340,990,-27973,-1293
C00811=1501,33125,-27360,983,-27967,-1313
C00812=1552,33107,-27381,976,-27960,-1333
C00813=1604,33092,-27400,969,-27955,-1354
C00814=1660,33085,-27408,961,-27953,-1375
C00815=1708,33060,-27438,955,-27944,-1394
C00816=1768,33063,-27434,946,-27946,-1418
C00817=1816,33038,-27465,940,-27937,-1437
C00818=1871,33030,-27474,932,-27934,-1458
C00819=1923,33013,-27494,925,-27928,-1478
C00820=1972,32990,-27522,918,-27920,-1498
C00821=2026,32980,-27535,910,-27916,-1519
C00822=2080,32968,-27548,903,-27913,-1540
C00823=2130,32946,-27575,896,-27905,-1560
C00824=2188,32946,-27575,888,-27905,-1583
C00825=2236,32921,-27606,881,-27896,-1602
C00826=2294,32917,-27609,873,-27895,-1624
C00827=2345,32899,-27632,866,-27889,-1644
C00828=2398,32884,-27650,859,-27884,-1665
C00829=2453,32876,-27658,851,-27881,-1687
C00830=2502,32851,-27689,844,-27872,-1706
C00831=2562,32854,-27684,836,-27874,-1729
C00832=2610,32829,-27715,829,-27865,-1748
C00833=2671,32832,-27711,820,-27867,-1772
C00834=2726,32846,-27694,812,-27873,-1793
C00835=2720,32885,-27645,813,-27888,-1791
C00836=2677,32922,-27600,819,-27902,-1773
C00837=2633,32959,-27555,824,-27915,-1756
C00838=2633,31406,-27346,795,-29012,-1736
C00839=2403,31161,-27650,831,-28915,-1648
C00840=2403,32714,-27859,860,-27818,-1668
C00841=2332,32728,-27841,870,-27823,-1640
C00842=2265,32753,-27812,879,-27831,-1614
C00843=2198,32777,-27782,888,-27840,-1588
C00844=2124,32785,-27773,899,-27842,-1559
C00845=2052,32797,-27759,909,-27846,-1531
C00846=1985,32822,-27729,918,-27855,-1504
C00847=1919,32846,-27700,927,-27864,-1478
C00848=1846,32856,-27688,937,-27867,-1450
C00849=1773,32866,-27676,948,-27870,-1421
C00850=1707,32890,-27647,957,-27878,-1395
C00851=1640,32915,-27617,966,-27887,-1369
C00852=1573,32939,-27588,975,-27896,-1343
C00853=1504,32956,-27568,985,-27901,-1315
C00854=1430,32964,-27559,995,-27903,-1287
C00855=1362,32984,-27535,1005,-27910,-1260
C00856=1296,33008,-27506,1014,-27919,-1234
C00857=1227,33027,-27482,1023,-27926,-1207
C00858=1151,33028,-27482,1034,-27925,-1177
C00859=1085,33052,-27453,1043,-27934,-1151
C00860=1006,33048,-27459,1054,-27931,-1120
C00861=928,33043,-27465,1066,-27929,-1090
C00862=849,33039,-27471,1077,-27926,-1059
C00863=771,33034,-27477,1088,-27923,-1029
C00864=696,33021,-27495,1099,-27917,-1000
C00865=626,32998,-27523,1109,-27908,-973
C00866=560,32966,-27563,1119,-27895,-947
C00867=494,32934,-27603,1128,-27881,-922
C00868=430,32899,-27647,1138,-27867,-897
C00869=374,32844,-27715,1147,-27845,-876
C00870=407,32788,-27783,1143,-27824,-889
C00871=479,32778,-27795,1133,-27821,-917
C00872=552,32768,-27806,1122,-27818,-946
C00873=626,32763,-27812,1112,-27817,-975
C00874=697,32748,-27830,1102,-27812,-1002
C00875=776,32753,-27824,1091,-27815,-1033
C00876=842,32728,-27853,1082,-27806,-1059
C00877=921,32733,-27847,1070,-27809,-1090
C00878=987,32708,-27877,1061,-27800,-1116
C00879=1066,32713,-27870,1050,-27802,-1147
C00880=1145,32717,-27864,1039,-27805,-1177
C00881=1211,32693,-27894,1030,-27796,-1204
C00882=1290,32697,-27888,1018,-27799,-1234
C00883=1357,32673,-27917,1009,-27790,-1260
C00884=1436,32677,-27911,998,-27793,-1291
C00885=1510,32671,-27918,987,-27791,-1320
C00886=1581,32657,-27934,977,-27787,-1348
C00887=1660,32662,-27928,966,-27789,-1379
C00888=1727,32637,-27958,957,-27781,-1405
C00889=1806,32642,-27952,945,-27783,-1436
C00890=1885,32646,-27946,934,-27786,-1467
C00891=1952,32622,-27975,925,-27777,-1493
C00892=2031,32626,-27969,914,-27780,-1524
C00893=2110,32631,-27963,902,-27782,-1554
C00894=2177,32606,-27992,893,-27774,-1581
C00895=2256,32611,-27986,882,-27776,-1612
C00896=2335,32615,-27980,870,-27779,-1642
C00897=2414,32620,-27974,859,-27782,-1673
C00898=2488,32635,-27955,848,-27788,-1702
C00899=2468,32686,-27893,851,-27808,-1694
C00900=2403,32714,-27859,860,-27818,-1668
C00901=2403,31161,-27650,831,-28915,-1648
C00902=2447,31040,-27798,826,-28869,-1666
C00903=2447,32593,-28007,855,-27772,-1686
C00904=2443,32589,-28012,855,-27770,-1684
C00905=2439,32585,-28016,856,-27769,-1683
C00906=2435,32581,-28021,856,-27767,-1681
C00907=2431,32577,-28026,857,-27765,-1680
C00908=2427,32574,-28031,858,-27764,-1678
C00909=2423,32570,-28036,858,-27762,-1677
C00910=2420,32566,-28041,859,-27761,-1675
C00911=2417,32561,-28046,859,-27759,-1675
C00912=2417,32556,-28052,859,-27757,-1675
C00913=2418,32551,-28059,859,-27755,-1675
C00914=2418,32546,-28065,859,-27753,-1675
C00915=2418,32540,-28072,859,-27751,-1675
C00916=2418,32535,-28078,859,-27749,-1675
C00917=2422,32532,-28082,859,-27748,-1677
C00918=2426,32528,-28086,858,-27746,-1678
C00919=2430,32525,-28091,858,-27745,-1680
C00920=2434,32521,-28095,857,-27744,-1682
C00921=2438,32518,-28099,857,-27742,-1683
C00922=2442,32514,-28103,856,-27741,-1685
C00923=2447,32511,-28108,855,-27740,-1686
C00924=2451,32509,-28110,855,-27739,-1688
C00925=2457,32509,-28110,854,-27739,-1690
C00926=2462,32509,-28109,853,-27739,-1693
C00927=2468,30957,-27900,823,-28837,-1675
C00928=-41004,59868,4099,4900,-34257,16705
C00929=-41004,59868,1099,4900,-34257,16705
C00930=-41004,64596,1380,5213,-31659,16463
C00931=-41004,59868,1099,4900,-34257,16705
C00932=-41004,59868,9099,4900,-34257,16705
C00933=2468,30957,-27900,823,-28837,-1675
C00934=2468,32510,-28109,852,-27740,-1695
C00935=2474,32510,-28109,852,-27740,-1697
C00936=2479,32510,-28108,851,-27740,-1699
C00937=2485,32511,-28108,850,-27740,-1701
C00938=2491,32511,-28107,849,-27740,-1704
C00939=2496,32511,-28107,848,-27741,-1706
C00940=2502,32512,-28106,848,-27741,-1708
C00941=2508,32512,-28106,847,-27741,-1710
C00942=2512,32514,-28103,846,-27742,-1712
C00943=2516,32518,-28098,845,-27743,-1713
C00944=2520,32522,-28094,845,-27745,-1715
C00945=2524,32526,-28089,844,-27746,-1716
C00946=2528,32530,-28084,844,-27748,-1718
C00947=2532,32534,-28079,843,-27750,-1719
C00948=2536,32538,-28074,842,-27751,-1721
C00949=2539,32541,-28069,842,-27753,-1722
C00950=2537,32545,-28065,842,-27754,-1721
C00951=2533,32548,-28061,843,-27755,-1720
C00952=2529,32552,-28057,843,-27757,-1718
C00953=2524,32555,-28052,844,-27758,-1716
C00954=2520,32559,-28048,844,-27759,-1715
C00955=2516,32562,-28044,845,-27760,-1713
C00956=2512,32566,-28040,846,-27762,-1712
C00957=2508,32569,-28036,846,-27763,-1710
C00958=2504,32573,-28031,847,-27764,-1708
C00959=2500,32576,-28027,847,-27766,-1707
C00960=2496,32580,-28023,848,-27767,-1705
C00961=2492,32583,-28019,848,-27768,-1704
C00962=2488,32586,-28014,849,-27770,-1702
C00963=2484,32590,-28010,849,-27771,-1700
C00964=2480,32593,-28006,850,-27772,-1699
C00965=2475,32595,-28004,851,-27773,-1697
C00966=2469,32595,-28005,851,-27772,-1695
C00967=2463,32594,-28005,852,-27772,-1692
C00968=2458,32594,-28005,853,-27772,-1690
C00969=2452,32594,-28006,854,-27772,-1688
C00970=2447,32593,-28007,855,-27772,-1686
C00971=2447,31040,-27798,826,-28869,-1666
C00972=2330,30863,-28016,844,-28799,-1622
C00973=2330,32416,-28225,873,-27702,-1642
C00974=2335,32412,-28230,872,-27700,-1644
C00975=2340,32408,-28235,872,-27699,-1646
C00976=2345,32404,-28240,871,-27697,-1648
C00977=2350,32400,-28245,870,-27696,-1649
C00978=2355,32395,-28250,870,-27694,-1651
C00979=2360,32391,-28255,869,-27693,-1653
C00980=2355,32390,-28257,870,-27692,-1651
C00981=2348,32390,-28257,871,-27692,-1649
C00982=2341,32390,-28258,872,-27692,-1646
C00983=2334,32389,-28258,873,-27692,-1643
C00984=2327,32389,-28259,874,-27691,-1641
C00985=2321,32388,-28259,875,-27691,-1638
C00986=2314,32388,-28260,876,-27691,-1636
C00987=2307,32388,-28260,877,-27691,-1633
C00988=2300,32387,-28261,878,-27690,-1630
C00989=2293,32387,-28261,879,-27690,-1628
C00990=2286,32386,-28262,880,-27690,-1625
C00991=2279,32386,-28263,881,-27690,-1622
C00992=2273,32386,-28263,882,-27689,-1620
C00993=2266,32385,-28264,883,-27689,-1617
C00994=2259,32385,-28264,884,-27689,-1614
C00995=2252,32384,-28265,884,-27689,-1612
C00996=2245,32384,-28265,885,-27689,-1609
C00997=2238,32384,-28266,886,-27688,-1606
C00998=2232,32383,-28266,887,-27688,-1604
C00999=2225,32383,-28267,888,-27688,-1601
C01000=2218,32383,-28267,889,-27688,-1598
C01001=2211,32382,-28268,890,-27687,-1596
C01002=2204,32382,-28268,891,-27687,-1593
C01003=2197,32381,-28269,892,-27687,-1590
C01004=2191,32381,-28269,893,-27687,-1588
C01005=2184,32381,-28270,894,-27687,-1585
C01006=2177,32380,-28270,895,-27686,-1582
C01007=2177,32387,-28263,895,-27689,-1582
C01008=2177,32393,-28255,895,-27691,-1582
C01009=2176,32399,-28247,895,-27694,-1582
C01010=2176,32405,-28239,895,-27696,-1582
C01011=2180,32409,-28235,895,-27697,-1583
C01012=2187,32409,-28235,894,-27698,-1586
C01013=2194,32409,-28234,893,-27698,-1589
C01014=2200,32410,-28234,892,-27698,-1591
C01015=2207,32410,-28233,891,-27698,-1594
C01016=2214,32411,-28233,890,-27698,-1597
C01017=2221,32411,-28232,889,-27699,-1599
C01018=2228,32411,-28232,888,-27699,-1602
C01019=2235,32412,-28231,887,-27699,-1605
C01020=2241,32412,-28231,886,-27699,-1607
C01021=2248,32413,-28230,885,-27700,-1610
C01022=2255,32413,-28230,884,-27700,-1612
C01023=2262,32413,-28229,883,-27700,-1615
C01024=2269,32414,-28229,882,-27700,-1618
C01025=2276,32414,-28228,881,-27701,-1620
C01026=2282,32414,-28228,880,-27701,-1623
C01027=2289,32415,-28227,879,-27701,-1626
C01028=2296,32415,-28227,878,-27701,-1628
C01029=2303,32416,-28226,877,-27701,-1631
C01030=2310,32416,-28225,876,-27702,-1634
C01031=2317,32416,-28225,875,-27702,-1636
C01032=2323,32417,-28224,874,-27702,-1639
C01033=2330,32416,-28225,873,-27702,-1642
C01034=2330,30863,-28016,844,-28799,-1622
C01035=2623,30230,-28792,808,-28557,-1740
C01036=2623,31783,-29001,837,-27460,-1760
C01037=2620,31780,-29005,838,-27459,-1759
C01038=2617,31777,-29009,838,-27458,-1758
C01039=2613,31774,-29013,839,-27457,-1756
C01040=2610,31771,-29017,839,-27455,-1755
C01041=2607,31767,-29021,840,-27454,-1754
C01042=2604,31764,-29025,840,-27453,-1753
C01043=2600,31761,-29029,841,-27451,-1751
C01044=2597,31758,-29033,841,-27450,-1750
C01045=2594,31755,-29037,842,-27449,-1749
C01046=2593,31751,-29041,842,-27447,-1749
C01047=2593,31747,-29047,842,-27446,-1749
C01048=2593,31742,-29052,842,-27444,-1749
C01049=2593,31738,-29057,842,-27442,-1749
C01050=2593,31734,-29062,842,-27441,-1749
C01051=2593,31729,-29068,842,-27439,-1749
C01052=2594,31725,-29073,842,-27438,-1749
C01053=2597,31722,-29076,842,-27436,-1750
C01054=2600,31719,-29080,841,-27435,-1752
C01055=2604,31717,-29083,841,-27434,-1753
C01056=2607,31714,-29087,840,-27433,-1754
C01057=2611,31711,-29090,840,-27432,-1756
C01058=2614,31708,-29094,839,-27431,-1757
C01059=2617,31705,-29097,839,-27430,-1758
C01060=2621,31702,-29101,838,-27429,-1760
C01061=2624,31700,-29104,838,-27428,-1761
C01062=2628,31699,-29105,837,-27428,-1763
C01063=2633,31699,-29105,837,-27428,-1765
C01064=2638,31699,-29104,836,-27428,-1766
C01065=2642,31700,-29104,835,-27428,-1768
C01066=2647,31700,-29104,835,-27428,-1770
C01067=2652,31700,-29103,834,-27428,-1772
C01068=2656,31700,-29103,833,-27429,-1774
C01069=2659,31704,-29099,833,-27430,-1775
C01070=2663,31707,-29095,832,-27431,-1776
C01071=2666,31710,-29091,832,-27432,-1777
C01072=2669,31713,-29087,831,-27434,-1778
C01073=2672,31716,-29083,831,-27435,-1780
C01074=2676,31720,-29079,830,-27436,-1781
C01075=2679,31723,-29075,830,-27438,-1782
C01076=2682,31726,-29071,829,-27439,-1783
C01077=2685,31729,-29067,829,-27440,-1785
C01078=2684,31732,-29063,829,-27441,-1784
C01079=2681,31735,-29060,830,-27442,-1783
C01080=2677,31738,-29057,830,-27443,-1781
C01081=2674,31741,-29053,830,-27444,-1780
C01082=2670,31744,-29050,831,-27445,-1779
C01083=2667,31746,-29046,831,-27447,-1777
C01084=2664,31749,-29043,832,-27448,-1776
C01085=2660,31752,-29039,832,-27449,-1775
C01086=2657,31755,-29036,833,-27450,-1773
C01087=2653,31758,-29032,833,-27451,-1772
C01088=2650,31761,-29029,834,-27452,-1771
C01089=2647,31763,-29025,834,-27453,-1769
C01090=2643,31766,-29022,835,-27454,-1768
C01091=2640,31769,-29018,835,-27455,-1767
C01092=2637,31772,-29015,835,-27456,-1765
C01093=2633,31775,-29012,836,-27457,-1764
C01094=2630,31778,-29008,836,-27458,-1763
C01095=2626,31780,-29005,837,-27459,-1761
C01096=2623,31783,-29001,837,-27460,-1760
C01097=2623,30230,-28792,808,-28557,-1740
C01098=2848,29960,-29123,779,-28455,-1829
C01099=2848,31513,-29332,808,-27358,-1849
C01100=2845,31510,-29336,808,-27357,-1848
C01101=2841,31507,-29340,809,-27356,-1847
C01102=2838,31504,-29344,809,-27354,-1846
C01103=2835,31500,-29348,810,-27353,-1844
C01104=2832,31497,-29351,810,-27352,-1843
C01105=2828,31494,-29355,811,-27351,-1842
C01106=2825,31491,-29359,811,-27349,-1841
C01107=2822,31488,-29363,812,-27348,-1839
C01108=2819,31484,-29367,812,-27347,-1838
C01109=2818,31480,-29372,812,-27345,-1838
C01110=2818,31476,-29377,812,-27344,-1838
C01111=2818,31472,-29383,812,-27342,-1838
C01112=2818,31468,-29388,812,-27340,-1838
C01113=2818,31463,-29393,812,-27339,-1838
C01114=2818,31459,-29398,812,-27337,-1838
C01115=2818,31455,-29404,812,-27335,-1838
C01116=2822,31452,-29407,812,-27334,-1840
C01117=2825,31449,-29410,811,-27333,-1841
C01118=2829,31446,-29414,811,-27332,-1842
C01119=2832,31444,-29417,810,-27331,-1844
C01120=2836,31441,-29421,810,-27330,-1845
C01121=2839,31438,-29424,810,-27329,-1846
C01122=2842,31435,-29428,809,-27328,-1848
C01123=2846,31432,-29431,809,-27327,-1849
C01124=2849,31429,-29435,808,-27326,-1850
C01125=2853,31429,-29436,808,-27326,-1852
C01126=2858,31429,-29435,807,-27326,-1854
C01127=2863,31429,-29435,806,-27326,-1856
C01128=2867,31429,-29435,806,-27326,-1857
C01129=2872,31430,-29434,805,-27326,-1859
C01130=2877,31430,-29434,804,-27326,-1861
C01131=2881,31430,-29433,803,-27327,-1863
C01132=2885,31433,-29430,803,-27328,-1864
C01133=2888,31437,-29426,802,-27329,-1865
C01134=2891,31440,-29422,802,-27330,-1867
C01135=2894,31443,-29418,801,-27332,-1868
C01136=2898,31446,-29414,801,-27333,-1869
C01137=2901,31449,-29410,801,-27334,-1870
C01138=2904,31453,-29406,800,-27335,-1872
C01139=2907,31456,-29402,800,-27337,-1873
C01140=2910,31459,-29398,799,-27338,-1874
C01141=2909,31462,-29394,799,-27339,-1873
C01142=2906,31465,-29391,800,-27340,-1872
C01143=2902,31468,-29387,800,-27341,-1871
C01144=2899,31470,-29384,801,-27342,-1869
C01145=2896,31473,-29380,801,-27343,-1868
C01146=2892,31476,-29377,802,-27344,-1867
C01147=2889,31479,-29373,802,-27345,-1865
C01148=2885,31482,-29370,802,-27347,-1864
C01149=2882,31485,-29367,803,-27348,-1863
C01150=2878,31487,-29363,803,-27349,-1861
C01151=2875,31490,-29360,804,-27350,-1860
C01152=2872,31493,-29356,804,-27351,-1859
C01153=2868,31496,-29353,805,-27352,-1857
C01154=2865,31499,-29349,805,-27353,-1856
C01155=2861,31502,-29346,806,-27354,-1855
C01156=2858,31504,-29342,806,-27355,-1853
C01157=2855,31507,-29339,807,-27356,-1852
C01158=2851,31510,-29335,807,-27357,-1851
C01159=2848,31513,-29332,808,-27358,-1849
C01160=2848,29960,-29123,779,-28455,-1829
C01161=2729,29894,-29205,796,-28428,-1784
C01162=2729,31447,-29414,825,-27331,-1804
C01163=2726,31450,-29411,826,-27332,-1802
C01164=2722,31447,-29414,826,-27331,-1801
C01165=2719,31443,-29418,827,-27330,-1800
C01166=2716,31440,-29422,827,-27329,-1799
C01167=2713,31437,-29426,828,-27327,-1797
C01168=2709,31434,-29430,828,-27326,-1796
C01169=2706,31431,-29434,829,-27325,-1795
C01170=2703,31427,-29438,829,-27324,-1794
C01171=2700,31424,-29442,830,-27322,-1792
C01172=2697,31421,-29446,830,-27321,-1791
C01173=2695,31417,-29451,830,-27319,-1791
C01174=2696,31413,-29456,830,-27318,-1791
C01175=2696,31409,-29461,831,-27316,-1791
C01176=2696,31404,-29467,831,-27315,-1791
C01177=2696,31400,-29472,831,-27313,-1791
C01178=2696,31396,-29477,831,-27311,-1791
C01179=2696,31392,-29482,831,-27310,-1791
C01180=2700,31389,-29486,830,-27309,-1793
C01181=2703,31386,-29489,830,-27307,-1794
C01182=2706,31383,-29493,829,-27306,-1795
C01183=2710,31380,-29496,829,-27305,-1797
C01184=2713,31377,-29500,828,-27304,-1798
C01185=2717,31375,-29503,828,-27303,-1799
C01186=2720,31372,-29507,827,-27302,-1801
C01187=2723,31369,-29510,827,-27301,-1802
C01188=2727,31366,-29513,826,-27300,-1803
C01189=2731,31365,-29514,826,-27300,-1805
C01190=2736,31365,-29514,825,-27300,-1807
C01191=2740,31366,-29514,824,-27300,-1809
C01192=2745,31366,-29513,824,-27300,-1810
C01193=2750,31366,-29513,823,-27300,-1812
C01194=2754,31366,-29513,822,-27301,-1814
C01195=2759,31367,-29512,822,-27301,-1816
C01196=2762,31370,-29508,821,-27302,-1817
C01197=2766,31373,-29504,821,-27303,-1818
C01198=2769,31376,-29500,820,-27305,-1819
C01199=2772,31380,-29496,820,-27306,-1821
C01200=2775,31383,-29492,819,-27307,-1822
C01201=2778,31386,-29488,819,-27308,-1823
C01202=2782,31389,-29485,818,-27310,-1824
C01203=2785,31392,-29481,818,-27311,-1826
C01204=2788,31396,-29477,817,-27312,-1827
C01205=2787,31399,-29473,817,-27313,-1826
C01206=2783,31401,-29470,818,-27314,-1825
C01207=2780,31404,-29466,818,-27315,-1824
C01208=2777,31407,-29463,819,-27316,-1822
C01209=2773,31410,-29459,819,-27318,-1821
C01210=2770,31413,-29456,820,-27319,-1820
C01211=2766,31416,-29452,820,-27320,-1818
C01212=2763,31418,-29449,821,-27321,-1817
C01213=2760,31421,-29445,821,-27322,-1816
C01214=2756,31424,-29442,822,-27323,-1814
C01215=2753,31427,-29438,822,-27324,-1813
C01216=2749,31430,-29435,823,-27325,-1812
C01217=2746,31433,-29431,823,-27326,-1810
C01218=2743,31435,-29428,823,-27327,-1809
C01219=2739,31438,-29425,824,-27328,-1808
C01220=2736,31441,-29421,824,-27329,-1806
C01221=2732,31444,-29418,825,-27330,-1805
C01222=2729,31447,-29414,825,-27331,-1804
C01223=2729,29894,-29205,796,-28428,-1784
C01224=2610,29828,-29287,814,-28401,-1738
C01225=2610,31381,-29496,843,-27304,-1758
C01226=2607,31383,-29493,844,-27306,-1756
C01227=2603,31386,-29489,844,-27307,-1755
C01228=2600,31383,-29493,845,-27305,-1754
C01229=2597,31380,-29497,845,-27304,-1753
C01230=2594,31377,-29501,846,-27303,-1751
C01231=2590,31374,-29505,846,-27302,-1750
C01232=2587,31371,-29509,847,-27300,-1749
C01233=2584,31367,-29513,847,-27299,-1748
C01234=2581,31364,-29517,848,-27298,-1746
C01235=2577,31361,-29521,848,-27296,-1745
C01236=2574,31358,-29525,849,-27295,-1744
C01237=2573,29801,-29321,820,-28391,-1724
C01238=-41004,59868,4099,4900,-34257,16705
C01239=-41004,59868,1099,4900,-34257,16705
C01240=-41004,64596,1380,5213,-31659,16463
C01241=-41004,59868,1099,4900,-34257,16705
C01242=-41004,59868,9099,4900,-34257,16705
C01243=2573,29801,-29321,820,-28391,-1724
C01244=2573,31354,-29530,849,-27294,-1744
C01245=2573,31350,-29535,849,-27292,-1744
C01246=2573,31345,-29540,849,-27290,-1744
C01247=2573,31341,-29545,849,-27289,-1744
C01248=2573,31337,-29551,849,-27287,-1744
C01249=2574,31333,-29556,849,-27285,-1744
C01250=2574,31328,-29561,849,-27284,-1744
C01251=2577,31325,-29565,848,-27283,-1745
C01252=2580,31323,-29568,848,-27282,-1747
C01253=2584,31320,-29571,848,-27281,-1748
C01254=2587,31317,-29575,847,-27280,-1749
C01255=2591,31314,-29578,847,-27279,-1751
C01256=2594,31311,-29582,846,-27277,-1752
C01257=2597,31308,-29585,846,-27276,-1753
C01258=2601,31306,-29589,845,-27275,-1755
C01259=2604,31303,-29592,845,-27274,-1756
C01260=2609,31302,-29593,844,-27274,-1758
C01261=2613,31302,-29593,843,-27274,-1760
C01262=2618,31302,-29593,843,-27274,-1761
C01263=2623,31303,-29592,842,-27274,-1763
C01264=2627,31303,-29592,841,-27275,-1765
C01265=2632,31303,-29591,841,-27275,-1767
C01266=2637,31304,-29591,840,-27275,-1769
C01267=2640,31307,-29587,840,-27276,-1770
C01268=2643,31310,-29583,839,-27277,-1771
C01269=2646,31313,-29579,839,-27279,-1772
C01270=2650,31316,-29575,838,-27280,-1774
C01271=2653,31320,-29571,838,-27281,-1775
C01272=2656,31323,-29567,837,-27283,-1776
C01273=2659,31326,-29563,837,-27284,-1777
C01274=2662,31329,-29559,836,-27285,-1779
C01275=2666,31332,-29555,836,-27286,-1780
C01276=2664,31335,-29552,836,-27288,-1779
C01277=2661,31338,-29548,836,-27289,-1778
C01278=2658,31341,-29545,837,-27290,-1777
C01279=2654,31344,-29541,837,-27291,-1775
C01280=2651,31347,-29538,838,-27292,-1774
C01281=2647,31349,-29534,838,-27293,-1773
C01282=2644,31352,-29531,839,-27294,-1771
C01283=2641,31355,-29528,839,-27295,-1770
C01284=2637,31358,-29524,839,-27296,-1768
C01285=2634,31361,-29521,840,-27297,-1767
C01286=2630,31364,-29517,840,-27298,-1766
C01287=2627,31366,-29514,841,-27299,-1764
C01288=2624,31369,-29510,841,-27300,-1763
C01289=2620,31372,-29507,842,-27301,-1762
C01290=2617,31375,-29503,842,-27302,-1760
C01291=2613,31378,-29500,843,-27303,-1759
C01292=2610,31381,-29496,843,-27304,-1758
C01293=2610,29828,-29287,814,-28401,-1738
C01294=2331,29674,-29478,856,-28339,-1630
C01295=2331,31227,-29687,885,-27242,-1650
C01296=2327,31230,-29684,886,-27243,-1649
C01297=2324,31227,-29688,886,-27242,-1648
C01298=2321,31224,-29692,887,-27241,-1647
C01299=2318,31220,-29696,887,-27239,-1645
C01300=2314,31217,-29700,888,-27238,-1644
C01301=2311,31214,-29704,888,-27237,-1643
C01302=2308,31211,-29707,889,-27236,-1642
C01303=2305,31208,-29711,889,-27234,-1640
C01304=2301,31204,-29715,890,-27233,-1639
C01305=2298,31201,-29719,890,-27232,-1638
C01306=2297,31197,-29724,890,-27230,-1637
C01307=2297,31193,-29729,890,-27229,-1638
C01308=2297,31189,-29735,890,-27227,-1638
C01309=2297,31184,-29740,890,-27225,-1638
C01310=2297,31180,-29745,890,-27224,-1638
C01311=2298,31176,-29750,890,-27222,-1638
C01312=2298,31172,-29756,890,-27220,-1638
C01313=2301,31169,-29759,890,-27219,-1639
C01314=2304,31166,-29762,890,-27218,-1641
C01315=2308,31163,-29766,889,-27217,-1642
C01316=2311,31160,-29769,889,-27216,-1643
C01317=2315,31158,-29773,888,-27215,-1645
C01318=2318,31155,-29776,888,-27214,-1646
C01319=2321,31152,-29780,887,-27213,-1647
C01320=2325,31149,-29783,887,-27212,-1649
C01321=2328,31146,-29787,886,-27211,-1650
C01322=2332,31145,-29788,886,-27211,-1652
C01323=2337,31146,-29787,885,-27211,-1653
C01324=2342,31146,-29787,884,-27211,-1655
C01325=2347,31146,-29787,884,-27211,-1657
C01326=2351,31146,-29786,883,-27211,-1659
C01327=2356,31147,-29786,882,-27211,-1661
C01328=2361,31147,-29785,882,-27211,-1663
C01329=2364,31150,-29782,881,-27213,-1664
C01330=2367,31153,-29778,881,-27214,-1665
C01331=2370,31157,-29774,880,-27215,-1666
C01332=2374,31160,-29770,880,-27217,-1667
C01333=2377,31163,-29766,879,-27218,-1669
C01334=2380,31166,-29762,879,-27219,-1670
C01335=2383,31169,-29758,878,-27220,-1671
C01336=2387,31173,-29754,878,-27222,-1672
C01337=2390,31176,-29750,877,-27223,-1674
C01338=2389,31179,-29746,877,-27224,-1673
C01339=2385,31182,-29743,878,-27225,-1672
C01340=2382,31184,-29739,878,-27226,-1671
C01341=2378,31187,-29736,879,-27227,-1669
C01342=2375,31190,-29732,879,-27228,-1668
C01343=2372,31193,-29729,880,-27229,-1666
C01344=2368,31196,-29725,880,-27230,-1665
C01345=2365,31199,-29722,880,-27231,-1664
C01346=2361,31201,-29719,881,-27233,-1662
C01347=2358,31204,-29715,881,-27234,-1661
C01348=2355,31207,-29712,882,-27235,-1660
C01349=2351,31210,-29708,882,-27236,-1658
C01350=2348,31213,-29705,883,-27237,-1657
C01351=2344,31216,-29701,883,-27238,-1656
C01352=2341,31218,-29698,884,-27239,-1654
C01353=2338,31221,-29694,884,-27240,-1653
C01354=2334,31224,-29691,885,-27241,-1652
C01355=2331,31227,-29687,885,-27242,-1650
C01356=2331,29674,-29478,856,-28339,-1630
C01357=2208,29611,-29557,875,-28313,-1583
C01358=2208,31164,-29766,904,-27216,-1603
C01359=2204,31166,-29763,904,-27217,-1602
C01360=2201,31163,-29766,904,-27216,-1600
C01361=2198,31160,-29770,905,-27215,-1599
C01362=2195,31157,-29774,905,-27214,-1598
C01363=2191,31154,-29778,906,-27212,-1597
C01364=2188,31151,-29782,906,-27211,-1596
C01365=2185,31147,-29786,907,-27210,-1594
C01366=2182,31144,-29790,907,-27209,-1593
C01367=2178,31141,-29794,908,-27207,-1592
C01368=2175,31138,-29798,909,-27206,-1591
C01369=2174,31134,-29803,909,-27204,-1590
C01370=2174,31130,-29808,909,-27203,-1590
C01371=2174,31125,-29813,909,-27201,-1590
C01372=2174,31121,-29819,909,-27200,-1590
C01373=2174,31117,-29824,909,-27198,-1590
C01374=2174,31113,-29829,909,-27196,-1590
C01375=2175,31108,-29834,909,-27195,-1591
C01376=2178,31106,-29838,908,-27194,-1592
C01377=2181,31103,-29841,908,-27192,-1593
C01378=2185,31100,-29845,908,-27191,-1595
C01379=2188,31097,-29848,907,-27190,-1596
C01380=2191,31094,-29852,907,-27189,-1597
C01381=2195,31091,-29855,906,-27188,-1599
C01382=2198,31089,-29859,906,-27187,-1600
C01383=2202,31086,-29862,905,-27186,-1601
C01384=2205,31083,-29865,905,-27185,-1603
C01385=2209,31082,-29866,904,-27185,-1604
C01386=2214,31082,-29866,903,-27185,-1606
C01387=2219,31083,-29866,903,-27185,-1608
C01388=2223,31083,-29865,902,-27185,-1610
C01389=2228,31083,-29865,901,-27185,-1612
C01390=2233,31083,-29865,901,-27185,-1613
C01391=2238,31084,-29864,900,-27186,-1615
C01392=2241,31087,-29860,900,-27187,-1616
C01393=2244,31090,-29856,899,-27188,-1618
C01394=2247,31093,-29852,899,-27189,-1619
C01395=2251,31096,-29848,898,-27191,-1620
C01396=2254,31100,-29844,898,-27192,-1621
C01397=2257,31103,-29840,897,-27193,-1623
C01398=2260,31106,-29836,897,-27195,-1624
C01399=2264,31109,-29833,896,-27196,-1625
C01400=2267,31112,-29829,896,-27197,-1626
C01401=2266,31115,-29825,896,-27198,-1626
C01402=2262,31118,-29821,896,-27199,-1625
C01403=2259,31121,-29818,897,-27200,-1623
C01404=2255,31124,-29815,897,-27201,-1622
C01405=2252,31127,-29811,898,-27202,-1620
C01406=2249,31130,-29808,898,-27204,-1619
C01407=2245,31132,-29804,898,-27205,-1618
C01408=2242,31135,-29801,899,-27206,-1616
C01409=2238,31138,-29797,899,-27207,-1615
C01410=2235,31141,-29794,900,-27208,-1614
C01411=2232,31144,-29790,900,-27209,-1612
C01412=2228,31147,-29787,901,-27210,-1611
C01413=2225,31149,-29783,901,-27211,-1610
C01414=2221,31152,-29780,902,-27212,-1608
C01415=2218,31155,-29777,902,-27213,-1607
C01416=2215,31158,-29773,903,-27214,-1606
C01417=2211,31161,-29770,903,-27215,-1604
C01418=2208,31164,-29766,904,-27216,-1603
C01419=2208,29611,-29557,875,-28313,-1583
C01420=2085,29547,-29636,893,-28288,-1536
C01421=2085,31100,-29845,922,-27191,-1556
C01422=2081,31103,-29841,922,-27192,-1554
C01423=2078,31100,-29845,923,-27190,-1553
C01424=2075,31097,-29849,923,-27189,-1552
C01425=2071,31094,-29853,924,-27188,-1551
C01426=2068,31091,-29857,924,-27187,-1549
C01427=2065,31087,-29861,925,-27185,-1548
C01428=2062,31084,-29865,926,-27184,-1547
C01429=2058,31081,-29869,926,-27183,-1546
C01430=2055,31078,-29873,927,-27181,-1544
C01431=2052,31075,-29877,927,-27180,-1543
C01432=2051,31071,-29882,927,-27179,-1543
C01433=2051,31066,-29887,927,-27177,-1543
C01434=2051,31062,-29892,927,-27175,-1543
C01435=2051,31058,-29897,927,-27174,-1543
C01436=2051,31054,-29902,927,-27172,-1543
C01437=2051,31049,-29908,927,-27170,-1543
C01438=2051,31045,-29913,927,-27169,-1543
C01439=2055,31042,-29916,927,-27168,-1544
C01440=2058,31039,-29920,927,-27167,-1546
C01441=2061,31037,-29923,926,-27166,-1547
C01442=2065,31034,-29927,926,-27165,-1548
C01443=2068,31031,-29930,925,-27163,-1550
C01444=2072,31028,-29934,925,-27162,-1551
C01445=2075,31025,-29937,924,-27161,-1552
C01446=2078,31022,-29941,924,-27160,-1554
C01447=2082,31020,-29944,923,-27159,-1555
C01448=2086,31019,-29945,923,-27159,-1557
C01449=2091,31019,-29945,922,-27159,-1559
C01450=2095,31019,-29944,921,-27159,-1560
C01451=2100,31020,-29944,921,-27159,-1562
C01452=2105,31020,-29944,920,-27160,-1564
C01453=2110,31020,-29943,919,-27160,-1566
C01454=2114,31020,-29943,919,-27160,-1568
C01455=2117,31024,-29939,918,-27161,-1569
C01456=2121,31027,-29935,918,-27162,-1570
C01457=2124,31030,-29931,917,-27164,-1571
C01458=2127,31033,-29927,917,-27165,-1573
C01459=2131,31036,-29923,916,-27166,-1574
C01460=2134,31040,-29919,916,-27168,-1575
C01461=2137,31043,-29915,915,-27169,-1576
C01462=2140,31046,-29911,915,-27170,-1578
C01463=2144,31049,-29907,914,-27171,-1579
C01464=2142,31052,-29904,914,-27172,-1578
C01465=2139,31055,-29900,915,-27174,-1577
C01466=2136,31058,-29897,915,-27175,-1576
C01467=2132,31061,-29893,916,-27176,-1574
C01468=2129,31063,-29890,916,-27177,-1573
C01469=2125,31066,-29886,916,-27178,-1572
C01470=2122,31069,-29883,917,-27179,-1570
C01471=2119,31072,-29879,917,-27180,-1569
C01472=2115,31075,-29876,918,-27181,-1568
C01473=2112,31078,-29873,918,-27182,-1566
C01474=2108,31081,-29869,919,-27183,-1565
C01475=2105,31083,-29866,919,-27184,-1564
C01476=2102,31086,-29862,920,-27185,-1562
C01477=2098,31089,-29859,920,-27186,-1561
C01478=2095,31092,-29855,921,-27187,-1560
C01479=2091,31095,-29852,921,-27188,-1558
C01480=2088,31098,-29848,922,-27189,-1557
C01481=2085,31100,-29845,922,-27191,-1556
C01482=2085,29547,-29636,893,-28288,-1536
C01483=1965,29481,-29718,911,-28261,-1490
C01484=1965,31034,-29927,940,-27164,-1510
C01485=1961,31037,-29924,941,-27165,-1508
C01486=1958,31040,-29920,941,-27166,-1507
C01487=1955,31037,-29924,942,-27165,-1506
C01488=1951,31034,-29928,942,-27163,-1504
C01489=1948,31030,-29932,943,-27162,-1503
C01490=1945,31027,-29936,943,-27161,-1502
C01491=1941,31024,-29940,944,-27160,-1501
C01492=1938,31021,-29944,944,-27158,-1499
C01493=1935,31018,-29948,945,-27157,-1498
C01494=1932,31014,-29951,945,-27156,-1497
C01495=1928,31011,-29955,946,-27154,-1496
C01496=1927,31007,-29960,946,-27153,-1495
C01497=1927,31003,-29965,946,-27151,-1495
C01498=1927,30999,-29971,946,-27150,-1495
C01499=1927,30995,-29976,946,-27148,-1495
C01500=1927,30990,-29981,946,-27146,-1496
C01501=1928,30986,-29986,946,-27145,-1496
C01502=1928,30982,-29992,946,-27143,-1496
C01503=1931,30979,-29995,946,-27142,-1497
C01504=1934,30976,-29999,945,-27141,-1498
C01505=1938,30973,-30002,945,-27140,-1500
C01506=1941,30970,-30006,944,-27139,-1501
C01507=1945,30968,-30009,944,-27138,-1502
C01508=1948,30965,-30012,943,-27137,-1504
C01509=1951,30962,-30016,943,-27136,-1505
C01510=1955,30959,-30019,942,-27135,-1506
C01511=1958,30956,-30023,942,-27133,-1508
C01512=1962,30955,-30024,941,-27133,-1509
C01513=1967,30956,-30023,941,-27133,-1511
C01514=1972,30956,-30023,940,-27134,-1513
C01515=1977,30956,-30023,939,-27134,-1515
C01516=1981,30957,-30022,939,-27134,-1517
C01517=1986,30957,-30022,938,-27134,-1518
C01518=1991,30957,-30022,937,-27134,-1520
C01519=1994,30960,-30018,937,-27135,-1522
C01520=1997,30964,-30014,936,-27137,-1523
C01521=2000,30967,-30010,936,-27138,-1524
C01522=2004,30970,-30006,935,-27139,-1525
C01523=2007,30973,-30002,935,-27141,-1527
C01524=2010,30976,-29998,934,-27142,-1528
C01525=2014,30980,-29994,934,-27143,-1529
C01526=2017,30983,-29990,933,-27144,-1530
C01527=2020,30986,-29986,933,-27146,-1531
C01528=2019,30989,-29982,933,-27147,-1531
C01529=2015,30992,-29979,933,-27148,-1530
C01530=2012,30995,-29975,934,-27149,-1528
C01531=2009,30997,-29972,934,-27150,-1527
C01532=2005,31000,-29969,935,-27151,-1526
C01533=2002,31003,-29965,935,-27152,-1524
C01534=1999,31006,-29962,935,-27153,-1523
C01535=1995,31009,-29958,936,-27154,-1522
C01536=1992,31012,-29955,936,-27155,-1520
C01537=1988,31014,-29951,937,-27156,-1519
C01538=1985,31017,-29948,937,-27157,-1518
C01539=1982,31020,-29944,938,-27158,-1516
C01540=1978,31023,-29941,938,-27159,-1515
C01541=1975,31026,-29937,939,-27160,-1514
C01542=1971,31029,-29934,939,-27162,-1512
C01543=1968,31031,-29930,940,-27163,-1511
C01544=1965,29481,-29718,911,-28261,-1490
C01545=-41004,59868,4099,4900,-34257,16705
C01546=-41004,59868,1099,4900,-34257,16705
C01547=-41004,64596,1380,5213,-31659,16463
C01548=-41004,59868,1099,4900,-34257,16705
C01549=-41004,59868,9099,4900,-34257,16705
C01550=1965,29481,-29718,911,-28261,-1490
C01551=1965,31034,-29927,940,-27164,-1510
C01552=1965,29481,-29718,911,-28261,-1490
C01553=2583,29434,-29772,822,-28249,-1730
C01554=2583,30987,-29981,851,-27152,-1750
C01555=2583,30983,-29986,851,-27150,-1750
C01556=2583,30978,-29991,851,-27149,-1750
C01557=2583,30974,-29997,851,-27147,-1750
C01558=2584,30970,-30002,851,-27145,-1750
C01559=2584,30966,-30007,851,-27144,-1750
C01560=2584,30961,-30012,851,-27142,-1750
C01561=2587,30958,-30016,851,-27141,-1752
C01562=2591,30956,-30019,850,-27140,-1753
C01563=2594,30953,-30023,850,-27139,-1754
C01564=2597,30950,-30026,849,-27138,-1756
C01565=2601,30947,-30030,849,-27137,-1757
C01566=2604,30944,-30033,848,-27136,-1759
C01567=2608,30941,-30037,848,-27135,-1760
C01568=2611,30939,-30040,847,-27133,-1761
C01569=2615,30936,-30043,847,-27132,-1763
C01570=2619,30935,-30044,846,-27132,-1764
C01571=2624,30935,-30044,846,-27132,-1766
C01572=2628,30935,-30044,845,-27132,-1768
C01573=2633,30936,-30043,844,-27133,-1770
C01574=2638,30936,-30043,844,-27133,-1772
C01575=2642,30936,-30043,843,-27133,-1773
C01576=2647,30937,-30042,842,-27133,-1775
C01577=2650,30940,-30038,842,-27134,-1776
C01578=2654,30943,-30034,841,-27136,-1778
C01579=2657,30946,-30030,841,-27137,-1779
C01580=2660,30949,-30026,840,-27138,-1780
C01581=2663,30953,-30022,840,-27139,-1781
C01582=2667,30956,-30018,839,-27141,-1783
C01583=2670,30959,-30015,839,-27142,-1784
C01584=2673,30962,-30011,838,-27143,-1785
C01585=2676,30965,-30007,838,-27145,-1786
C01586=2675,30968,-30003,838,-27146,-1786
C01587=2672,30971,-30000,838,-27147,-1784
C01588=2668,30974,-29996,839,-27148,-1783
C01589=2665,30977,-29993,839,-27149,-1782
C01590=2661,30980,-29989,840,-27150,-1780
C01591=2658,30982,-29986,840,-27151,-1779
C01592=2655,30985,-29982,841,-27152,-1778
C01593=2651,30988,-29979,841,-27153,-1776
C01594=2648,30991,-29975,842,-27154,-1775
C01595=2644,30994,-29972,842,-27155,-1774
C01596=2641,30997,-29968,842,-27156,-1772
C01597=2637,30999,-29965,843,-27157,-1771
C01598=2634,31002,-29961,843,-27158,-1770
C01599=2631,31005,-29958,844,-27159,-1768
C01600=2627,31008,-29955,844,-27161,-1767
C01601=2624,31011,-29951,845,-27162,-1766
C01602=2620,31014,-29948,845,-27163,-1764
C01603=2617,31016,-29944,846,-27164,-1763
C01604=2613,31019,-29941,846,-27165,-1762
C01605=2610,31016,-29944,847,-27164,-1760
C01606=2607,31013,-29948,847,-27162,-1759
C01607=2604,31010,-29952,848,-27161,-1758
C01608=2600,31007,-29956,848,-27160,-1757
C01609=2597,31004,-29960,849,-27158,-1755
C01610=2594,31000,-29964,849,-27157,-1754
C01611=2591,30997,-29968,850,-27156,-1753
C01612=2587,30994,-29972,850,-27155,-1752
C01613=2584,30991,-29976,851,-27153,-1750
C01614=2583,30987,-29981,851,-27152,-1750
C01615=2583,29434,-29772,822,-28249,-1730
C01616=2676,29470,-29727,808,-28264,-1766
C01617=2676,31023,-29936,837,-27167,-1786
C01618=2679,31020,-29939,837,-27166,-1787
C01619=2683,31017,-29943,836,-27165,-1788
C01620=2686,31014,-29946,836,-27164,-1790
C01621=2689,31011,-29950,835,-27163,-1791
C01622=2693,31009,-29953,835,-27161,-1792
C01623=2696,31006,-29957,834,-27160,-1794
C01624=2700,31003,-29960,834,-27159,-1795
C01625=2703,31000,-29964,833,-27158,-1796
C01626=2707,30997,-29967,833,-27157,-1798
C01627=2711,30996,-29968,832,-27157,-1799
C01628=2715,30997,-29968,832,-27157,-1801
C01629=2720,30997,-29967,831,-27157,-1803
C01630=2725,30997,-29967,830,-27157,-1805
C01631=2730,30998,-29967,830,-27158,-1807
C01632=2734,30998,-29966,829,-27158,-1809
C01633=2739,30998,-29966,828,-27158,-1810
C01634=2742,31001,-29962,828,-27159,-1812
C01635=2745,31005,-29958,827,-27160,-1813
C01636=2749,31008,-29954,827,-27162,-1814
C01637=2752,31011,-29950,826,-27163,-1815
C01638=2755,31014,-29946,826,-27164,-1817
C01639=2758,31017,-29942,825,-27165,-1818
C01640=2762,31021,-29938,825,-27167,-1819
C01641=2765,31024,-29934,824,-27168,-1820
C01642=2768,31027,-29930,824,-27169,-1822
C01643=2767,31030,-29927,824,-27170,-1821
C01644=2763,31033,-29923,824,-27172,-1820
C01645=2760,31036,-29920,825,-27173,-1818
C01646=2757,31038,-29916,825,-27174,-1817
C01647=2753,31041,-29913,826,-27175,-1816
C01648=2750,31044,-29909,826,-27176,-1814
C01649=2746,31047,-29906,827,-27177,-1813
C01650=2743,31050,-29902,827,-27178,-1812
C01651=2740,31053,-29899,828,-27179,-1810
C01652=2736,31055,-29895,828,-27180,-1809
C01653=2733,31058,-29892,829,-27181,-1808
C01654=2729,31061,-29889,829,-27182,-1806
C01655=2726,31064,-29885,829,-27183,-1805
C01656=2722,31067,-29882,830,-27184,-1804
C01657=2719,31070,-29878,830,-27185,-1802
C01658=2716,31072,-29875,831,-27186,-1801
C01659=2712,31075,-29871,831,-27187,-1800
C01660=2709,31078,-29868,832,-27188,-1798
C01661=2705,31081,-29864,832,-27190,-1797
C01662=2702,31078,-29868,833,-27188,-1796
C01663=2699,31075,-29872,833,-27187,-1794
C01664=2696,31072,-29876,834,-27186,-1793
C01665=2692,31068,-29880,834,-27185,-1792
C01666=2689,31065,-29884,835,-27183,-1791
C01667=2686,31062,-29888,835,-27182,-1789
C01668=2683,31059,-29892,836,-27181,-1788
C01669=2679,31056,-29896,836,-27179,-1787
C01670=2676,31052,-29900,837,-27178,-1786
C01671=2675,31048,-29904,837,-27177,-1785
C01672=2675,31044,-29910,837,-27175,-1785
C01673=2675,31040,-29915,837,-27173,-1785
C01674=2675,31036,-29920,837,-27172,-1785
C01675=2675,31031,-29925,837,-27170,-1786
C01676=2676,31027,-29931,837,-27168,-1786
C01677=2676,31023,-29936,837,-27167,-1786
C01678=2676,29470,-29727,808,-28264,-1766
C01679=3439,29908,-29183,694,-28441,-2059
C01680=3439,31461,-29392,723,-27344,-2079
C01681=3439,31478,-29371,723,-27351,-2079
C01682=3438,31494,-29351,722,-27357,-2079
C01683=3437,31511,-29330,722,-27364,-2078
C01684=3445,31525,-29313,721,-27369,-2081
C01685=3457,31537,-29297,719,-27374,-2086
C01686=3464,31550,-29282,718,-27379,-2089
C01687=3451,31561,-29269,720,-27383,-2083
C01688=3438,31572,-29255,722,-27387,-2078
C01689=3434,31587,-29236,722,-27393,-2077
C01690=3433,31603,-29217,722,-27399,-2076
C01691=3419,31614,-29203,724,-27403,-2071
C01692=3406,31625,-29190,726,-27408,-2065
C01693=3401,31640,-29171,727,-27413,-2064
C01694=3401,31657,-29151,726,-27420,-2063
C01695=3400,31673,-29131,726,-27426,-2063
C01696=3399,31690,-29110,726,-27433,-2063
C01697=3399,31707,-29090,726,-27439,-2062
C01698=3398,31723,-29069,726,-27445,-2062
C01699=3398,31740,-29049,726,-27452,-2062
C01700=3397,31757,-29028,726,-27458,-2061
C01701=3396,31773,-29008,726,-27465,-2061
C01702=3396,31790,-28987,726,-27471,-2060
C01703=3395,31806,-28967,726,-27478,-2060
C01704=3394,31823,-28947,726,-27484,-2060
C01705=3394,31840,-28926,726,-27490,-2059
C01706=3394,31853,-28909,726,-27496,-2060
C01707=3408,31842,-28923,724,-27492,-2065
C01708=3421,31831,-28936,722,-27488,-2070
C01709=3425,31816,-28954,722,-27482,-2072
C01710=3426,31800,-28975,722,-27475,-2072
C01711=3427,31783,-28995,722,-27469,-2073
C01712=3427,31767,-29016,722,-27463,-2073
C01713=3428,31750,-29036,722,-27456,-2073
C01714=3429,31733,-29057,722,-27450,-2074
C01715=3429,31717,-29077,722,-27443,-2074
C01716=3430,31700,-29098,722,-27437,-2074
C01717=3431,31683,-29118,722,-27430,-2075
C01718=3431,31667,-29138,722,-27424,-2075
C01719=3438,31653,-29155,721,-27419,-2078
C01720=3452,31642,-29169,719,-27415,-2083
C01721=3464,31630,-29183,718,-27410,-2088
C01722=3464,31614,-29203,718,-27404,-2088
C01723=3465,31597,-29224,718,-27397,-2089
C01724=3466,31581,-29244,718,-27391,-2089
C01725=3475,31568,-29260,716,-27386,-2093
C01726=3489,31557,-29273,715,-27382,-2098
C01727=3498,31544,-29289,713,-27377,-2102
C01728=3499,31527,-29309,713,-27371,-2102
C01729=3507,31514,-29326,712,-27366,-2106
C01730=3521,31503,-29339,711,-27362,-2111
C01731=3534,31492,-29353,709,-27357,-2116
C01732=3547,31481,-29366,707,-27353,-2121
C01733=3561,31470,-29380,705,-27349,-2127
C01734=3549,31467,-29383,707,-27348,-2122
C01735=3531,31466,-29385,709,-27347,-2115
C01736=3512,31465,-29386,712,-27347,-2108
C01737=3494,31464,-29388,715,-27346,-2101
C01738=3476,31463,-29389,717,-27346,-2094
C01739=3458,31462,-29390,720,-27345,-2087
C01740=3439,31461,-29392,723,-27344,-2079
C01741=3439,29908,-29183,694,-28441,-2059
C01742=3338,30044,-29016,707,-28493,-2019
C01743=3338,31597,-29225,736,-27396,-2039
C01744=3333,31596,-29226,737,-27396,-2037
C01745=3327,31596,-29226,738,-27396,-2035
C01746=3322,31596,-29226,738,-27395,-2033
C01747=3317,31596,-29227,739,-27395,-2031
C01748=3312,31595,-29227,740,-27395,-2029
C01749=3306,31595,-29228,741,-27395,-2027
C01750=3301,31595,-29228,741,-27395,-2025
C01751=3296,31594,-29228,742,-27395,-2023
C01752=3290,31594,-29229,743,-27394,-2021
C01753=3285,31594,-29229,744,-27394,-2019
C01754=3280,31594,-29230,744,-27394,-2017
C01755=3275,31593,-29230,745,-27394,-2015
C01756=3269,31593,-29230,746,-27394,-2013
C01757=3264,31593,-29231,747,-27393,-2011
C01758=3259,31592,-29231,748,-27393,-2009
C01759=3254,31592,-29232,748,-27393,-2006
C01760=3248,31592,-29232,749,-27393,-2004
C01761=3244,31595,-29228,750,-27394,-2003
C01762=3241,31598,-29224,750,-27395,-2001
C01763=3237,31601,-29220,751,-27397,-2000
C01764=3233,31605,-29216,751,-27398,-1998
C01765=3229,31608,-29212,752,-27399,-1997
C01766=3225,31611,-29209,752,-27400,-1995
C01767=3221,31614,-29205,753,-27401,-1994
C01768=3217,31617,-29201,753,-27403,-1992
C01769=3216,31622,-29195,753,-27404,-1992
C01770=3216,31627,-29189,753,-27406,-1992
C01771=3216,31631,-29184,753,-27408,-1992
C01772=3216,31636,-29178,753,-27410,-1991
C01773=3215,31641,-29172,753,-27412,-1991
C01774=3215,31646,-29166,753,-27414,-1991
C01775=3220,31647,-29165,753,-27414,-1993
C01776=3225,31647,-29164,752,-27414,-1995
C01777=3230,31647,-29164,751,-27414,-1997
C01778=3236,31648,-29163,750,-27414,-1999
C01779=3241,31648,-29163,750,-27415,-2001
C01780=3246,31648,-29163,749,-27415,-2003
C01781=3251,31649,-29162,748,-27415,-2005
C01782=3257,31649,-29162,747,-27415,-2007
C01783=3262,31649,-29161,747,-27415,-2009
C01784=3267,31649,-29161,746,-27415,-2011
C01785=3273,31650,-29161,745,-27416,-2013
C01786=3278,31650,-29161,744,-27416,-2015
C01787=3281,31646,-29165,744,-27414,-2017
C01788=3285,31643,-29169,743,-27413,-2019
C01789=3289,31640,-29172,743,-27412,-2020
C01790=3293,31637,-29176,742,-27411,-2022
C01791=3297,31634,-29180,742,-27410,-2023
C01792=3301,31630,-29184,741,-27408,-2025
C01793=3305,31627,-29188,741,-27407,-2026
C01794=3309,31624,-29192,740,-27406,-2028
C01795=3312,31621,-29196,740,-27405,-2029
C01796=3316,31618,-29200,739,-27404,-2031
C01797=3320,31614,-29204,738,-27402,-2032
C01798=3324,31611,-29208,738,-27401,-2034
C01799=3328,31608,-29212,737,-27400,-2035
C01800=3332,31605,-29216,737,-27399,-2037
C01801=3336,31602,-29219,736,-27398,-2038
C01802=3339,31598,-29223,736,-27396,-2040
C01803=3338,31597,-29225,736,-27396,-2039
C01804=3338,30044,-29016,707,-28493,-2019
C01805=3418,30529,-28418,691,-28682,-2047
C01806=3418,32082,-28627,720,-27585,-2067
C01807=3423,32083,-28627,720,-27585,-2069
C01808=3427,32083,-28627,719,-27585,-2071
C01809=3432,32083,-28626,718,-27585,-2073
C01810=3437,32083,-28626,718,-27585,-2075
C01811=3441,32084,-28626,717,-27585,-2077
C01812=3446,32084,-28625,716,-27586,-2078
C01813=3449,32087,-28621,716,-27587,-2080
C01814=3452,32090,-28617,715,-27588,-2081
C01815=3455,32094,-28613,715,-27589,-2082
C01816=3459,32097,-28609,714,-27591,-2083
C01817=3462,32100,-28605,714,-27592,-2084
C01818=3465,32103,-28601,713,-27593,-2086
C01819=3468,32106,-28597,713,-27595,-2087
C01820=3471,32110,-28593,712,-27596,-2088
C01821=3474,32113,-28589,712,-27597,-2089
C01822=3473,32116,-28586,712,-27598,-2089
C01823=3470,32119,-28582,713,-27599,-2087
C01824=3466,32121,-28579,713,-27600,-2086
C01825=3463,32124,-28575,713,-27601,-2085
C01826=3459,32127,-28572,714,-27602,-2083
C01827=3456,32130,-28569,714,-27604,-2082
C01828=3453,32133,-28565,715,-27605,-2081
C01829=3449,32136,-28562,715,-27606,-2079
C01830=3446,32138,-28558,716,-27607,-2078
C01831=3442,32141,-28555,716,-27608,-2077
C01832=3439,32144,-28551,717,-27609,-2075
C01833=3436,32147,-28548,717,-27610,-2074
C01834=3432,32150,-28544,718,-27611,-2073
C01835=3429,32153,-28541,718,-27612,-2071
C01836=3425,32155,-28537,719,-27613,-2070
C01837=3422,32158,-28534,719,-27614,-2069
C01838=3419,32161,-28530,720,-27615,-2067
C01839=3415,32164,-28527,720,-27616,-2066
C01840=3412,32167,-28524,720,-27617,-2065
C01841=3409,32164,-28527,721,-27616,-2063
C01842=3406,32161,-28531,721,-27615,-2062
C01843=3402,32157,-28535,722,-27614,-2061
C01844=3399,32154,-28539,722,-27612,-2060
C01845=3396,32151,-28543,723,-27611,-2058
C01846=3393,32148,-28547,723,-27610,-2057
C01847=3390,32145,-28551,724,-27608,-2056
C01848=3387,32141,-28555,724,-27607,-2055
C01849=3383,32138,-28559,725,-27606,-2054
C01850=3382,32134,-28564,725,-27604,-2053
C01851=3382,32130,-28569,725,-27603,-2053
C01852=3383,32126,-28574,725,-27601,-2053
C01853=3383,32122,-28579,725,-27599,-2053
C01854=3383,30564,-28376,696,-28695,-2034
C01855=-41004,59868,4099,4900,-34257,16705
C01856=-41004,59868,1099,4900,-34257,16705
C01857=-41004,64596,1380,5213,-31659,16463
C01858=-41004,59868,1099,4900,-34257,16705
C01859=-41004,59868,9099,4900,-34257,16705
C01860=3383,30564,-28376,696,-28695,-2034
C01861=3383,32117,-28585,725,-27598,-2054
C01862=3383,32113,-28590,725,-27596,-2054
C01863=3383,32109,-28595,725,-27595,-2054
C01864=3387,32106,-28599,725,-27593,-2055
C01865=3390,32103,-28602,724,-27592,-2056
C01866=3393,32100,-28606,724,-27591,-2058
C01867=3397,32097,-28609,723,-27590,-2059
C01868=3400,32095,-28613,723,-27589,-2060
C01869=3404,32092,-28616,722,-27588,-2062
C01870=3407,32089,-28619,722,-27587,-2063
C01871=3410,32086,-28623,721,-27586,-2064
C01872=3414,32083,-28626,721,-27585,-2066
C01873=3418,32082,-28627,720,-27585,-2067
C01874=3418,30529,-28418,691,-28682,-2047
C01875=4911,30797,-28078,475,-28802,-2627
C01876=4911,32350,-28287,504,-27705,-2647
C01877=4964,32266,-28390,497,-27673,-2668
C01878=5028,32187,-28487,488,-27643,-2694
C01879=5093,32107,-28584,479,-27613,-2719
C01880=5147,32024,-28687,472,-27581,-2740
C01881=5200,31939,-28790,465,-27549,-2761
C01882=5250,31854,-28895,458,-27516,-2781
C01883=5308,31771,-28996,450,-27485,-2804
C01884=5354,31684,-29103,444,-27451,-2822
C01885=5421,31606,-29199,435,-27422,-2849
C01886=5489,31527,-29295,426,-27392,-2875
C01887=5568,31454,-29384,415,-27364,-2906
C01888=5655,31385,-29470,403,-27338,-2940
C01889=5748,31333,-29532,389,-27319,-2977
C01890=5842,31282,-29595,376,-27300,-3013
C01891=5939,31237,-29650,362,-27284,-3051
C01892=6041,31207,-29685,347,-27274,-3091
C01893=6146,31185,-29712,332,-27266,-3132
C01894=6262,31191,-29704,315,-27270,-3177
C01895=6368,31168,-29731,300,-27262,-3218
C01896=6484,31175,-29722,283,-27265,-3262
C01897=6599,31181,-29713,266,-27269,-3307
C01898=6700,31215,-29671,252,-27283,-3346
C01899=6808,31236,-29644,236,-27293,-3388
C01900=6916,31256,-29618,220,-27302,-3430
C01901=7013,31296,-29569,206,-27318,-3468
C01902=7102,31351,-29501,193,-27340,-3502
C01903=7203,31385,-29458,178,-27355,-3541
C01904=7293,31435,-29395,165,-27375,-3576
C01905=7387,31480,-29340,151,-27394,-3612
C01906=7487,31515,-29296,136,-27408,-3651
C01907=7520,31592,-29201,131,-27438,-3664
C01908=7425,31641,-29141,145,-27456,-3627
C01909=7322,31670,-29106,160,-27467,-3587
C01910=7219,31698,-29072,175,-27476,-3547
C01911=7112,31677,-29099,190,-27467,-3505
C01912=7019,31630,-29157,204,-27448,-3469
C01913=6929,31578,-29222,217,-27427,-3434
C01914=6832,31538,-29272,231,-27410,-3397
C01915=6719,31529,-29285,248,-27405,-3353
C01916=6603,31522,-29293,264,-27402,-3308
C01917=6495,31536,-29278,280,-27406,-3266
C01918=6394,31567,-29239,295,-27417,-3226
C01919=6305,31634,-29157,307,-27442,-3192
C01920=6211,31684,-29097,321,-27460,-3155
C01921=6124,31753,-29012,333,-27486,-3121
C01922=6037,31823,-28927,345,-27512,-3087
C01923=5960,31898,-28836,356,-27540,-3057
C01924=5885,31972,-28744,366,-27569,-3027
C01925=5798,32042,-28659,378,-27595,-2994
C01926=5712,32112,-28574,390,-27621,-2960
C01927=5660,32197,-28469,397,-27653,-2939
C01928=5583,32270,-28380,408,-27681,-2909
C01929=5499,32307,-28335,420,-27694,-2876
C01930=5459,32397,-28224,425,-27729,-2860
C01931=5374,32467,-28139,437,-27755,-2827
C01932=5265,32475,-28130,452,-27757,-2785
C01933=5175,32464,-28144,465,-27752,-2749
C01934=5061,32458,-28153,482,-27748,-2705
C01935=4961,32424,-28195,496,-27734,-2666
C01936=4911,32350,-28287,504,-27705,-2647
C01937=4911,30797,-28078,475,-28802,-2627
C01938=5551,30887,-27963,383,-28843,-2876
C01939=5551,32440,-28172,412,-27746,-2896
C01940=5588,32355,-28276,407,-27714,-2910
C01941=5654,32284,-28363,398,-27687,-2937
C01942=5720,32212,-28451,389,-27660,-2963
C01943=5780,32137,-28542,380,-27632,-2986
C01944=5860,32072,-28622,369,-27607,-3017
C01945=5941,32007,-28701,358,-27583,-3049
C01946=6029,31962,-28756,345,-27566,-3084
C01947=6119,31921,-28805,333,-27551,-3119
C01948=6214,31893,-28839,319,-27542,-3156
C01949=6312,31875,-28861,305,-27536,-3194
C01950=6420,31881,-28853,289,-27539,-3236
C01951=6527,31887,-28845,274,-27543,-3277
C01952=6634,31893,-28836,258,-27546,-3319
C01953=6731,31870,-28864,245,-27538,-3357
C01954=6822,31830,-28913,232,-27524,-3392
C01955=6918,31806,-28942,218,-27515,-3430
C01956=7015,31782,-28971,204,-27507,-3467
C01957=7119,31778,-28975,189,-27506,-3508
C01958=7216,31755,-29002,175,-27498,-3545
C01959=7308,31788,-28960,161,-27512,-3581
C01960=7400,31822,-28918,148,-27527,-3617
C01961=7508,31828,-28910,132,-27530,-3658
C01962=7600,31861,-28868,119,-27544,-3694
C01963=7595,31925,-28790,120,-27569,-3692
C01964=7506,31970,-28736,132,-27585,-3657
C01965=7419,32022,-28672,145,-27604,-3624
C01966=7334,32080,-28601,157,-27626,-3590
C01967=7252,32145,-28522,168,-27650,-3558
C01968=7173,32212,-28440,179,-27675,-3528
C01969=7110,32285,-28350,188,-27703,-3503
C01970=7049,32360,-28259,197,-27732,-3479
C01971=6999,32439,-28162,204,-27762,-3459
C01972=6949,32518,-28064,211,-27792,-3440
C01973=6893,32595,-27970,219,-27821,-3418
C01974=6849,32677,-27869,224,-27853,-3401
C01975=6810,32762,-27766,230,-27885,-3385
C01976=6771,32846,-27662,235,-27917,-3370
C01977=6732,32930,-27559,240,-27950,-3354
C01978=6693,33014,-27456,246,-27982,-3339
C01979=6666,33103,-27346,249,-28016,-3328
C01980=6628,33188,-27242,254,-28049,-3313
C01981=6598,33276,-27134,258,-28083,-3301
C01982=6580,33370,-27018,260,-28119,-3294
C01983=6502,33404,-26977,271,-28131,-3263
C01984=6465,33321,-27080,277,-28098,-3249
C01985=6409,33243,-27176,285,-28068,-3227
C01986=6340,33169,-27267,295,-28038,-3201
C01987=6257,33122,-27327,307,-28019,-3168
C01988=6166,33088,-27369,320,-28005,-3133
C01989=6075,33054,-27411,334,-27991,-3098
C01990=5984,33021,-27453,347,-27977,-3063
C01991=5889,32996,-27485,360,-27966,-3025
C01992=5799,32961,-27528,373,-27951,-2990
C01993=5711,32920,-27579,386,-27935,-2957
C01994=5635,32859,-27655,397,-27910,-2927
C01995=5580,32791,-27738,406,-27883,-2906
C01996=5533,32711,-27838,413,-27851,-2888
C01997=5528,32616,-27955,414,-27815,-2886
C01998=5527,32530,-28061,415,-27781,-2886
C01999=5551,32440,-28172,412,-27746,-2896
C02000=5551,30887,-27963,383,-28843,-2876
C02001=6176,30312,-28666,296,-28627,-3121
C02002=6176,31865,-28875,325,-27530,-3141
C02003=6165,31853,-28889,326,-27525,-3137
C02004=6155,31842,-28903,328,-27521,-3133
C02005=6152,31828,-28920,328,-27515,-3132
C02006=6153,31813,-28939,328,-27510,-3132
C02007=6154,31797,-28958,328,-27504,-3133
C02008=6155,31782,-28977,328,-27498,-3133
C02009=6167,31772,-28989,326,-27494,-3138
C02010=6180,31762,-29002,325,-27490,-3143
C02011=6192,31751,-29014,323,-27486,-3148
C02012=6205,31741,-29027,321,-27482,-3153
C02013=6218,31731,-29039,319,-27479,-3158
C02014=6233,31729,-29042,317,-27478,-3164
C02015=6250,31730,-29040,315,-27478,-3170
C02016=6263,31721,-29051,313,-27475,-3175
C02017=6276,31711,-29063,311,-27471,-3180
C02018=6288,31701,-29076,309,-27468,-3185
C02019=6301,31691,-29088,307,-27464,-3190
C02020=6314,31681,-29100,306,-27460,-3195
C02021=6326,31671,-29113,304,-27456,-3200
C02022=6339,31660,-29125,302,-27452,-3205
C02023=6352,31650,-29137,300,-27449,-3210
C02024=6364,31640,-29150,299,-27445,-3215
C02025=6377,31630,-29162,297,-27441,-3220
C02026=6391,31624,-29169,295,-27439,-3225
C02027=6408,31625,-29168,292,-27439,-3232
C02028=6425,31626,-29167,290,-27440,-3238
C02029=6441,31627,-29166,287,-27441,-3245
C02030=6454,31635,-29156,286,-27444,-3250
C02031=6465,31646,-29142,284,-27448,-3254
C02032=6476,31658,-29127,282,-27453,-3258
C02033=6474,31673,-29108,282,-27459,-3257
C02034=6473,31688,-29090,283,-27465,-3257
C02035=6472,31704,-29071,283,-27471,-3256
C02036=6475,31718,-29054,282,-27476,-3258
C02037=6486,31729,-29039,281,-27481,-3262
C02038=6497,31741,-29025,279,-27485,-3266
C02039=6499,31755,-29008,279,-27491,-3267
C02040=6498,31770,-28989,279,-27497,-3266
C02041=6486,31781,-28976,280,-27501,-3262
C02042=6474,31791,-28963,282,-27505,-3257
C02043=6461,31801,-28951,284,-27508,-3252
C02044=6448,31811,-28939,286,-27512,-3247
C02045=6436,31821,-28926,287,-27516,-3242
C02046=6421,31824,-28923,290,-27517,-3236
C02047=6404,31824,-28924,292,-27517,-3230
C02048=6390,31831,-28914,294,-27519,-3224
C02049=6378,31841,-28902,296,-27523,-3219
C02050=6364,31850,-28892,298,-27526,-3214
C02051=6348,31849,-28893,300,-27526,-3208
C02052=6331,31848,-28894,302,-27525,-3201
C02053=6314,31847,-28896,305,-27525,-3195
C02054=6298,31846,-28897,307,-27524,-3188
C02055=6281,31845,-28898,310,-27524,-3182
C02056=6264,31844,-28899,312,-27523,-3175
C02057=6248,31843,-28901,314,-27522,-3169
C02058=6234,31851,-28892,316,-27525,-3164
C02059=6221,31861,-28879,318,-27529,-3159
C02060=6208,31869,-28869,320,-27532,-3153
C02061=6192,31869,-28870,322,-27532,-3147
C02062=6176,31865,-28875,325,-27530,-3141
C02063=6176,30312,-28666,296,-28627,-3121
C02064=6538,30170,-28838,244,-28576,-3262
C02065=6538,31723,-29047,273,-27479,-3282
C02066=6534,31710,-29062,274,-27474,-3280
C02067=6535,31696,-29080,274,-27468,-3281
C02068=6530,31683,-29095,274,-27463,-3279
C02069=6520,31673,-29109,276,-27459,-3275
C02070=6510,31662,-29122,277,-27455,-3271
C02071=6507,31649,-29138,278,-27450,-3270
C02072=6509,31634,-29156,278,-27444,-3271
C02073=6510,31620,-29174,278,-27439,-3271
C02074=6511,31606,-29191,277,-27433,-3272
C02075=6520,31595,-29204,276,-27429,-3276
C02076=6532,31585,-29216,274,-27425,-3280
C02077=6544,31576,-29228,273,-27422,-3285
C02078=6560,31577,-29227,271,-27422,-3291
C02079=6576,31577,-29226,268,-27423,-3297
C02080=6587,31568,-29237,267,-27419,-3302
C02081=6599,31558,-29249,265,-27416,-3306
C02082=6612,31551,-29258,263,-27413,-3311
C02083=6628,31552,-29257,261,-27413,-3317
C02084=6644,31553,-29255,258,-27414,-3323
C02085=6659,31554,-29254,256,-27414,-3330
C02086=6675,31555,-29253,254,-27415,-3336
C02087=6691,31555,-29252,252,-27415,-3342
C02088=6706,31556,-29251,249,-27416,-3348
C02089=6722,31557,-29250,247,-27416,-3354
C02090=6738,31558,-29248,245,-27417,-3360
C02091=6754,31559,-29247,243,-27417,-3366
C02092=6768,31563,-29242,240,-27419,-3372
C02093=6778,31574,-29229,239,-27423,-3376
C02094=6788,31584,-29215,237,-27428,-3379
C02095=6798,31595,-29202,236,-27432,-3383
C02096=6809,31606,-29189,234,-27436,-3387
C02097=6819,31617,-29175,233,-27441,-3391
C02098=6829,31627,-29162,231,-27445,-3395
C02099=6839,31638,-29149,230,-27449,-3399
C02100=6850,31649,-29136,228,-27453,-3403
C02101=6839,31658,-29124,230,-27457,-3399
C02102=6827,31668,-29112,232,-27461,-3394
C02103=6815,31678,-29101,233,-27464,-3390
C02104=6803,31687,-29089,235,-27468,-3385
C02105=6791,31697,-29077,237,-27471,-3380
C02106=6779,31706,-29066,238,-27475,-3376
C02107=6767,31716,-29054,240,-27478,-3371
C02108=6755,31725,-29042,242,-27482,-3366
C02109=6743,31735,-29031,243,-27486,-3362
C02110=6731,31744,-29019,245,-27489,-3357
C02111=6719,31754,-29008,247,-27493,-3352
C02112=6707,31763,-28996,248,-27496,-3348
C02113=6695,31773,-28984,250,-27500,-3343
C02114=6683,31782,-28973,252,-27503,-3338
C02115=6668,31781,-28974,254,-27503,-3332
C02116=6652,31780,-28975,256,-27502,-3326
C02117=6636,31780,-28976,259,-27502,-3320
C02118=6621,31779,-28977,261,-27501,-3314
C02119=6605,31778,-28979,263,-27501,-3308
C02120=6590,31776,-28981,265,-27500,-3302
C02121=6579,31766,-28994,267,-27496,-3298
C02122=6569,31755,-29007,268,-27492,-3294
C02123=6559,31744,-29020,270,-27487,-3290
C02124=6549,31733,-29034,271,-27483,-3286
C02125=6538,31723,-29047,273,-27479,-3282
C02126=6538,30170,-28838,244,-28576,-3262
C02127=6843,30182,-28821,200,-28584,-3380
C02128=6843,31735,-29030,229,-27487,-3400
C02129=6844,31726,-29041,229,-27483,-3401
C02130=6844,31717,-29052,229,-27480,-3401
C02131=6845,31708,-29062,229,-27476,-3401
C02132=6851,31702,-29071,228,-27474,-3403
C02133=6858,31696,-29078,227,-27472,-3406
C02134=6865,31690,-29085,226,-27470,-3409
C02135=6873,31684,-29092,225,-27467,-3412
C02136=6879,31678,-29100,224,-27465,-3414
C02137=6879,31669,-29111,224,-27461,-3415
C02138=6880,31660,-29122,224,-27458,-3415
C02139=6881,31651,-29133,224,-27455,-3415
C02140=6888,31645,-29140,223,-27452,-3418
C02141=6896,31639,-29147,222,-27450,-3421
C02142=6903,31634,-29154,221,-27448,-3424
C02143=6911,31628,-29161,220,-27446,-3427
C02144=6919,31625,-29165,218,-27445,-3430
C02145=6929,31625,-29164,217,-27445,-3434
C02146=6938,31626,-29163,216,-27445,-3438
C02147=6947,31628,-29161,214,-27446,-3441
C02148=6953,31635,-29152,213,-27449,-3444
C02149=6960,31641,-29144,212,-27452,-3446
C02150=6966,31648,-29136,211,-27454,-3448
C02151=6972,31655,-29128,210,-27457,-3451
C02152=6981,31657,-29125,209,-27458,-3454
C02153=6991,31657,-29124,208,-27458,-3458
C02154=7000,31658,-29124,206,-27458,-3462
C02155=7008,31661,-29119,205,-27460,-3465
C02156=7015,31668,-29111,204,-27463,-3467
C02157=7021,31675,-29103,203,-27465,-3470
C02158=7027,31681,-29094,202,-27468,-3472
C02159=7034,31688,-29086,201,-27471,-3475
C02160=7026,31694,-29079,203,-27473,-3472
C02161=7019,31700,-29072,204,-27475,-3469
C02162=7011,31706,-29065,205,-27477,-3466
C02163=7004,31711,-29057,206,-27479,-3463
C02164=6997,30164,-28841,178,-28579,-3440
C02165=-41004,59868,4099,4900,-34257,16705
C02166=-41004,59868,1099,4900,-34257,16705
C02167=-41004,64596,1380,5213,-31659,16463
C02168=-41004,59868,1099,4900,-34257,16705
C02169=-41004,59868,9099,4900,-34257,16705
C02170=6997,30164,-28841,178,-28579,-3440
C02171=6997,31717,-29050,207,-27482,-3460
C02172=6989,31723,-29043,208,-27484,-3457
C02173=6982,31729,-29036,209,-27486,-3454
C02174=6975,31735,-29029,210,-27488,-3452
C02175=6967,31741,-29022,211,-27490,-3449
C02176=6960,31747,-29014,212,-27493,-3446
C02177=6952,31752,-29007,213,-27495,-3443
C02178=6945,31758,-29000,214,-27497,-3440
C02179=6938,31764,-28993,215,-27499,-3437
C02180=6929,31767,-28989,216,-27500,-3434
C02181=6920,31767,-28990,218,-27500,-3430
C02182=6910,31766,-28990,219,-27500,-3426
C02183=6901,31767,-28990,220,-27500,-3423
C02184=6893,31773,-28982,221,-27502,-3420
C02185=6886,31779,-28975,222,-27504,-3417
C02186=6879,31785,-28968,224,-27506,-3414
C02187=6871,31791,-28961,225,-27509,-3411
C02188=6865,31788,-28964,226,-27508,-3409
C02189=6858,31781,-28972,226,-27505,-3406
C02190=6852,31775,-28980,227,-27502,-3404
C02191=6846,31768,-28989,228,-27500,-3401
C02192=6841,31761,-28997,229,-27497,-3399
C02193=6841,31752,-29008,229,-27494,-3400
C02194=6842,31744,-29019,229,-27490,-3400
C02195=6843,31735,-29030,229,-27487,-3400
C02196=6843,30182,-28821,200,-28584,-3380
C02197=7343,30160,-28845,128,-28580,-3575
C02198=7343,31713,-29054,157,-27483,-3595
C02199=7412,31680,-29093,147,-27472,-3622
C02200=7489,31656,-29122,136,-27463,-3651
C02201=7559,31613,-29174,126,-27447,-3679
C02202=7626,31560,-29239,116,-27427,-3705
C02203=7710,31555,-29245,104,-27426,-3737
C02204=7797,31560,-29239,91,-27429,-3771
C02205=7884,31564,-29232,79,-27431,-3805
C02206=7972,31569,-29226,66,-27434,-3839
C02207=8059,31574,-29219,53,-27437,-3873
C02208=8146,31579,-29213,41,-27440,-3907
C02209=8233,31584,-29206,28,-27443,-3941
C02210=8321,31588,-29200,15,-27445,-3974
C02211=8408,31593,-29193,3,-27448,-4008
C02212=8495,31598,-29187,-10,-27451,-4042
C02213=8582,31603,-29180,-23,-27454,-4076
C02214=8670,31608,-29173,-35,-27457,-4110
C02215=8757,31612,-29167,-48,-27459,-4144
C02216=8834,31588,-29196,-59,-27451,-4174
C02217=8922,31593,-29190,-72,-27454,-4208
C02218=9009,31598,-29183,-85,-27456,-4242
C02219=9096,31603,-29177,-97,-27459,-4275
C02220=9184,31607,-29170,-110,-27462,-4309
C02221=9271,31612,-29163,-123,-27465,-4343
C02222=9344,31641,-29127,-133,-27477,-4371
C02223=9429,31649,-29116,-146,-27481,-4405
C02224=9516,31654,-29110,-158,-27484,-4438
C02225=9604,31659,-29103,-171,-27486,-4472
C02226=9690,31665,-29095,-184,-27490,-4506
C02227=9762,31696,-29056,-194,-27503,-4534
C02228=9785,31743,-28998,-197,-27521,-4543
C02229=9711,31779,-28955,-187,-27534,-4514
C02230=9624,31774,-28961,-174,-27531,-4480
C02231=9537,31769,-28968,-161,-27529,-4446
C02232=9450,31765,-28974,-149,-27526,-4412
C02233=9362,31760,-28981,-136,-27523,-4379
C02234=9275,31755,-28988,-123,-27520,-4345
C02235=9188,31750,-28994,-111,-27517,-4311
C02236=9101,31745,-29001,-98,-27515,-4277
C02237=9023,31767,-28974,-87,-27522,-4247
C02238=8937,31765,-28978,-74,-27520,-4213
C02239=8849,31760,-28984,-62,-27518,-4180
C02240=8762,31755,-28991,-49,-27515,-4146
C02241=8675,31750,-28998,-36,-27512,-4112
C02242=8588,31745,-29004,-24,-27509,-4078
C02243=8511,31770,-28975,-13,-27518,-4048
C02244=8424,31765,-28981,0,-27515,-4014
C02245=8337,31760,-28988,13,-27512,-3981
C02246=8260,31784,-28959,24,-27521,-3951
C02247=8173,31779,-28965,36,-27518,-3917
C02248=8096,31804,-28936,47,-27527,-3887
C02249=8011,31806,-28934,60,-27527,-3854
C02250=7932,31823,-28913,71,-27533,-3823
C02251=7855,31847,-28884,82,-27541,-3793
C02252=7775,31862,-28867,94,-27546,-3762
C02253=7706,31840,-28894,104,-27537,-3735
C02254=7620,31834,-28902,116,-27534,-3702
C02255=7548,31802,-28942,127,-27520,-3674
C02256=7461,31797,-28949,139,-27517,-3640
C02257=7390,31765,-28989,150,-27504,-3613
C02258=7343,31713,-29054,157,-27483,-3595
C02259=7343,30160,-28845,128,-28580,-3575
C02260=1342,28608,-30796,1011,-27917,-1255
C02261=1342,30161,-31005,1040,-26820,-1275
C02262=1338,30164,-31001,1041,-26821,-1273
C02263=1335,30167,-30998,1041,-26822,-1272
C02264=1332,30170,-30994,1042,-26823,-1271
C02265=1328,30173,-30991,1042,-26824,-1269
C02266=1325,30175,-30987,1043,-26825,-1268
C02267=1321,30178,-30984,1043,-26826,-1267
C02268=1318,30181,-30980,1044,-26827,-1265
C02269=1315,30184,-30977,1044,-26828,-1264
C02270=1311,30187,-30973,1045,-26829,-1263
C02271=1308,30190,-30970,1045,-26830,-1261
C02272=1304,30192,-30966,1046,-26832,-1260
C02273=1301,30195,-30963,1046,-26833,-1259
C02274=1298,30198,-30960,1046,-26834,-1257
C02275=1294,30201,-30956,1047,-26835,-1256
C02276=1291,30204,-30953,1047,-26836,-1255
C02277=1287,30207,-30949,1048,-26837,-1253
C02278=1284,30209,-30946,1048,-26838,-1252
C02279=1281,30212,-30942,1049,-26839,-1251
C02280=1277,30209,-30946,1049,-26838,-1249
C02281=1274,30206,-30950,1050,-26836,-1248
C02282=1271,30203,-30954,1050,-26835,-1247
C02283=1267,30200,-30958,1051,-26834,-1246
C02284=1264,30196,-30962,1051,-26833,-1244
C02285=1261,30193,-30966,1052,-26831,-1243
C02286=1257,30190,-30970,1052,-26830,-1242
C02287=1254,30187,-30974,1053,-26829,-1241
C02288=1251,30184,-30978,1054,-26828,-1239
C02289=1249,30180,-30982,1054,-26826,-1239
C02290=1249,30176,-30988,1054,-26824,-1239
C02291=1249,30171,-30993,1054,-26823,-1239
C02292=1250,30167,-30998,1054,-26821,-1239
C02293=1250,30163,-31003,1054,-26820,-1239
C02294=1250,30159,-31009,1054,-26818,-1239
C02295=1250,30154,-31014,1054,-26816,-1239
C02296=1253,30151,-31017,1054,-26815,-1241
C02297=1256,30149,-31021,1053,-26814,-1242
C02298=1260,30146,-31024,1053,-26813,-1243
C02299=1263,30143,-31028,1052,-26812,-1245
C02300=1267,30140,-31031,1052,-26811,-1246
C02301=1270,30137,-31035,1051,-26810,-1247
C02302=1273,30134,-31038,1051,-26809,-1249
C02303=1277,30132,-31041,1050,-26808,-1250
C02304=1280,30129,-31045,1050,-26807,-1251
C02305=1284,30128,-31046,1049,-26806,-1253
C02306=1289,30128,-31046,1049,-26807,-1255
C02307=1294,30128,-31045,1048,-26807,-1257
C02308=1299,30129,-31045,1047,-26807,-1258
C02309=1304,30129,-31045,1046,-26807,-1260
C02310=1308,30129,-31044,1046,-26807,-1262
C02311=1313,30130,-31044,1045,-26807,-1264
C02312=1316,30133,-31040,1045,-26809,-1265
C02313=1320,30136,-31036,1044,-26810,-1266
C02314=1323,30139,-31032,1043,-26811,-1268
C02315=1326,30142,-31028,1043,-26812,-1269
C02316=1330,30146,-31024,1042,-26814,-1270
C02317=1333,30149,-31020,1042,-26815,-1272
C02318=1336,30152,-31016,1041,-26816,-1273
C02319=1340,30155,-31012,1041,-26817,-1274
C02320=1343,30158,-31008,1040,-26819,-1275
